; generated by PrusaSlicer 2.9.4 on 2026-03-18 at 01:58:54 UTC


;
;
; 

; external perimeters extrusion width = 0.45mm
; perimeters extrusion width = 0.45mm
; infill extrusion width = 0.45mm
; solid infill extrusion width = 0.45mm
; top infill extrusion width = 0.40mm
; first layer extrusion width = 0.42mm

M73 P0 R4
M73 Q0 S4
M201 X1000 Y1000 Z200 E5000 ; sets maximum accelerations, mm/sec^2
M203 X200 Y200 Z12 E120 ; sets maximum feedrates, mm / sec
M204 S1250 T1250 ; sets acceleration (S) and retract acceleration (R), mm/sec^2
M205 X8.00 Y8.00 Z0.40 E4.50 ; sets the jerk limits, mm/sec
M205 S0 T0 ; sets the minimum extruding and travel feed rate, mm/sec

; printing object Adapter Base Plate Spacer.stl id:0 copy 0
; stop printing object Adapter Base Plate Spacer.stl id:0 copy 0

;TYPE:Custom
M862.3 P "MK3S" ; printer model check
M862.1 P0.4 ; nozzle diameter check
M115 U3.14.1 ; tell printer latest fw version
G90 ; use absolute coordinates
M83 ; extruder relative mode
M104 S240 ; set extruder temp
M140 S90 ; set bed temp
M190 S90 ; wait for bed temp
M109 S240 ; wait for extruder temp
G28 W ; home all without mesh bed level
G80 X116.871 Y96.8697 W16.2587 H16.2606 ; mesh bed levelling

G1 Z0.2 F720
G1 Y-3 F1000 ; go outside print area
G92 E0
G1 X60 E9 F1000 ; intro line
G1 X100 E12.5 F1000 ; intro line
M73 P1 R4
M73 Q1 S4

G92 E0
M221 S95

; Don't change E values below. Excessive value can damage the printer.
M907 E430 ; set extruder motor current
G21 ; set units to millimeters
G90 ; use absolute coordinates
M83 ; use relative distances for extrusion

M900 K0.08 ; Filament gcode LA 1.5
M900 K45 ; Filament gcode LA 1.0




M107
;LAYER_CHANGE
;Z:0.2
;HEIGHT:0.2
G1 E-1 F2100
M73 P2 R4
M73 Q2 S4
G1 Z.4 F720
G1 X118.543 Y100.377 F10800
G1 Z.2 F720
G1 E1 F2100
M204 S800
;TYPE:Skirt/Brim
;WIDTH:0.42
G1 F1200
G1 X119.493 Y99.279 E.04552
G1 X120.884 Y98.209 E.05502
G1 X122.188 Y97.573 E.04549
G1 X123.587 Y97.185 E.04552
G1 X125.212 Y97.061 E.0511
G1 X126.653 Y97.232 E.0455
G1 X128.039 Y97.662 E.0455
G1 X129.577 Y98.509 E.05505
G1 X130.682 Y99.45 E.04551
G1 X131.597 Y100.576 E.04549
G1 X132.361 Y102.016 E.05111
G1 X132.837 Y103.705 E.05502
G1 X132.942 Y105.152 E.04549
G1 X132.743 Y106.77 E.05111
G1 X132.292 Y108.15 E.04552
G1 X131.597 Y109.424 E.0455
G1 X130.464 Y110.764 E.05502
G1 X129.172 Y111.758 E.05111
G1 X127.873 Y112.405 E.0455
M73 Q3 S4
G1 X126.477 Y112.803 E.04551
G1 X124.728 Y112.937 E.055
G1 X123.288 Y112.755 E.04551
G1 X121.741 Y112.242 E.0511
G1 X120.23 Y111.349 E.05503
M73 P3 R4
G1 X119.154 Y110.375 E.04551
G1 X118.274 Y109.221 E.0455
G1 X117.554 Y107.758 E.05113
G1 X117.176 Y106.357 E.0455
G1 X117.06 Y104.91 E.04552
G1 X117.209 Y103.467 E.04548
G1 X117.736 Y101.793 E.05503
G1 X118.514 Y100.429 E.04924
M204 S1000
G1 X118.839 Y100.615 F10800
M204 S800
G1 F1200
G1 X118.846 Y100.602 E.00046
G1 X119.749 Y99.556 E.04333
G1 X121.085 Y98.528 E.05285
G1 X122.329 Y97.923 E.04337
G1 X123.661 Y97.555 E.04333
G1 X125.195 Y97.438 E.04824
G1 X126.568 Y97.599 E.04334
G1 X127.888 Y98.008 E.04333
G1 X129.365 Y98.821 E.05286
G1 X130.417 Y99.718 E.04335
G1 X131.288 Y100.792 E.04336
G1 X132.009 Y102.151 E.04824
G1 X132.466 Y103.774 E.05287
G1 X132.564 Y105.152 E.04332
G1 X132.377 Y106.679 E.04824
G1 X131.948 Y107.994 E.04337
G1 X131.288 Y109.208 E.04333
G1 X130.2 Y110.496 E.05286
G1 X128.98 Y111.434 E.04825
G1 X127.743 Y112.05 E.04333
G1 X126.414 Y112.432 E.04336
G1 X124.733 Y112.56 E.05286
G1 X123.362 Y112.385 E.04334
G1 X121.902 Y111.901 E.04823
G1 X120.451 Y111.043 E.05285
G1 X119.427 Y110.114 E.04335
G1 X118.589 Y109.014 E.04336
M73 Q4 S4
G1 X117.91 Y107.634 E.04822
G1 X117.549 Y106.3 E.04333
G1 X117.437 Y104.922 E.04335
G1 X117.577 Y103.546 E.04337
G1 X118.084 Y101.938 E.05286
M73 P4 R4
G1 X118.809 Y100.667 E.04588
M204 S1000
G1 X119.134 Y100.852 F10800
M204 S800
G1 F1200
G1 X119.148 Y100.828 E.00087
G1 X120.005 Y99.832 E.0412
G1 X121.287 Y98.846 E.05071
G1 X122.469 Y98.273 E.04119
G1 X123.735 Y97.925 E.04117
G1 X125.177 Y97.814 E.04535
G1 X126.482 Y97.966 E.04119
G1 X127.738 Y98.353 E.04121
G1 X129.154 Y99.133 E.05069
G1 X130.152 Y99.987 E.04118
G1 X130.979 Y101.008 E.0412
G1 X131.657 Y102.286 E.04536
G1 X132.095 Y103.842 E.05068
G1 X132.187 Y105.152 E.04118
G1 X132.011 Y106.588 E.04536
G1 X131.605 Y107.837 E.04118
G1 X130.979 Y108.992 E.04119
G1 X129.935 Y110.227 E.0507
G1 X128.789 Y111.109 E.04534
G1 X127.614 Y111.696 E.04118
G1 X126.351 Y112.06 E.04121
G1 X124.739 Y112.183 E.05069
G1 X123.436 Y112.015 E.04119
G1 X122.063 Y111.56 E.04535
G1 X120.671 Y110.737 E.0507
G1 X119.7 Y109.854 E.04115
G1 X118.905 Y108.808 E.04119
G1 X118.266 Y107.51 E.04536
G1 X117.922 Y106.242 E.04119
G1 X117.814 Y104.933 E.04118
G1 X117.946 Y103.626 E.04119
G1 X118.431 Y102.084 E.05068
G1 X119.104 Y100.904 E.04259
M204 S1000
;WIPE_START
G1 F8640
G1 X119.134 Y100.852 E-.01386
G1 X119.148 Y100.828 E-.00642
G1 X120.005 Y99.832 E-.30339
G1 X121.287 Y98.846 E-.37344
G1 X122.467 Y98.274 E-.30289
;WIPE_END
G1 Z.4 F720
; printing object Adapter Base Plate Spacer.stl id:0 copy 0
G1 X125.048 Y100.805 F10800
M73 Q5 S4
G1 Z.2 F720
G1 E1 F2100
M204 S800
;TYPE:Perimeter
;WIDTH:0.419999
G1 F1200
G1 X125.586 Y100.83 E.01689
G1 X126.081 Y100.929 E.01583
G1 X126.569 Y101.091 E.01612
G1 X127.032 Y101.31 E.01606
M73 P5 R4
G1 X127.459 Y101.581 E.01586
G1 X128.046 Y102.092 E.0244
G1 X128.285 Y102.393 E.01205
G1 X128.653 Y102.917 E.02008
G1 X128.916 Y103.5 E.02005
G1 X129.11 Y104.109 E.02004
G1 X129.177 Y104.6 E.01554
G1 X129.21 Y105.137 E.01687
G1 X129.165 Y105.631 E.01555
G1 X128.975 Y106.395 E.02468
G1 X128.78 Y106.86 E.01581
G1 X128.525 Y107.306 E.01611
G1 X128.218 Y107.718 E.01611
G1 X127.869 Y108.083 E.01583
G1 X127.253 Y108.558 E.02439
G1 X126.56 Y108.912 E.0244
G1 X126.089 Y109.068 E.01556
G1 X125.313 Y109.2 E.02468
G1 X124.809 Y109.207 E.0158
G1 X124.298 Y109.153 E.01611
G1 X123.798 Y109.036 E.0161
G1 X123.316 Y108.86 E.01609
G1 X122.858 Y108.626 E.01613
G1 X122.44 Y108.343 E.01583
G1 X121.863 Y107.808 E.02467
G1 X121.554 Y107.419 E.01558
G1 X121.169 Y106.744 E.02436
G1 X120.913 Y106.009 E.0244
G1 X120.822 Y105.521 E.01556
G1 X120.798 Y104.735 E.02466
G1 X120.86 Y104.233 E.01586
G1 X120.984 Y103.736 E.01606
G1 X121.165 Y103.264 E.01585
G1 X121.554 Y102.58 E.02467
G1 X121.868 Y102.185 E.01582
G1 X122.228 Y101.831 E.01583
G1 X122.866 Y101.37 E.02468
G1 X123.316 Y101.14 E.01585
G1 X123.797 Y100.964 E.01606
G1 X124.298 Y100.847 E.01613
G1 X124.8 Y100.794 E.01583
G1 X124.988 Y100.802 E.0059
M204 S1000
G1 X125.066 Y100.428 F10800
M204 S800
;TYPE:External perimeter
G1 F1200
G1 X125.632 Y100.454 E.01777
G1 X126.178 Y100.564 E.01746
G1 X126.709 Y100.74 E.01754
G1 X127.214 Y100.979 E.01752
G1 X127.685 Y101.277 E.01748
G1 X128.32 Y101.83 E.0264
G1 X128.843 Y102.489 E.02638
G1 X129.117 Y102.97 E.01736
G1 X129.32 Y103.5 E.01779
G1 X129.478 Y104.029 E.01731
G1 X129.554 Y104.577 E.01735
G1 X129.588 Y105.143 E.01778
G1 X129.538 Y105.695 E.01738
G1 X129.334 Y106.514 E.02646
G1 X129.119 Y107.027 E.01744
G1 X128.841 Y107.513 E.01756
G1 X128.507 Y107.962 E.01755
G1 X128.122 Y108.365 E.01748
G1 X127.455 Y108.878 E.02638
G1 X126.706 Y109.261 E.02638
G1 X126.18 Y109.435 E.01737
G1 X125.348 Y109.576 E.02646
G1 X124.791 Y109.585 E.01747
G1 X124.235 Y109.525 E.01753
G1 X123.69 Y109.398 E.01755
G1 X123.164 Y109.206 E.01756
G1 X122.666 Y108.951 E.01754
G1 X122.205 Y108.639 E.01745
G1 X121.586 Y108.065 E.02647
G1 X121.241 Y107.631 E.01738
G1 X120.824 Y106.9 E.02639
G1 X120.547 Y106.106 E.02637
G1 X120.446 Y105.561 E.01738
G1 X120.421 Y104.717 E.02647
G1 X120.488 Y104.164 E.01747
G1 X120.623 Y103.622 E.01751
G1 X120.823 Y103.102 E.01747
G1 X121.241 Y102.368 E.02648
G1 X121.587 Y101.932 E.01745
G1 X121.984 Y101.542 E.01745
G1 X122.669 Y101.048 E.02648
G1 X123.165 Y100.794 E.01747
G1 X123.69 Y100.602 E.01753
G1 X124.235 Y100.475 E.01755
G1 X124.789 Y100.416 E.01747
G1 X125.006 Y100.426 E.00681
M73 Q6 S4
M204 S1000
;WIPE_START
G1 F8640
G1 X125.066 Y100.428 E-.01386
G1 X125.632 Y100.454 E-.13083
G1 X126.178 Y100.564 E-.12861
G1 X126.709 Y100.74 E-.12917
G1 X127.214 Y100.979 E-.12901
G1 X127.685 Y101.277 E-.12869
G1 X128.32 Y101.83 E-.19443
G1 X128.711 Y102.323 E-.1454
;WIPE_END
G1 Z.4 F720
G1 X126.913 Y101.421 F10800
G1 Z.2 F720
M73 P6 R4
G1 E1 F2100
M204 S800
;TYPE:Solid infill
;WIDTH:0.430982
G1 F1200
G1 X127.839 Y102.347 E.04226
G1 X128.263 Y102.881 E.022
G1 X128.485 Y103.27 E.01445
G1 X128.654 Y103.711 E.01524
G1 X126.274 Y101.331 E.10861
G1 X125.999 Y101.239 E.00936
G1 X125.543 Y101.148 E.015
G1 X128.847 Y104.453 E.15079
G1 X128.883 Y105.037 E.01888
G1 X124.968 Y101.122 E.17865
G1 X124.81 Y101.115 E.0051
G1 X124.45 Y101.153 E.01168
G1 X128.85 Y105.553 E.20079
G1 X128.744 Y105.996 E.0147
G1 X123.995 Y101.247 E.21671
G1 X123.583 Y101.384 E.01401
G1 X128.617 Y106.418 E.22972
G1 X128.492 Y106.718 E.01049
G1 X128.447 Y106.797 E.00293
G1 X123.207 Y101.556 E.23914
G1 X123.034 Y101.644 E.00626
G1 X122.867 Y101.765 E.00665
G1 X128.246 Y107.144 E.24546
G1 X128.012 Y107.459 E.01266
M73 P7 R4
M73 Q7 S4
G1 X122.548 Y101.995 E.24934
G1 X122.436 Y102.076 E.00446
G1 X122.257 Y102.252 E.0081
G1 X127.749 Y107.745 E.25064
G1 X127.655 Y107.844 E.00441
G1 X127.454 Y107.999 E.00819
G1 X121.996 Y102.54 E.24909
G1 X121.765 Y102.858 E.01268
G1 X127.144 Y108.237 E.24546
G1 X126.791 Y108.434 E.01304
G1 X121.565 Y103.208 E.23848
G1 X121.455 Y103.401 E.00717
G1 X121.387 Y103.578 E.00612
G1 X126.427 Y108.618 E.22999
G1 X126.015 Y108.755 E.01401
G1 X121.251 Y103.99 E.21742
G1 X121.176 Y104.292 E.01004
M73 Q8 S4
G1 X121.157 Y104.445 E.00497
G1 X125.546 Y108.835 E.20031
G1 X125.284 Y108.88 E.00858
M73 P8 R4
G1 X125.046 Y108.883 E.00768
G1 X121.126 Y104.963 E.17888
G1 X121.151 Y105.538 E.01857
G1 X124.462 Y108.848 E.15107
G1 X123.89 Y108.729 E.01885
G1 X123.738 Y108.673 E.00523
G1 X121.347 Y106.282 E.10911
G1 X121.462 Y106.61 E.01122
G1 X121.821 Y107.239 E.02337
G1 X122.071 Y107.555 E.013
G1 X123.092 Y108.576 E.04659
M204 S1000
;LAYER_CHANGE
;Z:0.35
;HEIGHT:0.15
;BEFORE_LAYER_CHANGE
G92 E0.0
;0.35


;WIPE_START
G1 F8640
G1 X122.071 Y107.555 E-.3334
G1 X121.821 Y107.239 E-.09304
G1 X121.462 Y106.61 E-.16723
G1 X121.347 Y106.282 E-.08026
G1 X122.345 Y107.281 E-.32607
;WIPE_END
G1 Z.35 F720
;AFTER_LAYER_CHANGE
;0.35
M104 S230 ; set temperature
M140 S85 ; set bed temperature
; stop printing object Adapter Base Plate Spacer.stl id:0 copy 0
G1 Z.55
G1 X121.137 Y111.885 F10800
G1 Z.35 F720
G1 E1 F2100
;TYPE:Skirt/Brim
;WIDTH:0.42
G1 F1220
G1 X120.23 Y111.349 E.02548
G1 X119.154 Y110.375 E.0351
G1 X118.274 Y109.221 E.0351
G1 X117.554 Y107.758 E.03944
G1 X117.176 Y106.357 E.03509
G1 X117.06 Y104.91 E.03511
G1 X117.209 Y103.467 E.03508
G1 X117.736 Y101.793 E.04244
G1 X118.543 Y100.377 E.03942
G1 X119.493 Y99.279 E.03511
G1 X120.884 Y98.209 E.04244
G1 X122.188 Y97.573 E.03509
G1 X123.587 Y97.185 E.03511
G1 X125.212 Y97.061 E.03941
G1 X126.653 Y97.232 E.03509
G1 X128.039 Y97.662 E.0351
M73 Q9 S4
G1 X129.577 Y98.509 E.04246
G1 X130.682 Y99.45 E.0351
G1 X131.597 Y100.576 E.03509
G1 X132.361 Y102.016 E.03942
M73 P9 R4
G1 X132.837 Y103.705 E.04244
G1 X132.942 Y105.152 E.03509
G1 X132.743 Y106.77 E.03943
G1 X132.292 Y108.15 E.03511
G1 X131.597 Y109.424 E.0351
G1 X130.464 Y110.764 E.04244
G1 X129.172 Y111.758 E.03942
G1 X127.873 Y112.405 E.0351
G1 X126.477 Y112.803 E.03511
G1 X124.728 Y112.937 E.04242
G1 X123.288 Y112.755 E.0351
G1 X121.741 Y112.242 E.03942
G1 X121.188 Y111.915 E.01554
G1 X121.38 Y111.592 F10800
G1 F1220
G1 X120.451 Y111.043 E.0261
G1 X119.427 Y110.114 E.03344
G1 X118.589 Y109.014 E.03344
G1 X117.91 Y107.634 E.0372
G1 X117.549 Y106.3 E.03342
G1 X117.437 Y104.922 E.03344
G1 X117.577 Y103.546 E.03345
G1 X118.084 Y101.938 E.04078
G1 X118.846 Y100.602 E.0372
G1 X119.749 Y99.556 E.03342
G1 X121.085 Y98.528 E.04077
G1 X122.329 Y97.923 E.03346
G1 X123.661 Y97.555 E.03342
G1 X125.195 Y97.438 E.03721
G1 X126.568 Y97.599 E.03343
G1 X127.888 Y98.008 E.03342
G1 X129.365 Y98.821 E.04078
G1 X130.417 Y99.718 E.03344
G1 X131.288 Y100.792 E.03344
G1 X132.009 Y102.151 E.03721
G1 X132.466 Y103.774 E.04078
G1 X132.564 Y105.152 E.03341
G1 X132.377 Y106.679 E.03721
G1 X131.948 Y107.994 E.03345
M73 Q10 S4
G1 X131.288 Y109.208 E.03342
G1 X130.2 Y110.496 E.04078
G1 X128.98 Y111.434 E.03722
M73 P10 R4
G1 X127.743 Y112.05 E.03342
G1 X126.414 Y112.432 E.03344
G1 X124.733 Y112.56 E.04077
G1 X123.362 Y112.385 E.03343
G1 X121.902 Y111.901 E.0372
G1 X121.431 Y111.623 E.01323
G1 X121.622 Y111.299 F10800
G1 F1220
G1 X120.671 Y110.737 E.02672
G1 X119.7 Y109.854 E.03174
G1 X118.905 Y108.808 E.03177
G1 X118.266 Y107.51 E.03499
G1 X117.922 Y106.242 E.03177
G1 X117.814 Y104.933 E.03177
G1 X117.946 Y103.626 E.03177
G1 X118.431 Y102.084 E.03909
G1 X119.148 Y100.828 E.03498
G1 X120.005 Y99.832 E.03178
G1 X121.287 Y98.846 E.03911
G1 X122.469 Y98.273 E.03177
G1 X123.735 Y97.925 E.03175
G1 X125.177 Y97.814 E.03498
G1 X126.482 Y97.966 E.03177
G1 X127.738 Y98.353 E.03179
G1 X129.154 Y99.133 E.0391
G1 X130.152 Y99.987 E.03177
G1 X130.979 Y101.008 E.03178
G1 X131.657 Y102.286 E.03499
G1 X132.095 Y103.842 E.03909
G1 X132.187 Y105.152 E.03176
G1 X132.011 Y106.588 E.03499
G1 X131.605 Y107.837 E.03176
G1 X130.979 Y108.992 E.03177
G1 X129.935 Y110.227 E.03911
G1 X128.789 Y111.109 E.03497
G1 X127.614 Y111.696 E.03177
G1 X126.351 Y112.06 E.03179
G1 X124.739 Y112.183 E.0391
G1 X123.436 Y112.015 E.03177
G1 X122.063 Y111.56 E.03498
G1 X121.674 Y111.33 E.01093
;WIPE_START
G1 F8640
G1 X121.622 Y111.299 E-.01398
G1 X120.671 Y110.737 E-.25507
M73 Q11 S4
G1 X119.7 Y109.854 E-.30305
G1 X118.905 Y108.808 E-.30337
G1 X118.667 Y108.324 E-.12453
;WIPE_END
G1 Z.55 F720
; printing object Adapter Base Plate Spacer.stl id:0 copy 0
G1 X125.88 Y102.462 F10800
G1 Z.35 F720
M73 P11 R4
G1 E1 F2100
M204 S800
;TYPE:Perimeter
;WIDTH:0.449999
G1 F1220
G1 X126.288 Y102.637 E.01157
G1 X126.883 Y103.081 E.01934
G1 X127.232 Y103.496 E.01413
G1 X127.476 Y103.945 E.01331
G1 X127.631 Y104.432 E.01332
G1 X127.691 Y104.94 E.01333
G1 X127.654 Y105.451 E.01335
G1 X127.521 Y105.944 E.0133
G1 X127.296 Y106.404 E.01334
G1 X126.989 Y106.813 E.01332
G1 X126.61 Y107.157 E.01334
G1 X126.173 Y107.422 E.01332
G1 X125.693 Y107.6 E.01334
G1 X125.189 Y107.684 E.01331
G1 X124.677 Y107.671 E.01334
G1 X124.178 Y107.562 E.01331
G1 X123.708 Y107.36 E.01333
G1 X123.118 Y106.919 E.01919
G1 X122.783 Y106.52 E.01357
G1 X122.537 Y106.076 E.01323
G1 X122.371 Y105.568 E.01393
G1 X122.311 Y105.06 E.01333
G1 X122.348 Y104.549 E.01335
G1 X122.482 Y104.056 E.01331
G1 X122.706 Y103.596 E.01333
G1 X123.013 Y103.187 E.01332
G1 X123.392 Y102.843 E.01334
G1 X123.829 Y102.578 E.01332
G1 X124.309 Y102.4 E.01334
G1 X124.814 Y102.316 E.01334
G1 X125.325 Y102.329 E.01332
G1 X125.825 Y102.438 E.01333
M204 S1000
G1 X125.743 Y102.857 F10800
M204 S800
;TYPE:External perimeter
G1 F1220
G1 X125.793 Y102.871 E.00135
G1 X126.157 Y103.043 E.01049
G1 X126.625 Y103.41 E.0155
G1 X126.925 Y103.787 E.01255
G1 X127.12 Y104.173 E.01127
G1 X127.238 Y104.589 E.01127
G1 X127.275 Y105.02 E.01127
G1 X127.23 Y105.45 E.01127
G1 X127.055 Y105.961 E.01407
G1 X126.838 Y106.329 E.01113
G1 X126.573 Y106.636 E.01057
G1 X126.258 Y106.891 E.01056
G1 X125.881 Y107.093 E.01114
G1 X125.518 Y107.215 E.00998
G1 X125.09 Y107.272 E.01125
G1 X124.658 Y107.248 E.01127
G1 X124.113 Y107.085 E.01482
G1 X123.839 Y106.954 E.00791
G1 X123.377 Y106.59 E.01533
G1 X123.077 Y106.213 E.01255
G1 X122.897 Y105.864 E.01023
G1 X122.757 Y105.331 E.01436
G1 X122.736 Y104.882 E.01171
G1 X122.772 Y104.55 E.0087
G1 X122.898 Y104.135 E.0113
G1 X123.111 Y103.738 E.01174
G1 X123.493 Y103.309 E.01497
G1 X123.857 Y103.045 E.01172
G1 X124.075 Y102.923 E.00651
G1 X124.592 Y102.77 E.01405
G1 X124.913 Y102.728 E.00844
G1 X125.344 Y102.752 E.01125
G1 X125.685 Y102.842 E.00919
M204 S1000
;WIPE_START
G1 F8640
G1 X125.743 Y102.857 E-.01383
G1 X125.793 Y102.871 E-.01199
G1 X126.157 Y103.043 E-.09296
G1 X126.625 Y103.41 E-.13733
G1 X126.925 Y103.787 E-.11125
G1 X127.12 Y104.173 E-.09986
G1 X127.238 Y104.589 E-.09985
G1 X127.275 Y105.02 E-.09989
G1 X127.23 Y105.45 E-.09983
G1 X127.055 Y105.961 E-.12472
