; generated by PrusaSlicer 2.9.4 on 2026-03-18 at 01:57:38 UTC


;
;
; 

; external perimeters extrusion width = 0.45mm
; perimeters extrusion width = 0.45mm
; infill extrusion width = 0.45mm
; solid infill extrusion width = 0.45mm
; top infill extrusion width = 0.40mm
; first layer extrusion width = 0.42mm

M73 P0 R59
M73 Q0 S59
M201 X1000 Y1000 Z200 E5000 ; sets maximum accelerations, mm/sec^2
M203 X200 Y200 Z12 E120 ; sets maximum feedrates, mm / sec
M204 S1250 T1250 ; sets acceleration (S) and retract acceleration (R), mm/sec^2
M205 X8.00 Y8.00 Z0.40 E4.50 ; sets the jerk limits, mm/sec
M205 S0 T0 ; sets the minimum extruding and travel feed rate, mm/sec

; printing object Adapter Base Plate.stl id:0 copy 0
; stop printing object Adapter Base Plate.stl id:0 copy 0

;TYPE:Custom
M862.3 P "MK3S" ; printer model check
M862.1 P0.4 ; nozzle diameter check
M115 U3.14.1 ; tell printer latest fw version
G90 ; use absolute coordinates
M83 ; extruder relative mode
M104 S240 ; set extruder temp
M140 S90 ; set bed temp
M190 S90 ; wait for bed temp
M109 S240 ; wait for extruder temp
G28 W ; home all without mesh bed level
G80 X65.6229 Y72.7829 W118.754 H64.4342 ; mesh bed levelling

G1 Z0.2 F720
G1 Y-3 F1000 ; go outside print area
G92 E0
G1 X60 E9 F1000 ; intro line
G1 X100 E12.5 F1000 ; intro line

G92 E0
M221 S95

; Don't change E values below. Excessive value can damage the printer.
M907 E430 ; set extruder motor current
G21 ; set units to millimeters
G90 ; use absolute coordinates
M83 ; use relative distances for extrusion

M900 K0.08 ; Filament gcode LA 1.5
M900 K45 ; Filament gcode LA 1.0




M107
;LAYER_CHANGE
;Z:0.2
;HEIGHT:0.2
G1 E-1 F2100
G1 Z.4 F720
G1 X67.783 Y74.64 F10800
G1 Z.2 F720
G1 E1 F2100
M204 S800
;TYPE:Skirt/Brim
;WIDTH:0.42
G1 F1200
G1 X68.389 Y74.142 E.02459
G1 X69.834 Y73.37 E.05137
G1 X71.005 Y73.059 E.03799
G1 X72 Y72.971 E.03132
G1 X178 Y72.971 E3.32356
G1 X179.491 Y73.157 E.04711
M73 P0 R58
G1 X180.596 Y73.545 E.03672
G1 X181.655 Y74.168 E.03852
G1 X182.491 Y74.904 E.03492
G1 X183.232 Y75.856 E.03783
G1 X183.757 Y76.891 E.03639
G1 X184.08 Y78.004 E.03634
G1 X184.189 Y79.16 E.03641
G1 X184.178 Y131.055 E1.62713
G1 X184.101 Y131.835 E.02458
G1 X183.79 Y133.006 E.03799
G1 X183.018 Y134.451 E.05137
G1 X182.217 Y135.36 E.03799
G1 X181.611 Y135.858 E.02459
G1 X180.166 Y136.63 E.05137
G1 X178.995 Y136.941 E.03799
G1 X178 Y137.029 E.03132
G1 X102 Y137.029 E2.38293
G1 X101.005 Y136.941 E.03132
G1 X99.507 Y136.501 E.04895
G1 X68.746 Y121.416 E1.07422
G1 X67.48 Y120.377 E.05135
G1 X66.744 Y119.414 E.038
G1 X66.21 Y118.326 E.038
G1 X65.899 Y117.155 E.03799
G1 X65.811 Y116.16 E.03132
G1 X65.822 Y78.946 E1.16682
G1 X65.899 Y78.165 E.02461
G1 X66.21 Y76.994 E.03799
G1 X66.982 Y75.549 E.05137
G1 X67.744 Y74.685 E.03612
M204 S1000
;WIPE_START
G1 F8640
G1 X67.783 Y74.64 E-.01375
G1 X68.389 Y74.142 E-.18111
G1 X69.834 Y73.37 E-.37829
G1 X71.005 Y73.059 E-.27976
G1 X71.64 Y73.003 E-.14709
;WIPE_END
G1 Z.4 F720
; printing object Adapter Base Plate.stl id:0 copy 0
G1 X116.175 Y129.127 F10800
G1 Z.2 F720
G1 E1 F2100
M204 S800
;TYPE:External perimeter
;WIDTH:0.419999
G1 F1200
G1 X115.887 Y129.512 E.01508
G1 X115.49 Y129.825 E.01585
G1 X115.025 Y130.025 E.01587
G1 X114.525 Y130.097 E.01584
G1 X114.022 Y130.037 E.01588
G1 X113.553 Y129.85 E.01583
G1 X113.148 Y129.547 E.01586
G1 X112.835 Y129.15 E.01585
G1 X112.635 Y128.685 E.01587
G1 X112.563 Y128.185 E.01584
G1 X112.623 Y127.682 E.01588
G1 X112.81 Y127.213 E.01583
G1 X113.113 Y126.808 E.01586
G1 X113.51 Y126.495 E.01585
G1 X113.975 Y126.295 E.01587
G1 X114.475 Y126.223 E.01584
G1 X114.978 Y126.283 E.01588
G1 X115.447 Y126.47 E.01583
G1 X115.852 Y126.773 E.01586
G1 X116.165 Y127.17 E.01585
G1 X116.365 Y127.635 E.01587
G1 X116.437 Y128.135 E.01584
G1 X116.377 Y128.638 E.01588
G1 X116.203 Y129.075 E.01475
M204 S1000
;WIPE_START
G1 F8640
G1 X116.175 Y129.127 E-.01364
G1 X115.887 Y129.512 E-.11102
G1 X115.49 Y129.825 E-.11673
G1 X115.025 Y130.025 E-.11688
G1 X114.525 Y130.097 E-.11664
G1 X114.022 Y130.037 E-.11697
G1 X113.553 Y129.85 E-.11658
G1 X113.148 Y129.547 E-.11679
G1 X112.835 Y129.15 E-.11673
G1 X112.736 Y128.919 E-.05802
;WIPE_END
G1 Z.4 F720
G1 X113.927 Y125.784 F10800
G1 Z.2 F720
G1 E1 F2100
M204 S800
;TYPE:Perimeter
;WIDTH:0.68045
G1 F1200
G1 X114.213 Y125.767 E.01519
;WIDTH:0.645401
G1 X114.5 Y125.749 E.01441
;WIDTH:0.643133
G1 X114.772 Y125.765 E.0136
;WIDTH:0.675914
G1 X115.043 Y125.782 E.01429
M204 S1000
;WIPE_START
G1 F8640
G1 X114.772 Y125.765 E-.0627
G1 X114.5 Y125.749 E-.06291
G1 X114.213 Y125.767 E-.0664
G1 X113.927 Y125.784 E-.06615
;WIPE_END
G1 E-.74184 F2100
G1 Z.4 F720
G1 X174.72 Y86.328 F10800
G1 Z.2 F720
G1 E1 F2100
M204 S800
;WIDTH:0.419999
G1 F1200
G1 X174.766 Y86.582 E.00809
;WIDTH:0.418818
G1 X174.81 Y87.101 E.01628
;WIDTH:0.419999
G1 X174.814 Y107.85 E.65057
G1 X174.748 Y108.627 E.02445
G1 X174.539 Y109.44 E.02632
G1 X174.192 Y110.204 E.02631
G1 X173.718 Y110.896 E.0263
G1 X173.131 Y111.495 E.0263
G1 X172.364 Y112.032 E.02936
G1 X171.692 Y112.345 E.02324
G1 X171.204 Y112.485 E.01592
G1 X170.787 Y112.588 E.01347
G1 X170.059 Y112.652 E.02291
G1 X128.039 Y112.654 E1.31751
G1 X127.379 Y112.719 E.02079
G1 X126.782 Y112.9 E.01956
G1 X126.232 Y113.194 E.01955
G1 X125.75 Y113.59 E.01956
G1 X125.354 Y114.072 E.01956
G1 X125.06 Y114.622 E.01955
G1 X124.879 Y115.219 E.01956
G1 X124.814 Y115.879 E.02079
G1 X124.814 Y120.85 E.15586
G1 X124.748 Y121.627 E.02445
G1 X124.539 Y122.44 E.02632
G1 X124.192 Y123.204 E.02631
G1 X123.718 Y123.896 E.0263
G1 X123.131 Y124.495 E.0263
G1 X122.449 Y124.983 E.02629
G1 X121.692 Y125.345 E.02631
G1 X120.884 Y125.571 E.02631
G1 X120.059 Y125.652 E.02599
G1 X115.685 Y125.654 E.13714
;WIDTH:0.462652
G1 X115.578 Y125.675 E.00381
;WIDTH:0.505304
G1 X115.471 Y125.697 E.0042
;WIDTH:0.547957
G1 X115.364 Y125.718 E.00458
;WIDTH:0.590609
G1 X115.257 Y125.739 E.00497
;WIDTH:0.633262
G1 X115.15 Y125.761 E.00536
;WIDTH:0.675914
G1 X115.043 Y125.782 E.00574
G1 X115.135 Y125.838 E.00567
;WIDTH:0.633262
G1 X115.226 Y125.895 E.00527
;WIDTH:0.590609
G1 X115.318 Y125.952 E.00493
;WIDTH:0.547957
G1 X115.409 Y126.008 E.00449
;WIDTH:0.505304
G1 X115.5 Y126.065 E.00413
;WIDTH:0.462652
G1 X115.592 Y126.122 E.00378
;WIDTH:0.419999
G1 X116.082 Y126.474 E.01892
G1 X116.464 Y126.941 E.01892
G1 X116.713 Y127.491 E.01893
G1 X116.811 Y128.086 E.01891
G1 X116.751 Y128.687 E.01894
G1 X116.538 Y129.252 E.01893
G1 X116.186 Y129.742 E.01892
G1 X115.719 Y130.124 E.01892
G1 X115.169 Y130.373 E.01893
G1 X114.574 Y130.471 E.01891
G1 X113.973 Y130.411 E.01894
G1 X113.408 Y130.198 E.01893
G1 X112.918 Y129.846 E.01892
G1 X112.536 Y129.379 E.01892
G1 X112.287 Y128.829 E.01893
G1 X112.189 Y128.234 E.01891
G1 X112.249 Y127.633 E.01894
G1 X112.462 Y127.068 E.01893
G1 X112.814 Y126.578 E.01892
G1 X113.281 Y126.196 E.01892
;WIDTH:0.459704
G1 X113.41 Y126.115 E.00528
;WIDTH:0.499409
G1 X113.54 Y126.035 E.00579
;WIDTH:0.539114
G1 X113.67 Y125.954 E.00632
;WIDTH:0.578819
G1 X113.8 Y125.874 E.0068
;WIDTH:0.612696
G1 X113.842 Y125.844 E.00245
;WIDTH:0.646573
G1 X113.885 Y125.814 E.00263
;WIDTH:0.68045
G1 X113.927 Y125.784 E.00274
G1 X113.825 Y125.762 E.00553
;WIDTH:0.637042
G1 X113.723 Y125.741 E.00514
;WIDTH:0.593633
G1 X113.621 Y125.719 E.00478
;WIDTH:0.550225
G1 X113.519 Y125.697 E.0044
;WIDTH:0.506816
G1 X113.417 Y125.676 E.00402
;WIDTH:0.463408
G1 X113.315 Y125.654 E.00365
;WIDTH:0.419999
G1 X109.99 Y125.654 E.10425
G1 X109.116 Y125.571 E.02753
G1 X108.4 Y125.379 E.02324
G1 X107.551 Y124.983 E.02937
G1 X106.944 Y124.558 E.02323
G1 X106.414 Y124.04 E.02324
G1 X105.86 Y123.294 E.02913
G1 X105.495 Y122.532 E.02649
G1 X105.294 Y121.737 E.02571
G1 X105.213 Y121.331 E.01298
G1 X105.213 Y87.739 E1.05325
;WIDTH:0.461871
G1 X105.192 Y87.451 E.01006
;WIDTH:0.503742
G1 X105.171 Y87.163 E.01106
;WIDTH:0.51921
G1 X105.171 Y86.571 E.02345
G1 X105.3 Y86.124 E.01843
;WIDTH:0.469605
G1 X105.429 Y85.678 E.01647
;WIDTH:0.419999
G1 X105.72 Y84.984 E.0236
G1 X105.857 Y84.711 E.00958
G1 X106.282 Y84.104 E.02323
G1 X106.944 Y83.442 E.02935
G1 X107.551 Y83.017 E.02323
G1 X108.308 Y82.655 E.02631
G1 X109.116 Y82.429 E.02631
G1 X109.67 Y82.372 E.01746
G1 X110.605 Y82.346 E.02933
G1 X170.014 Y82.346 E1.86272
G1 X170.78 Y82.411 E.0241
M73 P1 R58
M73 Q1 S59
G1 X171.692 Y82.655 E.0296
G1 X172.364 Y82.968 E.02324
G1 X172.951 Y83.368 E.02227
G1 X173.537 Y83.911 E.02505
G1 X173.905 Y84.372 E.01849
G1 X174.192 Y84.796 E.01605
G1 X174.505 Y85.468 E.02324
G1 X174.671 Y86.054 E.0191
G1 X174.71 Y86.269 E.00685
M204 S1000
G1 X174.351 Y86.393 F10800
M204 S800
;TYPE:External perimeter
G1 F1200
G1 X174.391 Y86.615 E.00707
G1 X174.436 Y87.134 E.01633
G1 X174.437 Y107.85 E.64953
G1 X174.372 Y108.594 E.02342
G1 X174.175 Y109.342 E.02425
G1 X173.851 Y110.044 E.02424
G1 X173.409 Y110.679 E.02426
G1 X172.865 Y111.228 E.02423
G1 X172.204 Y111.691 E.0253
G1 X171.533 Y112.004 E.02322
G1 X170.787 Y112.207 E.02424
G1 X170.192 Y112.262 E.01874
G1 X168.991 Y112.277 E.03766
G1 X128.02 Y112.277 E1.28461
G1 X127.305 Y112.347 E.02253
G1 X126.637 Y112.55 E.02189
G1 X126.022 Y112.879 E.02187
G1 X125.482 Y113.322 E.0219
G1 X125.039 Y113.862 E.0219
G1 X124.71 Y114.477 E.02187
G1 X124.507 Y115.145 E.02189
G1 X124.437 Y115.86 E.02253
G1 X124.437 Y120.85 E.15646
G1 X124.372 Y121.594 E.02342
G1 X124.175 Y122.342 E.02425
G1 X123.851 Y123.044 E.02424
G1 X123.409 Y123.679 E.02426
G1 X122.865 Y124.228 E.02423
G1 X122.233 Y124.674 E.02425
G1 X121.533 Y125.004 E.02426
G1 X120.787 Y125.207 E.02424
G1 X120.026 Y125.276 E.02396
G1 X118.944 Y125.277 E.03393
G1 X109.99 Y125.277 E.28075
G1 X109.213 Y125.207 E.02446
G1 X108.498 Y125.015 E.02321
G1 X107.767 Y124.674 E.02529
G1 X107.161 Y124.249 E.02321
G1 X106.68 Y123.773 E.02122
G1 X106.169 Y123.077 E.02707
G1 X105.836 Y122.373 E.02442
G1 X105.59 Y121.331 E.03357
G1 X105.59 Y86.665 E1.08693
G1 X105.794 Y85.775 E.02863
G1 X106.166 Y84.927 E.02903
G1 X106.591 Y84.321 E.02321
G1 X107.135 Y83.772 E.02423
G1 X107.767 Y83.326 E.02425
G1 X108.467 Y82.996 E.02426
G1 X109.213 Y82.793 E.02424
G1 X109.974 Y82.724 E.02396
G1 X170.011 Y82.723 E1.88241
G1 X170.747 Y82.787 E.02316
G1 X171.326 Y82.938 E.01876
G1 X171.875 Y83.156 E.01852
G1 X172.391 Y83.436 E.01841
G1 X172.839 Y83.751 E.01717
G1 X173.27 Y84.177 E.019
G1 X173.597 Y84.588 E.01647
G1 X173.851 Y84.956 E.01402
G1 X174.164 Y85.627 E.02322
G1 X174.307 Y86.152 E.01706
G1 X174.34 Y86.334 E.0058
M204 S1000
;WIPE_START
G1 F8640
G1 X174.351 Y86.393 E-.01386
G1 X174.391 Y86.615 E-.05209
G1 X174.436 Y87.134 E-.12029
G1 X174.436 Y90.658 E-.81376
;WIPE_END
G1 Z.4 F720
G1 X102.857 Y127.593 F10800
G1 Z.2 F720
G1 E1 F2100
M204 S800
G1 F1200
G1 X103.285 Y127.857 E.01577
G1 X103.798 Y128.359 E.0225
G1 X104.104 Y128.902 E.01954
G1 X104.264 Y129.505 E.01956
G1 X104.27 Y130.056 E.01728
G1 X104.121 Y130.734 E.02177
G1 X103.826 Y131.283 E.01954
G1 X103.404 Y131.741 E.01953
G1 X102.88 Y132.08 E.01957
G1 X102.289 Y132.279 E.01955
G1 X101.667 Y132.324 E.01955
G1 X101.054 Y132.213 E.01953
G1 X100.487 Y131.953 E.01956
G1 X100.003 Y131.56 E.01955
G1 X99.632 Y131.059 E.01955
G1 X99.397 Y130.481 E.01956
G1 X99.313 Y129.864 E.01952
G1 X99.385 Y129.244 E.01957
G1 X99.609 Y128.663 E.01952
G1 X99.971 Y128.155 E.01956
G1 X100.447 Y127.753 E.01953
G1 X101.009 Y127.482 E.01956
G1 X101.62 Y127.359 E.01954
G1 X102.243 Y127.393 E.01956
G1 X102.803 Y127.569 E.01841
M204 S1000
;WIPE_START
G1 F8640
G1 X102.857 Y127.593 E-.01364
G1 X103.285 Y127.857 E-.11611
G1 X103.798 Y128.359 E-.16573
G1 X104.104 Y128.902 E-.14392
G1 X104.264 Y129.505 E-.14405
G1 X104.27 Y130.056 E-.12723
G1 X104.121 Y130.734 E-.16029
G1 X103.856 Y131.226 E-.12903
M73 Q1 S58
;WIPE_END
G1 Z.4 F720
G1 X81.983 Y113.958 F10800
G1 Z.2 F720
G1 E1 F2100
M204 S800
;TYPE:Perimeter
G1 F1200
G1 X82.211 Y114.464 E.0174
G1 X82.313 Y115.086 E.01976
G1 X82.25 Y115.713 E.01976
G1 X82.026 Y116.302 E.01976
G1 X81.658 Y116.814 E.01977
G1 X81.17 Y117.213 E.01976
G1 X80.596 Y117.471 E.01973
G1 X79.974 Y117.573 E.01976
G1 X79.347 Y117.51 E.01976
G1 X78.758 Y117.286 E.01976
G1 X78.246 Y116.918 E.01977
G1 X77.847 Y116.43 E.01976
G1 X77.589 Y115.856 E.01973
G1 X77.487 Y115.234 E.01976
G1 X77.55 Y114.607 E.01976
G1 X77.774 Y114.018 E.01976
G1 X78.142 Y113.506 E.01977
G1 X78.63 Y113.107 E.01976
G1 X79.095 Y112.894 E.01604
G1 X79.347 Y112.81 E.00833
G1 X79.851 Y112.745 E.01593
G1 X80.453 Y112.81 E.01898
G1 X81.042 Y113.034 E.01976
G1 X81.554 Y113.402 E.01977
G1 X81.953 Y113.89 E.01976
G1 X81.959 Y113.903 E.00045
M204 S1000
G1 X81.663 Y114.142 F10800
M204 S800
;TYPE:External perimeter
G1 F1200
G1 X81.863 Y114.609 E.01593
G1 X81.939 Y115.135 E.01666
G1 X81.876 Y115.664 E.0167
G1 X81.678 Y116.158 E.01669
G1 X81.359 Y116.584 E.01669
G1 X80.941 Y116.913 E.01668
G1 X80.451 Y117.123 E.01672
G1 X79.925 Y117.199 E.01666
G1 X79.396 Y117.136 E.0167
G1 X78.902 Y116.938 E.01669
G1 X78.476 Y116.619 E.01669
G1 X78.147 Y116.201 E.01668
G1 X77.937 Y115.711 E.01672
G1 X77.861 Y115.185 E.01666
G1 X77.924 Y114.656 E.0167
G1 X78.122 Y114.162 E.01669
G1 X78.441 Y113.736 E.01669
G1 X78.859 Y113.407 E.01668
G1 X79.349 Y113.197 E.01672
G1 X79.875 Y113.121 E.01666
G1 X80.404 Y113.184 E.0167
G1 X80.898 Y113.382 E.01669
G1 X81.324 Y113.701 E.01669
G1 X81.632 Y114.092 E.01561
M204 S1000
;WIPE_START
G1 F8640
G1 X81.663 Y114.142 E-.01358
G1 X81.863 Y114.609 E-.1173
G1 X81.939 Y115.135 E-.12272
G1 X81.876 Y115.664 E-.12301
G1 X81.678 Y116.158 E-.12289
G1 X81.359 Y116.584 E-.12289
G1 X80.941 Y116.913 E-.12283
G1 X80.451 Y117.123 E-.1231
G1 X79.925 Y117.199 E-.12272
G1 X79.886 Y117.194 E-.00896
;WIPE_END
G1 Z.4 F720
G1 X78.486 Y100.107 F10800
G1 Z.2 F720
G1 E1 F2100
M204 S800
;TYPE:Perimeter
G1 F1200
G1 X77.948 Y99.716 E.02085
G1 X77.482 Y99.141 E.02321
G1 X77.182 Y98.465 E.02319
G1 X77.066 Y97.734 E.02321
G1 X77.143 Y96.998 E.0232
G1 X77.409 Y96.307 E.02322
G1 X77.844 Y95.708 E.02321
G1 X78.419 Y95.242 E.02321
G1 X79.095 Y94.942 E.02319
G1 X79.792 Y94.83 E.02213
G1 X80.541 Y94.901 E.02359
G1 X81.042 Y95.081 E.01669
G1 X81.381 Y95.242 E.01177
G1 X81.852 Y95.604 E.01863
G1 X82.318 Y96.179 E.02321
G1 X82.583 Y96.768 E.02025
G1 X82.657 Y96.998 E.00758
G1 X82.734 Y97.586 E.01859
G1 X82.657 Y98.322 E.0232
G1 X82.391 Y99.013 E.02322
G1 X81.956 Y99.612 E.02321
G1 X81.554 Y99.945 E.01637
G1 X81.253 Y100.151 E.01144
G1 X80.736 Y100.365 E.01754
G1 X79.982 Y100.493 E.02398
G1 X79.347 Y100.431 E.02
G1 X79.095 Y100.378 E.00807
G1 X78.547 Y100.151 E.0186
G1 X78.535 Y100.143 E.00045
M204 S1000
G1 X78.671 Y99.788 F10800
M204 S800
;TYPE:External perimeter
G1 F1200
G1 X78.178 Y99.417 E.01935
G1 X77.782 Y98.911 E.02015
G1 X77.53 Y98.321 E.02012
G1 X77.44 Y97.685 E.02014
G1 X77.517 Y97.047 E.02015
G1 X77.757 Y96.451 E.02015
G1 X78.143 Y95.938 E.02013
G1 X78.649 Y95.542 E.02015
G1 X79.239 Y95.29 E.02012
G1 X79.842 Y95.204 E.0191
G1 X80.497 Y95.275 E.02066
G1 X81.109 Y95.517 E.02063
G1 X81.622 Y95.903 E.02013
G1 X82.018 Y96.409 E.02015
G1 X82.283 Y97.047 E.02166
G1 X82.36 Y97.635 E.01859
G1 X82.283 Y98.273 E.02015
G1 X82.043 Y98.869 E.02015
G1 X81.657 Y99.382 E.02013
G1 X81.151 Y99.778 E.02015
G1 X80.592 Y100.017 E.01906
G1 X79.927 Y100.12 E.0211
G1 X79.239 Y100.03 E.02176
G1 X78.723 Y99.816 E.01751
M204 S1000
;WIPE_START
G1 F8640
G1 X78.671 Y99.788 E-.01364
G1 X78.178 Y99.417 E-.14247
G1 X77.782 Y98.911 E-.14836
G1 X77.53 Y98.321 E-.14814
G1 X77.44 Y97.685 E-.14832
G1 X77.517 Y97.047 E-.14838
G1 X77.757 Y96.451 E-.14836
G1 X78.023 Y96.097 E-.10233
;WIPE_END
G1 Z.4 F720
G1 X79.9 Y77.755 F10800
G1 Z.2 F720
G1 E1 F2100
M204 S800
;TYPE:Perimeter
G1 F1200
G1 X80.453 Y77.81 E.01742
G1 X81.042 Y78.034 E.01976
G1 X81.554 Y78.402 E.01977
G1 X81.953 Y78.89 E.01976
G1 X82.211 Y79.464 E.01973
G1 X82.313 Y80.086 E.01976
G1 X82.25 Y80.713 E.01976
G1 X82.026 Y81.302 E.01976
G1 X81.658 Y81.814 E.01977
G1 X81.17 Y82.213 E.01976
G1 X80.705 Y82.426 E.01604
G1 X80.453 Y82.51 E.00833
G1 X79.948 Y82.576 E.01597
G1 X79.268 Y82.493 E.02148
G1 X78.758 Y82.286 E.01726
G1 X78.246 Y81.918 E.01977
G1 X77.847 Y81.43 E.01976
G1 X77.589 Y80.856 E.01973
G1 X77.487 Y80.234 E.01976
G1 X77.55 Y79.607 E.01976
