; generated by PrusaSlicer 2.9.4 on 2026-03-20 at 00:00:47 UTC


;
;
; 

; external perimeters extrusion width = 0.45mm
; perimeters extrusion width = 0.45mm
; infill extrusion width = 0.45mm
; solid infill extrusion width = 0.45mm
; top infill extrusion width = 0.40mm
; first layer extrusion width = 0.50mm

M73 P0 R5
M73 Q0 S5
M201 X1000 Y1000 Z200 E5000 ; sets maximum accelerations, mm/sec^2
M203 X200 Y200 Z12 E120 ; sets maximum feedrates, mm / sec
M204 S1250 T1250 ; sets acceleration (S) and retract acceleration (R), mm/sec^2
M205 X8.00 Y8.00 Z0.40 E4.50 ; sets the jerk limits, mm/sec
M205 S0 T0 ; sets the minimum extruding and travel feed rate, mm/sec

; printing object Adapter Base Plate Spacer  2.stl id:0 copy 0
; stop printing object Adapter Base Plate Spacer  2.stl id:0 copy 0

;TYPE:Custom
M862.3 P "MK3S" ; printer model check
M862.1 P0.4 ; nozzle diameter check
M115 U3.14.1 ; tell printer latest fw version
G90 ; use absolute coordinates
M83 ; extruder relative mode
M104 S240 ; set extruder temp
M140 S90 ; set bed temp
M190 S90 ; wait for bed temp
M109 S240 ; wait for extruder temp
G28 W ; home all without mesh bed level
G80 X112.037 Y92.0364 W25.926 H25.9274 ; mesh bed levelling

G1 Z0.2 F720
G1 Y-3 F1000 ; go outside print area
G92 E0
G1 X60 E9 F1000 ; intro line
G1 X100 E12.5 F1000 ; intro line
M73 P1 R5
M73 Q1 S5

G92 E0
M221 S95

; Don't change E values below. Excessive value can damage the printer.
M907 E430 ; set extruder motor current
G21 ; set units to millimeters
G90 ; use absolute coordinates
M83 ; use relative distances for extrusion

M900 K0.08 ; Filament gcode LA 1.5
M900 K45 ; Filament gcode LA 1.0




M107
;LAYER_CHANGE
;Z:0.2
;HEIGHT:0.2
G1 E-1 F2100
G1 Z.4 F720
G1 X115.127 Y96.957 F10800
G1 Z.2 F720
M73 Q2 S5
G1 E1 F2100
M73 P2 R5
M204 S800
;TYPE:Skirt/Brim
;WIDTH:0.5
G1 F900
G1 X116.12 Y95.872 E.0559
G1 X117.11 Y95.004 E.05004
G1 X117.998 Y94.363 E.04162
G1 X119.271 Y93.626 E.05591
G1 X120.476 Y93.096 E.05003
G1 X121.516 Y92.751 E.04164
G1 X122.798 Y92.456 E.05
G1 X123.803 Y92.321 E.03854
G1 X125.13 Y92.265 E.05048
G1 X126.585 Y92.364 E.05543
G1 X127.586 Y92.529 E.03856
G1 X128.859 Y92.863 E.05002
G1 X129.888 Y93.239 E.04164
G1 X131.212 Y93.881 E.05592
G1 X132.325 Y94.581 E.04997
G1 X133.194 Y95.25 E.04168
G1 X134.156 Y96.147 E.04999
G1 X134.832 Y96.904 E.03857
G1 X135.7 Y98.091 E.05589
G1 X136.355 Y99.232 E.05
G1 X136.809 Y100.229 E.04164
G1 X137.281 Y101.622 E.0559
G1 X137.563 Y102.908 E.05004
G1 X137.697 Y103.995 E.04163
G1 X137.734 Y105.229 E.04692
G1 X137.668 Y106.323 E.04165
G1 X137.464 Y107.623 E.05001
G1 X137.078 Y109.042 E.05589
G1 X136.686 Y110.065 E.04164
G1 X136.141 Y111.172 E.0469
G1 X135.569 Y112.107 E.04166
G1 X134.78 Y113.16 E.05001
G1 X133.773 Y114.233 E.05593
G1 X132.947 Y114.953 E.04165
G1 X131.878 Y115.72 E.05
G1 X131.003 Y116.232 E.03853
G1 X129.812 Y116.792 E.05002
G1 X128.42 Y117.268 E.05591
G1 X127.433 Y117.501 E.03854
M73 Q3 S5
G1 X126.131 Y117.685 E.04998
G1 X125.036 Y117.735 E.04166
G1 X123.803 Y117.679 E.04691
G1 X122.717 Y117.529 E.04167
M73 P3 R5
G1 X121.288 Y117.182 E.05589
G1 X120.051 Y116.734 E.05
G1 X119.06 Y116.265 E.04167
G1 X117.93 Y115.592 E.04999
G1 X117.11 Y114.996 E.03853
G1 X116.009 Y114.019 E.05594
G1 X115.127 Y113.043 E.05
G1 X114.472 Y112.164 E.04166
G1 X113.716 Y110.903 E.05588
G1 X113.167 Y109.707 E.05002
G1 X112.807 Y108.672 E.04165
G1 X112.492 Y107.394 E.05003
G1 X112.3 Y105.936 E.05589
G1 X112.266 Y104.922 E.03856
G1 X112.342 Y103.609 E.04999
G1 X112.509 Y102.526 E.04165
G1 X112.83 Y101.25 E.05001
G1 X113.344 Y99.871 E.05593
G1 X113.828 Y98.888 E.04164
G1 X114.518 Y97.768 E.05
G1 X115.091 Y97.005 E.03627
M204 S1000
G1 X115.456 Y97.279 F10800
M204 S800
G1 F900
G1 X115.476 Y97.252 E.00128
G1 X116.441 Y96.197 E.05434
G1 X117.399 Y95.358 E.0484
G1 X118.243 Y94.749 E.03956
G1 X119.479 Y94.033 E.05429
G1 X120.646 Y93.52 E.04845
G1 X121.633 Y93.193 E.03952
G1 X122.874 Y92.907 E.0484
G1 X123.838 Y92.777 E.03697
G1 X125.123 Y92.722 E.04888
G1 X126.537 Y92.818 E.05386
G1 X127.496 Y92.977 E.03695
G1 X128.728 Y93.301 E.04842
G1 X129.705 Y93.658 E.03953
G1 X130.855 Y94.206 E.04842
G1 X132.069 Y94.96 E.05431
G1 X132.894 Y95.594 E.03954
G1 X133.826 Y96.462 E.0484
G1 X134.474 Y97.188 E.03699
M73 Q4 S5
G1 X135.318 Y98.341 E.05431
G1 X135.952 Y99.446 E.04842
G1 X136.382 Y100.393 E.03953
G1 X136.841 Y101.746 E.0543
M73 P4 R5
G1 X137.114 Y102.991 E.04844
G1 X137.241 Y104.023 E.03952
G1 X137.277 Y105.229 E.04586
G1 X137.214 Y106.267 E.03952
G1 X137.017 Y107.526 E.04843
G1 X136.642 Y108.905 E.05431
G1 X136.27 Y109.876 E.03952
G1 X135.737 Y110.958 E.04584
G1 X135.194 Y111.845 E.03953
G1 X134.43 Y112.865 E.04844
G1 X133.452 Y113.907 E.05431
G1 X132.668 Y114.59 E.03952
G1 X131.634 Y115.333 E.04839
G1 X130.795 Y115.826 E.03698
G1 X129.642 Y116.368 E.04842
G1 X128.29 Y116.83 E.0543
G1 X127.343 Y117.053 E.03698
G1 X126.082 Y117.231 E.0484
G1 X125.043 Y117.278 E.03953
G1 X123.838 Y117.223 E.04585
G1 X122.807 Y117.081 E.03955
G1 X121.418 Y116.744 E.05432
G1 X120.221 Y116.31 E.04839
G1 X119.281 Y115.864 E.03954
G1 X118.186 Y115.214 E.0484
G1 X117.399 Y114.642 E.03698
G1 X116.33 Y113.694 E.0543
G1 X115.476 Y112.748 E.04844
G1 X114.855 Y111.914 E.03952
G1 X114.119 Y110.688 E.05435
G1 X113.589 Y109.53 E.0484
G1 X113.247 Y108.548 E.03952
G1 X112.942 Y107.311 E.04842
G1 X112.755 Y105.894 E.05432
G1 X112.723 Y104.922 E.03696
G1 X112.797 Y103.65 E.04843
G1 X112.955 Y102.622 E.03953
G1 X113.266 Y101.387 E.0484
G1 X113.766 Y100.048 E.05432
G1 X114.225 Y99.115 E.03952
G1 X114.893 Y98.03 E.04843
M73 Q5 S5
G1 X115.42 Y97.327 E.03339
M204 S1000
;WIPE_START
G1 F8640
G1 X115.456 Y97.279 E-.01385
G1 X115.476 Y97.252 E-.00776
G1 X116.441 Y96.197 E-.33014
G1 X117.399 Y95.358 E-.29404
M73 P5 R5
G1 X118.243 Y94.749 E-.24032
G1 X118.67 Y94.502 E-.11389
;WIPE_END
G1 Z.4 F720
G1 X117.68 Y99.133 F10800
G1 Z.2 F720
G1 E1 F2100
M204 S800
G1 F900
G1 X117.943 Y98.804 E.01601
G1 X119.189 Y97.623 E.06525
G1 X120.772 Y96.614 E.07135
G1 X122.503 Y95.947 E.0705
G1 X124.21 Y95.643 E.0659
G1 X126.129 Y95.677 E.07295
G1 X127.825 Y96.043 E.06594
G1 X129.552 Y96.784 E.07142
G1 X131.099 Y97.858 E.07158
G1 X132.308 Y99.101 E.0659
G1 X132.939 Y99.979 E.04109
G1 X133.378 Y100.755 E.03389
G1 X134.055 Y102.504 E.07128
G1 X134.369 Y104.341 E.07083
G1 X134.309 Y106.247 E.07248
G1 X133.922 Y107.936 E.06586
G1 X133.2 Y109.581 E.06828
G1 X132.086 Y111.166 E.07363
G1 X130.796 Y112.39 E.06759
G1 X129.344 Y113.326 E.06566
G1 X128.356 Y113.773 E.04121
G1 X127.512 Y114.05 E.03376
G1 X125.641 Y114.37 E.07214
G1 X123.804 Y114.314 E.06985
G1 X122.116 Y113.936 E.06574
G1 X121.094 Y113.541 E.04164
G1 X120.228 Y113.089 E.03713
G1 X118.751 Y112.009 E.06954
G1 X118.116 Y111.389 E.03373
M73 Q6 S5
G1 X117.427 Y110.551 E.04123
G1 X116.535 Y109.063 E.06594
G1 X115.92 Y107.394 E.0676
M73 P6 R5
G1 X115.627 Y105.571 E.07017
G1 X115.702 Y103.691 E.07151
G1 X116.106 Y101.99 E.06645
G1 X116.808 Y100.412 E.06564
G1 X117.39 Y99.497 E.04121
G1 X117.643 Y99.18 E.01541
M204 S1000
G1 X118 Y99.492 F10800
M204 S800
G1 F900
G1 X118.843 Y98.527 E.0487
G1 X120.134 Y97.508 E.06251
G1 X120.967 Y97.027 E.03656
G1 X121.839 Y96.644 E.0362
G1 X123.571 Y96.179 E.06816
G1 X125.271 Y96.069 E.06475
G1 X126.836 Y96.256 E.0599
G1 X128.481 Y96.771 E.06551
G1 X130.113 Y97.673 E.07087
G1 X131.506 Y98.873 E.06988
G1 X132.548 Y100.216 E.0646
G1 X133.306 Y101.706 E.06354
G1 X133.612 Y102.615 E.03645
G1 X133.813 Y103.524 E.03538
G1 X133.928 Y105.375 E.07049
G1 X133.722 Y106.945 E.06018
G1 X133.181 Y108.593 E.06592
G1 X132.376 Y110.042 E.063
G1 X131.749 Y110.857 E.03908
G1 X131.029 Y111.596 E.03921
G1 X129.727 Y112.584 E.06212
G1 X128.201 Y113.343 E.06478
G1 X126.589 Y113.792 E.0636
G1 X125.598 Y113.915 E.03795
G1 X124.605 Y113.926 E.03774
G1 X122.914 Y113.689 E.0649
G1 X121.293 Y113.13 E.06517
G1 X119.689 Y112.183 E.07079
M73 Q7 S5
G1 X118.445 Y111.071 E.06342
M73 P7 R5
G1 X117.412 Y109.716 E.06476
G1 X116.619 Y108.092 E.06869
G1 X116.187 Y106.459 E.0642
G1 X116.075 Y104.621 E.06999
G1 X116.329 Y102.846 E.06815
G1 X116.894 Y101.242 E.06463
G1 X117.755 Y99.772 E.06475
G1 X117.96 Y99.537 E.01185
M204 S1000
G1 X118.346 Y99.808 F10800
M204 S800
G1 F900
G1 X118.618 Y99.421 E.01798
G1 X119.74 Y98.353 E.05887
G1 X121.163 Y97.441 E.06424
G1 X122.723 Y96.835 E.06361
G1 X124.259 Y96.556 E.05933
G1 X126.021 Y96.584 E.06698
G1 X127.531 Y96.909 E.0587
G1 X129.09 Y97.573 E.0644
G1 X130.487 Y98.538 E.06453
G1 X131.579 Y99.653 E.05932
G1 X132.554 Y101.151 E.06793
G1 X133.168 Y102.726 E.06425
G1 X133.455 Y104.38 E.0638
G1 X133.4 Y106.145 E.06711
G1 X133.053 Y107.651 E.05874
G1 X132.411 Y109.119 E.0609
G1 X131.395 Y110.567 E.06723
G1 X130.252 Y111.655 E.05998
G1 X128.947 Y112.502 E.05913
G1 X127.287 Y113.163 E.06791
G1 X125.579 Y113.458 E.06588
G1 X123.946 Y113.411 E.06209
G1 X122.424 Y113.075 E.05924
M73 Q8 S5
G1 X121.493 Y112.718 E.0379
G1 X120.692 Y112.301 E.03432
G1 X119.345 Y111.314 E.06347
M73 P8 R5
G1 X118.147 Y109.988 E.06792
G1 X117.348 Y108.646 E.05936
G1 X116.804 Y107.16 E.06014
G1 X116.539 Y105.516 E.06329
G1 X116.607 Y103.82 E.06451
G1 X116.963 Y102.307 E.05907
G1 X117.591 Y100.883 E.05915
G1 X118.312 Y99.858 E.04763
M204 S1000
G1 X118.641 Y100.144 F10800
M204 S800
G1 F900
G1 X119.46 Y99.202 E.04744
G1 X120.613 Y98.287 E.05594
G1 X122.167 Y97.497 E.06626
G1 X123.705 Y97.084 E.06052
G1 X125.226 Y96.982 E.05794
G1 X126.627 Y97.146 E.05361
G1 X128.104 Y97.605 E.05878
G1 X129.592 Y98.424 E.06455
G1 X130.831 Y99.491 E.06214
G1 X131.766 Y100.691 E.05782
G1 X132.448 Y102.022 E.05684
G1 X132.908 Y103.657 E.06455
G1 X133.016 Y105.318 E.06326
G1 X132.835 Y106.722 E.0538
G1 X132.352 Y108.208 E.05939
G1 X131.637 Y109.504 E.05626
G1 X131.058 Y110.258 E.03613
G1 X130.421 Y110.913 E.03473
G1 X129.254 Y111.801 E.05573
G1 X127.89 Y112.483 E.05796
G1 X126.451 Y112.888 E.05682
G1 X125.56 Y113.001 E.03413
G1 X124.639 Y113.013 E.03501
G1 X123.14 Y112.802 E.05753
G1 X121.692 Y112.306 E.05817
G1 X120.214 Y111.434 E.06522
M73 Q9 S5
G1 X119.104 Y110.437 E.05671
G1 X118.181 Y109.223 E.05796
M73 P9 R5
G1 X117.47 Y107.758 E.06189
G1 X117.093 Y106.333 E.05602
G1 X116.989 Y104.637 E.06458
G1 X117.223 Y103.041 E.06131
G1 X117.718 Y101.638 E.05654
G1 X118.486 Y100.321 E.05794
G1 X118.601 Y100.189 E.00665
M204 S1000
G1 X118.997 Y100.466 F10800
M204 S800
G1 F900
G1 X119.307 Y100.022 E.02058
G1 X120.309 Y99.069 E.05256
G1 X121.557 Y98.266 E.0564
G1 X122.945 Y97.722 E.05666
G1 X124.311 Y97.469 E.0528
G1 X125.932 Y97.494 E.06162
G1 X127.279 Y97.788 E.0524
G1 X128.649 Y98.374 E.05663
G1 X129.877 Y99.219 E.05665
G1 X130.852 Y100.208 E.05278
G1 X131.74 Y101.567 E.0617
G1 X132.282 Y102.95 E.05646
G1 X132.542 Y104.421 E.05677
G1 X132.492 Y106.044 E.06171
G1 X132.178 Y107.387 E.05242
G1 X131.62 Y108.659 E.05279
G1 X130.72 Y109.95 E.05981
G1 X129.707 Y110.921 E.05333
G1 X128.547 Y111.68 E.05269
G1 X127.039 Y112.283 E.06173
G1 X125.541 Y112.544 E.05779
G1 X124.085 Y112.507 E.05536
G1 X122.73 Y112.213 E.0527
G1 X121.157 Y111.514 E.06542
G1 X119.956 Y110.634 E.05659
G1 X118.87 Y109.427 E.06171
G1 X118.163 Y108.231 E.0528
G1 X117.688 Y106.927 E.05275
M73 Q10 S5
G1 X117.452 Y105.461 E.05643
M73 P10 R5
G1 X117.508 Y103.972 E.05663
G1 X117.822 Y102.623 E.05264
G1 X118.376 Y101.352 E.0527
G1 X118.962 Y100.515 E.03883
M204 S1000
G1 X119.284 Y100.793 F10800
M204 S800
G1 F900
G1 X120.076 Y99.878 E.04599
G1 X121.093 Y99.065 E.04949
G1 X122.476 Y98.358 E.05903
G1 X123.842 Y97.988 E.05379
G1 X125.182 Y97.896 E.05105
G1 X126.417 Y98.036 E.04724
G1 X127.728 Y98.438 E.05212
G1 X129.089 Y99.187 E.05904
G1 X130.159 Y100.111 E.05373
G1 X130.985 Y101.166 E.05092
G1 X131.59 Y102.338 E.05013
G1 X132.011 Y103.833 E.05903
G1 X132.102 Y105.286 E.05533
G1 X131.948 Y106.5 E.04651
G1 X131.523 Y107.823 E.05281
G1 X130.896 Y108.968 E.04961
G1 X129.812 Y110.232 E.06329
G1 X128.779 Y111.02 E.04938
G1 X127.578 Y111.623 E.05108
G1 X126.311 Y111.984 E.05007
G1 X124.672 Y112.099 E.06245
G1 X123.363 Y111.916 E.05023
G1 X122.088 Y111.482 E.05119
G1 X120.74 Y110.686 E.0595
G1 X119.764 Y109.804 E.05
G1 X118.953 Y108.732 E.05109
G1 X118.336 Y107.464 E.05359
G1 X117.998 Y106.205 E.04954
G1 X117.904 Y104.655 E.05902
G1 X118.111 Y103.257 E.05371
G1 X118.544 Y102.032 E.04938
G1 X119.218 Y100.869 E.05109
G1 X119.245 Y100.839 E.00153
M73 Q11 S5
M204 S1000
G1 X119.65 Y101.122 F10800
M204 S800
G1 F900
G1 X120.01 Y100.607 E.02388
G1 X120.893 Y99.772 E.04619
M73 P11 R5
G1 X121.973 Y99.08 E.04875
G1 X123.169 Y98.609 E.04885
G1 X124.365 Y98.382 E.04627
G1 X125.843 Y98.405 E.05618
G1 X127.028 Y98.667 E.04613
G1 X128.208 Y99.175 E.04883
G1 X129.268 Y99.901 E.04883
G1 X130.126 Y100.764 E.04625
G1 X130.936 Y102.002 E.05623
G1 X131.402 Y103.197 E.04875
G1 X131.628 Y104.464 E.04891
G1 X131.583 Y105.942 E.0562
G1 X131.302 Y107.123 E.04614
G1 X130.809 Y108.236 E.04627
G1 X130.044 Y109.335 E.05089
G1 X129.159 Y110.188 E.04672
G1 X128.144 Y110.859 E.04624
G1 X126.771 Y111.409 E.05621
G1 X125.476 Y111.632 E.04994
G1 X124.222 Y111.603 E.04767
G1 X123.032 Y111.351 E.04623
G1 X121.621 Y110.726 E.05865
G1 X120.582 Y109.968 E.04888
G1 X119.593 Y108.868 E.05622
G1 X118.979 Y107.817 E.04626
G1 X118.566 Y106.672 E.04626
G1 X118.364 Y105.405 E.04876
G1 X118.411 Y104.121 E.04883
G1 X118.681 Y102.936 E.04619
G1 X119.163 Y101.819 E.04624
G1 X119.616 Y101.171 E.03005
M204 S1000
G1 X119.951 Y101.417 F10800
M204 S800
G1 F900
G1 X120.692 Y100.553 E.04326
G1 X121.574 Y99.843 E.04303
G1 X122.825 Y99.203 E.05341
G1 X123.981 Y98.892 E.0455
G1 X125.139 Y98.809 E.04412
G1 X126.207 Y98.926 E.04083
G1 X127.353 Y99.272 E.0455
G1 X128.584 Y99.95 E.05341
G1 X129.489 Y100.733 E.04548
G1 X130.204 Y101.643 E.04398
M73 Q12 S5
G1 X130.732 Y102.656 E.04342
M73 P12 R5
G1 X131.113 Y104.009 E.05342
G1 X131.189 Y105.229 E.04646
G1 X131.056 Y106.298 E.04094
G1 X130.693 Y107.438 E.04547
G1 X130.153 Y108.434 E.04306
G1 X129.2 Y109.552 E.05583
G1 X128.301 Y110.24 E.04303
G1 X127.265 Y110.764 E.04412
G1 X126.169 Y111.081 E.04336
G1 X124.724 Y111.186 E.05506
G1 X123.583 Y111.028 E.04378
G1 X122.483 Y110.657 E.04412
G1 X121.267 Y109.939 E.05367
G1 X120.424 Y109.171 E.04334
G1 X119.726 Y108.244 E.0441
G1 X119.201 Y107.169 E.04547
G1 X118.903 Y106.076 E.04306
G1 X118.818 Y104.674 E.05338
G1 X118.995 Y103.49 E.0455
G1 X119.37 Y102.422 E.04302
G1 X119.921 Y101.469 E.04184
M204 S1000
G1 X120.323 Y101.75 F10800
M204 S800
G1 F900
G1 X120.713 Y101.191 E.02591
G1 X121.478 Y100.475 E.03982
G1 X122.39 Y99.894 E.0411
G1 X123.394 Y99.495 E.04106
G1 X124.423 Y99.294 E.03985
G1 X125.754 Y99.314 E.05059
G1 X126.775 Y99.546 E.03979
G1 X127.767 Y99.976 E.04109
G1 X128.661 Y100.584 E.04109
G1 X129.403 Y101.324 E.03983
G1 X130.132 Y102.437 E.05057
G1 X130.521 Y103.445 E.04106
G1 X130.715 Y104.509 E.04111
G1 X130.675 Y105.839 E.05057
G1 X130.427 Y106.857 E.03982
G1 X129.999 Y107.814 E.03984
G1 X129.365 Y108.721 E.04206
G1 X128.61 Y109.457 E.04007
G1 X127.738 Y110.04 E.03987
G1 X126.503 Y110.535 E.05057
G1 X125.409 Y110.721 E.04218
G1 X124.357 Y110.699 E.03999
G1 X123.331 Y110.486 E.03983
M73 Q13 S5
G1 X122.085 Y109.939 E.05172
M73 P13 R5
G1 X121.209 Y109.302 E.04117
G1 X120.32 Y108.313 E.05054
G1 X119.795 Y107.405 E.03986
G1 X119.444 Y106.417 E.03985
G1 X119.277 Y105.35 E.04105
G1 X119.313 Y104.269 E.04111
G1 X119.541 Y103.247 E.0398
G1 X119.951 Y102.282 E.03985
G1 X120.289 Y101.799 E.02241
M204 S1000
G1 X120.657 Y102.01 F10800
M204 S800
G1 F900
G1 X120.684 Y101.964 E.00203
G1 X121.309 Y101.229 E.03667
G1 X122.057 Y100.62 E.03666
G1 X123.173 Y100.049 E.04764
G1 X124.125 Y99.795 E.03745
G1 X125.097 Y99.723 E.03704
G1 X126.036 Y99.824 E.03589
G1 X126.979 Y100.107 E.03742
G1 X128.078 Y100.711 E.04766
G1 X128.821 Y101.358 E.03744
G1 X129.424 Y102.12 E.03693
G1 X129.876 Y102.976 E.03679
G1 X130.216 Y104.183 E.04766
G1 X130.276 Y105.173 E.0377
G1 X130.161 Y106.114 E.03603
G1 X129.864 Y107.053 E.03743
G1 X129.409 Y107.903 E.03664
G1 X128.585 Y108.875 E.04843
G1 X127.82 Y109.463 E.03667
G1 X126.951 Y109.905 E.03705
G1 X126.026 Y110.178 E.03666
G1 X124.755 Y110.273 E.04844
G1 X123.799 Y110.14 E.03668
