; generated by PrusaSlicer 2.9.4 on 2026-03-20 at 00:02:40 UTC


;
;
; 

; external perimeters extrusion width = 0.45mm
; perimeters extrusion width = 0.45mm
; infill extrusion width = 0.45mm
; solid infill extrusion width = 0.45mm
; top infill extrusion width = 0.40mm
; first layer extrusion width = 0.50mm

; external perimeters extrusion width = 0.45mm
; perimeters extrusion width = 0.45mm
; infill extrusion width = 0.45mm
; solid infill extrusion width = 0.45mm
; top infill extrusion width = 0.40mm
; first layer extrusion width = 0.50mm

; external perimeters extrusion width = 0.45mm
; perimeters extrusion width = 0.45mm
; infill extrusion width = 0.45mm
; solid infill extrusion width = 0.45mm
; top infill extrusion width = 0.40mm
; first layer extrusion width = 0.50mm

; external perimeters extrusion width = 0.45mm
; perimeters extrusion width = 0.45mm
; infill extrusion width = 0.45mm
; solid infill extrusion width = 0.45mm
; top infill extrusion width = 0.40mm
; first layer extrusion width = 0.50mm

M73 P0 R84
M73 Q0 S85
M201 X1000 Y1000 Z200 E5000 ; sets maximum accelerations, mm/sec^2
M203 X200 Y200 Z12 E120 ; sets maximum feedrates, mm / sec
M204 S1250 T1250 ; sets acceleration (S) and retract acceleration (R), mm/sec^2
M205 X8.00 Y8.00 Z0.40 E4.50 ; sets the jerk limits, mm/sec
M205 S0 T0 ; sets the minimum extruding and travel feed rate, mm/sec

; printing object Adapter Base Plate Spacer  2.stl id:1 copy 0
; stop printing object Adapter Base Plate Spacer  2.stl id:1 copy 0
; printing object Adapter Base Plate Spacer.stl id:0 copy 0
; stop printing object Adapter Base Plate Spacer.stl id:0 copy 0
; printing object USB Restraint Cap.stl id:3 copy 0
; stop printing object USB Restraint Cap.stl id:3 copy 0
; printing object Adapter Base Plate.stl id:2 copy 0
; stop printing object Adapter Base Plate.stl id:2 copy 0

;TYPE:Custom
M862.3 P "MK3S" ; printer model check
M862.1 P0.4 ; nozzle diameter check
M115 U3.14.1 ; tell printer latest fw version
G90 ; use absolute coordinates
M83 ; extruder relative mode
M104 S240 ; set extruder temp
M140 S90 ; set bed temp
M190 S90 ; wait for bed temp
M109 S240 ; wait for extruder temp
G28 W ; home all without mesh bed level
G80 X64.651 Y64.1992 W118.914 H64.5942 ; mesh bed levelling

G1 Z0.2 F720
G1 Y-3 F1000 ; go outside print area
G92 E0
G1 X60 E9 F1000 ; intro line
G1 X100 E12.5 F1000 ; intro line

G92 E0
M221 S95

; Don't change E values below. Excessive value can damage the printer.
M907 E430 ; set extruder motor current
G21 ; set units to millimeters
G90 ; use absolute coordinates
M83 ; use relative distances for extrusion

M900 K0.08 ; Filament gcode LA 1.5
M900 K45 ; Filament gcode LA 1.0




M107
;LAYER_CHANGE
;Z:0.2
;HEIGHT:0.2
G1 E-1 F2100
G1 Z.4 F720
G1 X66.866 Y66.105 F10800
G1 Z.2 F720
G1 E1 F2100
M204 S800
;TYPE:Skirt/Brim
;WIDTH:0.5
G1 F900
G1 X67.835 Y65.365 E.04634
G1 X68.93 Y64.828 E.04635
G1 X69.681 Y64.601 E.02982
G1 X71.108 Y64.428 E.05463
G1 X177.108 Y64.428 E4.02867
G1 X178.495 Y64.59 E.05307
M73 Q0 S84
G1 X179.602 Y64.955 E.0443
G1 X180.74 Y65.598 E.04968
G1 X181.518 Y66.265 E.03895
G1 X182.355 Y67.301 E.05062
G1 X182.894 Y68.35 E.04482
G1 X183.225 Y69.482 E.04482
G1 X183.327 Y70.451 E.03703
G1 X183.326 Y122.555 E1.98028
G1 X183.249 Y123.335 E.02979
M73 P0 R83
G1 X182.936 Y124.514 E.04636
G1 X182.399 Y125.609 E.04635
G1 X181.659 Y126.578 E.04634
G1 X180.381 Y127.628 E.06286
G1 X179.689 Y127.997 E.02981
G1 X178.535 Y128.392 E.04636
G1 X177.108 Y128.565 E.05463
G1 X100.956 Y128.56 E2.89426
G1 X73.784 Y126.656 E1.03524
G1 X72.928 Y126.448 E.03348
G1 X72.103 Y126.137 E.03351
G1 X70.705 Y125.311 E.06171
G1 X69.636 Y124.321 E.05538
G1 X68.706 Y122.99 E.06171
G1 X68.333 Y122.191 E.03351
G1 X68.042 Y121.28 E.03635
G1 X65.021 Y108.968 E.48181
G1 X64.88 Y107.656 E.05015
G1 X64.89 Y70.438 E1.41452
G1 X64.967 Y69.657 E.02983
G1 X65.28 Y68.479 E.04632
G1 X65.817 Y67.383 E.04639
G1 X66.828 Y66.152 E.06054
M204 S1000
;WIPE_START
G1 F8640
G1 X66.866 Y66.105 E-.01396
G1 X67.835 Y65.365 E-.28153
G1 X68.93 Y64.828 E-.28161
G1 X69.681 Y64.601 E-.18116
G1 X70.72 Y64.475 E-.24174
;WIPE_END
G1 Z.4 F720
; printing object Adapter Base Plate Spacer.stl id:0 copy 0
G1 X75.068 Y123.767 F10800
G1 Z.2 F720
G1 E1 F2100
M204 S800
;TYPE:Perimeter
;WIDTH:0.499999
G1 F900
G1 X74.853 Y123.777 E.00818
G1 X74.349 Y123.723 E.01926
G1 X73.846 Y123.606 E.01963
G1 X73.36 Y123.428 E.01967
G1 X72.9 Y123.193 E.01963
G1 X72.48 Y122.909 E.01927
G1 X71.896 Y122.368 E.03026
G1 X71.581 Y121.971 E.01926
G1 X71.311 Y121.53 E.01965
G1 X71.097 Y121.059 E.01966
G1 X70.945 Y120.575 E.01928
G1 X70.824 Y119.789 E.03022
G1 X70.824 Y119.282 E.01927
G1 X70.886 Y118.779 E.01926
G1 X71.102 Y118.013 E.03025
G1 X71.311 Y117.552 E.01924
G1 X71.576 Y117.12 E.01926
G1 X72.09 Y116.512 E.03026
G1 X72.471 Y116.179 E.01923
G1 X72.9 Y115.889 E.01968
G1 X73.36 Y115.654 E.01963
G1 X73.846 Y115.476 E.01967
G1 X74.35 Y115.359 E.01966
G1 X74.854 Y115.305 E.01926
G1 X75.648 Y115.341 E.03021
G1 X76.145 Y115.441 E.01927
G1 X76.636 Y115.604 E.01966
G1 X77.103 Y115.825 E.01964
G1 X77.532 Y116.096 E.01929
G1 X78.132 Y116.619 E.03025
G1 X78.459 Y117.006 E.01926
G1 X78.736 Y117.43 E.01925
G1 X79.061 Y118.145 E.02985
G1 X79.155 Y118.521 E.01473
G1 X79.296 Y119.402 E.03391
G1 X79.249 Y120.185 E.02981
G1 X79.059 Y120.947 E.02985
G1 X78.863 Y121.415 E.01928
G1 X78.607 Y121.864 E.01964
G1 X78.298 Y122.278 E.01963
G1 X77.948 Y122.645 E.01927
G1 X77.325 Y123.124 E.02987
G1 X76.626 Y123.481 E.02983
G1 X76.145 Y123.641 E.01927
G1 X75.648 Y123.741 E.01927
G1 X75.128 Y123.764 E.01978
M204 S1000
G1 X75.061 Y124.225 F10800
M204 S800
;TYPE:External perimeter
G1 F900
G1 X74.839 Y124.235 E.00845
G1 X74.273 Y124.175 E.02163
G1 X73.715 Y124.045 E.02178
G1 X73.177 Y123.848 E.02178
G1 X72.667 Y123.587 E.02177
G1 X72.195 Y123.268 E.02165
G1 X71.56 Y122.679 E.03292
G1 X71.206 Y122.233 E.02164
G1 X70.907 Y121.745 E.02175
G1 X70.67 Y121.223 E.02179
G1 X70.498 Y120.679 E.02168
G1 X70.367 Y119.824 E.03287
G1 X70.367 Y119.255 E.02163
G1 X70.436 Y118.689 E.02167
G1 X70.671 Y117.856 E.03289
G1 X70.907 Y117.338 E.02163
G1 X71.204 Y116.851 E.02168
G1 X71.763 Y116.19 E.0329
G1 X72.192 Y115.816 E.02163
G1 X72.667 Y115.495 E.02179
G1 X73.177 Y115.234 E.02177
G1 X73.715 Y115.037 E.02178
G1 X74.273 Y114.907 E.02178
G1 X74.84 Y114.847 E.02167
G1 X75.704 Y114.886 E.03287
G1 X76.263 Y114.999 E.02168
G1 X76.807 Y115.179 E.02178
G1 X77.324 Y115.424 E.02174
G1 X77.806 Y115.729 E.02168
G1 X78.458 Y116.298 E.03289
G1 X78.826 Y116.733 E.02166
G1 X79.138 Y117.209 E.02163
G1 X79.495 Y117.994 E.03278
G1 X79.635 Y118.556 E.02201
G1 X79.755 Y119.395 E.03221
G1 X79.702 Y120.255 E.03275
G1 X79.494 Y121.092 E.03278
G1 X79.274 Y121.617 E.02163
G1 X78.99 Y122.115 E.02179
G1 X78.648 Y122.574 E.02175
G1 X78.254 Y122.986 E.02167
G1 X77.571 Y123.512 E.03276
G1 X76.803 Y123.904 E.03277
G1 X76.263 Y124.083 E.02162
G1 X75.704 Y124.196 E.02168
G1 X75.121 Y124.222 E.02218
M204 S1000
;WIPE_START
G1 F8640
G1 X75.061 Y124.225 E-.01387
G1 X74.839 Y124.235 E-.05131
G1 X74.273 Y124.175 E-.13142
G1 X73.715 Y124.045 E-.13229
G1 X73.177 Y123.848 E-.13229
G1 X72.667 Y123.587 E-.13229
G1 X72.195 Y123.268 E-.13154
G1 X71.56 Y122.679 E-.19999
G1 X71.358 Y122.425 E-.075
;WIPE_END
G1 Z.4 F720
G1 X76.857 Y115.911 F10800
G1 Z.2 F720
G1 E1 F2100
M204 S800
;TYPE:Solid infill
;WIDTH:0.522517
G1 F900
G1 X77.936 Y116.99 E.06085
G1 X78.147 Y117.239 E.01302
G1 X78.395 Y117.618 E.01806
G1 X78.693 Y118.274 E.02873
G1 X78.743 Y118.475 E.00826
G1 X76.105 Y115.837 E.14878
G1 X75.601 Y115.728 E.02056
G1 X75.304 Y115.715 E.01186
G1 X78.898 Y119.308 E.20266
G1 X78.907 Y119.407 E.00396
G1 X78.873 Y119.961 E.02213
G1 X74.631 Y115.72 E.23921
G1 X74.415 Y115.743 E.00866
G1 X74.059 Y115.826 E.01458
G1 X78.763 Y120.529 E.26526
G1 X78.689 Y120.825 E.01217
G1 X78.598 Y121.043 E.00942
G1 X73.552 Y115.997 E.28458
G1 X73.1 Y116.223 E.02015
G1 X78.371 Y121.494 E.29727
G1 X78.281 Y121.651 E.00722
G1 X78.097 Y121.898 E.01228
G1 X72.697 Y116.498 E.30454
G1 X72.339 Y116.819 E.01918
G1 X77.779 Y122.259 E.3068
G1 X77.687 Y122.355 E.0053
G1 X77.41 Y122.568 E.01393
G1 X72.028 Y117.186 E.30353
G1 X71.892 Y117.348 E.00844
G1 X71.748 Y117.584 E.01102
G1 X77.012 Y122.848 E.29687
G1 X76.563 Y123.077 E.0201
G1 X71.519 Y118.034 E.28444
G1 X71.467 Y118.147 E.00496
G1 X71.355 Y118.547 E.01656
G1 X76.065 Y123.258 E.26566
G1 X75.601 Y123.354 E.0189
G1 X75.488 Y123.359 E.00451
G1 X71.237 Y119.108 E.23974
G1 X71.213 Y119.306 E.00795
G1 X71.213 Y119.762 E.01818
G1 X74.835 Y123.384 E.20427
G1 X74.414 Y123.339 E.01688
G1 X74.02 Y123.247 E.01613
G1 X71.354 Y120.582 E.15033
G1 X71.461 Y120.92 E.01414
G1 X71.655 Y121.348 E.01874
G1 X71.9 Y121.748 E.01871
G1 X72.124 Y122.029 E.01433
G1 X73.272 Y123.178 E.06477
M204 S1000
;WIPE_START
G1 F8640
G1 X72.124 Y122.029 E-.37504
G1 X71.9 Y121.748 E-.08298
G1 X71.655 Y121.348 E-.10831
G1 X71.461 Y120.92 E-.1085
G1 X71.354 Y120.582 E-.08186
G1 X72.099 Y121.327 E-.24331
;WIPE_END
G1 Z.4 F720
; stop printing object Adapter Base Plate Spacer.stl id:0 copy 0
; printing object Adapter Base Plate Spacer  2.stl id:1 copy 0
G1 X88.606 Y124.31 F10800
G1 Z.2 F720
G1 E1 F2100
M204 S800
;TYPE:Perimeter
;WIDTH:0.499999
G1 F900
G1 X88.391 Y124.32 E.00818
G1 X87.898 Y124.267 E.01885
G1 X87.139 Y124.066 E.02984
G1 X86.429 Y123.73 E.02985
G1 X86.018 Y123.452 E.01886
G1 X85.434 Y122.911 E.03026
G1 X85.126 Y122.522 E.01886
G1 X84.736 Y121.84 E.02986
G1 X84.478 Y121.098 E.02986
G1 X84.388 Y120.61 E.01886
G1 X84.363 Y119.815 E.03023
G1 X84.424 Y119.322 E.01888
G1 X84.639 Y118.556 E.03024
G1 X84.849 Y118.095 E.01925
G1 X85.114 Y117.663 E.01926
G1 X85.628 Y117.055 E.03026
G1 X86.009 Y116.722 E.01923
G1 X86.438 Y116.432 E.01968
G1 X86.898 Y116.197 E.01963
G1 X87.384 Y116.019 E.01967
G1 X87.888 Y115.902 E.01966
G1 X88.392 Y115.848 E.01926
G1 X89.186 Y115.884 E.03021
G1 X89.683 Y115.984 E.01927
G1 X90.174 Y116.147 E.01966
G1 X90.641 Y116.368 E.01964
G1 X91.07 Y116.639 E.01929
G1 X91.662 Y117.155 E.02985
G1 X92.15 Y117.77 E.02984
G1 X92.396 Y118.202 E.01889
G1 X92.681 Y118.944 E.03021
G1 X92.834 Y119.945 E.03849
G1 X92.786 Y120.728 E.02981
G1 X92.597 Y121.49 E.02984
G1 X92.401 Y121.958 E.01928
G1 X92.145 Y122.407 E.01964
G1 X91.836 Y122.821 E.01963
G1 X91.486 Y123.188 E.01927
G1 X90.863 Y123.667 E.02987
G1 X90.164 Y124.024 E.02983
G1 X89.683 Y124.184 E.01927
G1 X89.186 Y124.284 E.01927
G1 X88.666 Y124.307 E.01978
M204 S1000
G1 X88.599 Y124.768 F10800
M204 S800
;TYPE:External perimeter
G1 F900
G1 X88.377 Y124.778 E.00845
G1 X87.814 Y124.718 E.02152
G1 X86.981 Y124.497 E.03275
G1 X86.202 Y124.128 E.03276
G1 X85.733 Y123.811 E.02151
G1 X85.098 Y123.222 E.03292
G1 X84.746 Y122.779 E.0215
G1 X84.319 Y122.03 E.03277
G1 X84.035 Y121.216 E.03277
G1 X83.932 Y120.659 E.02153
G1 X83.905 Y119.794 E.03289
G1 X83.974 Y119.232 E.02152
G1 X84.209 Y118.399 E.03289
G1 X84.445 Y117.881 E.02163
G1 X84.742 Y117.394 E.02168
G1 X85.301 Y116.733 E.0329
G1 X85.73 Y116.359 E.02163
G1 X86.205 Y116.038 E.02179
G1 X86.715 Y115.777 E.02177
G1 X87.253 Y115.58 E.02178
G1 X87.811 Y115.45 E.02178
G1 X88.378 Y115.39 E.02167
G1 X89.242 Y115.429 E.03287
G1 X89.801 Y115.542 E.02168
G1 X90.345 Y115.722 E.02178
G1 X90.862 Y115.967 E.02174
G1 X91.344 Y116.272 E.02168
G1 X91.994 Y116.838 E.03276
G1 X92.53 Y117.514 E.03279
G1 X92.81 Y118.005 E.02148
G1 X93.007 Y118.518 E.02089
G1 X93.187 Y119.123 E.02399
G1 X93.293 Y119.938 E.03124
G1 X93.24 Y120.798 E.03275
G1 X93.032 Y121.635 E.03278
G1 X92.812 Y122.16 E.02163
G1 X92.528 Y122.658 E.02179
G1 X92.186 Y123.117 E.02175
G1 X91.792 Y123.529 E.02167
G1 X91.108 Y124.055 E.03279
G1 X90.341 Y124.447 E.03274
G1 X89.801 Y124.626 E.02162
G1 X89.242 Y124.739 E.02168
G1 X88.659 Y124.765 E.02218
M204 S1000
;WIPE_START
G1 F8640
G1 X88.599 Y124.768 E-.01387
G1 X88.377 Y124.778 E-.05131
G1 X87.814 Y124.718 E-.13073
G1 X86.981 Y124.497 E-.199
G1 X86.202 Y124.128 E-.19903
G1 X85.733 Y123.811 E-.13071
G1 X85.098 Y123.222 E-.19999
G1 X84.895 Y122.966 E-.07536
;WIPE_END
G1 Z.4 F720
G1 X90.393 Y116.453 F10800
G1 Z.2 F720
G1 E1 F2100
M204 S800
;TYPE:Solid infill
;WIDTH:0.522466
G1 F900
G1 X91.436 Y117.496 E.05882
G1 X91.827 Y117.989 E.02509
G1 X92.044 Y118.368 E.01741
G1 X92.301 Y119.039 E.02865
G1 X89.642 Y116.38 E.14994
G1 X89.139 Y116.271 E.02052
G1 X88.841 Y116.258 E.01189
G1 X92.436 Y119.852 E.2027
G1 X92.445 Y119.95 E.00392
G1 X92.411 Y120.505 E.02217
G1 X88.168 Y116.263 E.23924
G1 X87.952 Y116.286 E.00866
G1 X87.596 Y116.369 E.01458
G1 X92.3 Y121.073 E.26526
G1 X92.227 Y121.368 E.01212
G1 X92.135 Y121.586 E.00943
G1 X87.09 Y116.541 E.28449
G1 X87.054 Y116.554 E.00153
G1 X86.638 Y116.767 E.01864
G1 X91.908 Y122.037 E.29718
G1 X91.819 Y122.194 E.0072
G1 X91.634 Y122.442 E.01234
G1 X86.234 Y117.041 E.30454
G1 X85.877 Y117.362 E.01914
M73 P1 R83
M73 Q1 S84
G1 X91.317 Y122.802 E.30677
G1 X91.225 Y122.898 E.0053
G1 X90.948 Y123.111 E.01393
G1 X85.566 Y117.73 E.30347
G1 X85.43 Y117.891 E.0084
G1 X85.285 Y118.127 E.01104
G1 X90.549 Y123.391 E.29684
G1 X90.101 Y123.62 E.02006
G1 X85.057 Y118.577 E.28441
G1 X85.005 Y118.69 E.00496
G1 X84.893 Y119.091 E.0166
G1 X89.603 Y123.801 E.2656
G1 X89.139 Y123.897 E.01889
G1 X89.026 Y123.902 E.00451
G1 X84.775 Y119.651 E.23972
G1 X84.753 Y119.833 E.00731
G1 X84.767 Y120.322 E.01951
G1 X88.373 Y123.927 E.20332
G1 X87.969 Y123.884 E.0162
G1 X87.537 Y123.769 E.01783
G1 X84.902 Y121.135 E.14856
G1 X85.091 Y121.678 E.02293
G1 X85.448 Y122.304 E.02874
G1 X85.662 Y122.573 E.01371
G1 X86.785 Y123.696 E.06333
M204 S1000
;WIPE_START
G1 F8640
G1 X85.662 Y122.573 E-.36671
G1 X85.448 Y122.304 E-.07937
G1 X85.091 Y121.678 E-.1664
G1 X84.902 Y121.135 E-.13276
G1 X85.682 Y121.915 E-.25476
;WIPE_END
G1 Z.4 F720
; stop printing object Adapter Base Plate Spacer  2.stl id:1 copy 0
; printing object Adapter Base Plate.stl id:2 copy 0
G1 X122.232 Y115.956 F10800
G1 Z.2 F720
G1 E1 F2100
M204 S800
;TYPE:Perimeter
;WIDTH:0.499999
G1 F900
G1 X122.227 Y115.961 E.00027
G1 X121.551 Y116.447 E.03164
G1 X120.8 Y116.809 E.03169
G1 X119.997 Y117.035 E.0317
G1 X119.171 Y117.118 E.03155
G1 X114.773 Y117.12 E.16715
G1 X114.452 Y117.102 E.01222
;WIDTH:0.464061
G1 X114.132 Y117.084 E.01122
;WIDTH:0.428123
G1 X113.608 Y117.069 E.01679
G1 X113.084 Y117.084 E.01679
;WIDTH:0.464061
G1 X112.764 Y117.102 E.01122
;WIDTH:0.499999
G1 X112.443 Y117.12 E.01222
G1 X109.105 Y117.12 E.12686
G1 X108.538 Y117.073 E.02162
G1 X108.219 Y117.035 E.01221
G1 X107.529 Y116.85 E.02715
G1 X106.914 Y116.574 E.02562
G1 X106.666 Y116.447 E.01059
G1 X106.08 Y116.038 E.02716
G1 X105.53 Y115.501 E.02921
G1 X104.997 Y114.779 E.03411
G1 X104.635 Y114.028 E.03169
G1 X104.424 Y113.206 E.03225
G1 X104.351 Y112.818 E.01501
G1 X104.351 Y79.216 E1.27709
;WIDTH:0.536822
G1 X104.333 Y78.947 E.01107
;WIDTH:0.573645
G1 X104.314 Y78.678 E.0119
;WIDTH:0.584172
G1 X104.309 Y78.173 E.02273
G1 X104.358 Y77.831 E.01555
;WIDTH:0.574765
G1 X104.46 Y77.516 E.01464
;WIDTH:0.537382
G1 X104.562 Y77.2 E.01365
;WIDTH:0.499999
G1 X104.848 Y76.51 E.02839
G1 X104.997 Y76.214 E.01259
G1 X105.407 Y75.629 E.02715
G1 X106.08 Y74.955 E.0362
G1 X106.666 Y74.545 E.02718
G1 X107.417 Y74.184 E.03167
G1 X108.219 Y73.958 E.03167
G1 X108.801 Y73.896 E.02224
G1 X109.733 Y73.872 E.03543
G1 X169.111 Y73.872 E2.25674
G1 X169.866 Y73.936 E.0288
G1 X170.8 Y74.184 E.03673
G1 X171.452 Y74.488 E.02734
G1 X172.058 Y74.9 E.02785
G1 X172.638 Y75.442 E.03017
G1 X172.978 Y75.87 E.02077
G1 X173.279 Y76.317 E.02048
G1 X173.581 Y76.965 E.02717
G1 X173.756 Y77.576 E.02416
G1 X173.838 Y78.062 E.01873
;WIDTH:0.490841
G1 X173.883 Y78.594 E.01988
;WIDTH:0.499999
G1 X173.892 Y99.339 E.78844
G1 X173.827 Y100.108 E.02933
G1 X173.622 Y100.916 E.03168
G1 X173.279 Y101.675 E.03166
G1 X172.809 Y102.364 E.0317
G1 X172.227 Y102.961 E.03169
G1 X171.578 Y103.428 E.03039
G1 X170.8 Y103.809 E.03292
G1 X169.997 Y104.035 E.0317
G1 X169.317 Y104.105 E.02598
G1 X168.086 Y104.12 E.04679
G1 X127.145 Y104.12 E1.55601
G1 X126.481 Y104.186 E.02536
M73 Q1 S83
G1 X125.879 Y104.368 E.0239
G1 X125.323 Y104.665 E.02396
G1 X124.837 Y105.065 E.02392
