; generated by PrusaSlicer 2.9.4 on 2026-03-18 at 01:58:22 UTC


;
;
; 

; external perimeters extrusion width = 0.45mm
; perimeters extrusion width = 0.45mm
; infill extrusion width = 0.45mm
; solid infill extrusion width = 0.45mm
; top infill extrusion width = 0.40mm
; first layer extrusion width = 0.42mm

M73 P0 R4
M73 Q0 S4
M201 X1000 Y1000 Z200 E5000 ; sets maximum accelerations, mm/sec^2
M203 X200 Y200 Z12 E120 ; sets maximum feedrates, mm / sec
M204 S1250 T1250 ; sets acceleration (S) and retract acceleration (R), mm/sec^2
M205 X8.00 Y8.00 Z0.40 E4.50 ; sets the jerk limits, mm/sec
M205 S0 T0 ; sets the minimum extruding and travel feed rate, mm/sec

; printing object Adapter Base Plate Spacer  2.stl id:0 copy 0
; stop printing object Adapter Base Plate Spacer  2.stl id:0 copy 0

;TYPE:Custom
M862.3 P "MK3S" ; printer model check
M862.1 P0.4 ; nozzle diameter check
M115 U3.14.1 ; tell printer latest fw version
G90 ; use absolute coordinates
M83 ; extruder relative mode
M104 S240 ; set extruder temp
M140 S90 ; set bed temp
M190 S90 ; wait for bed temp
M109 S240 ; wait for extruder temp
G28 W ; home all without mesh bed level
G80 X116.871 Y96.8697 W16.2587 H16.2606 ; mesh bed levelling

G1 Z0.2 F720
G1 Y-3 F1000 ; go outside print area
G92 E0
G1 X60 E9 F1000 ; intro line
G1 X100 E12.5 F1000 ; intro line
M73 P1 R4
M73 Q1 S4

G92 E0
M221 S95

; Don't change E values below. Excessive value can damage the printer.
M907 E430 ; set extruder motor current
G21 ; set units to millimeters
G90 ; use absolute coordinates
M83 ; use relative distances for extrusion

M900 K0.08 ; Filament gcode LA 1.5
M900 K45 ; Filament gcode LA 1.0




M107
;LAYER_CHANGE
;Z:0.2
;HEIGHT:0.2
G1 E-1 F2100
M73 P2 R4
M73 Q2 S4
G1 Z.4 F720
G1 X118.666 Y100.258 F10800
G1 Z.2 F720
G1 E1 F2100
M204 S800
;TYPE:Skirt/Brim
;WIDTH:0.42
G1 F1200
G1 X119.493 Y99.279 E.04018
G1 X120.626 Y98.372 E.04551
G1 X122.188 Y97.573 E.05501
G1 X123.587 Y97.185 E.04552
G1 X125.212 Y97.061 E.0511
G1 X126.653 Y97.232 E.0455
G1 X128.039 Y97.662 E.0455
G1 X129.577 Y98.509 E.05505
G1 X130.682 Y99.45 E.04551
G1 X131.695 Y100.726 E.05108
G1 X132.361 Y102.016 E.04552
G1 X132.837 Y103.705 E.05502
G1 X132.942 Y105.152 E.04549
G1 X132.781 Y106.595 E.04552
G1 X132.292 Y108.15 E.05111
G1 X131.597 Y109.424 E.0455
G1 X130.464 Y110.764 E.05502
G1 X129.172 Y111.758 E.05111
G1 X127.873 Y112.405 E.0455
G1 X126.177 Y112.854 E.05501
M73 Q3 S4
G1 X124.728 Y112.937 E.04551
G1 X123.288 Y112.755 E.04551
G1 X121.741 Y112.242 E.0511
G1 X120.23 Y111.349 E.05503
M73 P3 R4
G1 X119.154 Y110.375 E.04551
G1 X118.274 Y109.221 E.0455
G1 X117.618 Y107.926 E.04552
G1 X117.209 Y106.533 E.04552
G1 X117.06 Y104.91 E.0511
G1 X117.209 Y103.467 E.04548
G1 X117.736 Y101.793 E.05503
G1 X118.441 Y100.524 E.04552
G1 X118.627 Y100.304 E.00903
M204 S1000
G1 X118.9 Y100.54 F10800
M204 S800
G1 F1200
G1 X119.749 Y99.556 E.04075
G1 X120.828 Y98.691 E.04336
G1 X122.328 Y97.923 E.05284
G1 X123.661 Y97.555 E.04336
G1 X125.195 Y97.438 E.04824
G1 X126.568 Y97.599 E.04334
G1 X127.888 Y98.008 E.04333
G1 X129.365 Y98.821 E.05286
G1 X130.417 Y99.718 E.04335
G1 X131.288 Y100.792 E.04336
G1 X132.009 Y102.151 E.04824
G1 X132.466 Y103.774 E.05287
G1 X132.564 Y105.152 E.04332
G1 X132.41 Y106.526 E.04335
G1 X131.948 Y107.994 E.04825
G1 X131.288 Y109.208 E.04333
G1 X130.2 Y110.496 E.05286
G1 X128.98 Y111.434 E.04825
G1 X127.743 Y112.05 E.04333
G1 X126.114 Y112.483 E.05285
G1 X124.733 Y112.56 E.04337
G1 X123.362 Y112.385 E.04334
G1 X121.902 Y111.901 E.04823
G1 X120.451 Y111.043 E.05285
G1 X119.427 Y110.114 E.04335
G1 X118.508 Y108.881 E.04822
G1 X117.91 Y107.634 E.04336
M73 Q4 S4
G1 X117.549 Y106.3 E.04333
G1 X117.438 Y104.889 E.04438
G1 X117.642 Y103.248 E.05185
G1 X118.084 Y101.938 E.04335
M73 P4 R4
G1 X118.846 Y100.602 E.04822
G1 X118.861 Y100.585 E.00071
M204 S1000
G1 X119.148 Y100.828 F10800
M204 S800
G1 F1200
G1 X120.005 Y99.832 E.0412
G1 X121.029 Y99.009 E.04119
G1 X122.469 Y98.273 E.05071
G1 X123.735 Y97.925 E.04117
G1 X125.177 Y97.814 E.04535
G1 X126.779 Y98.036 E.05071
G1 X128.017 Y98.475 E.04118
G1 X129.262 Y99.211 E.04535
G1 X130.245 Y100.083 E.0412
G1 X131.052 Y101.12 E.0412
G1 X131.657 Y102.286 E.04119
G1 X132.095 Y103.842 E.05068
G1 X132.187 Y105.152 E.04118
G1 X132.04 Y106.458 E.04121
G1 X131.605 Y107.837 E.04534
G1 X130.979 Y108.992 E.04119
G1 X129.935 Y110.227 E.0507
G1 X128.789 Y111.109 E.04534
G1 X127.614 Y111.696 E.04118
G1 X126.051 Y112.111 E.0507
G1 X124.739 Y112.183 E.0412
G1 X123.436 Y112.015 E.04119
G1 X122.063 Y111.56 E.04535
G1 X120.671 Y110.737 E.0507
G1 X119.7 Y109.854 E.04115
G1 X118.905 Y108.808 E.04119
G1 X118.314 Y107.635 E.04118
G1 X117.946 Y106.374 E.04119
G1 X117.814 Y104.933 E.04537
G1 X117.946 Y103.626 E.04119
G1 X118.431 Y102.084 E.05068
G1 X119.119 Y100.88 E.04348
M204 S1000
;WIPE_START
G1 F8640
G1 X119.148 Y100.828 E-.01375
G1 X120.005 Y99.832 E-.30339
G1 X121.029 Y99.009 E-.30335
G1 X122.469 Y98.273 E-.37341
G1 X122.494 Y98.266 E-.0061
;WIPE_END
G1 Z.4 F720
; printing object Adapter Base Plate Spacer  2.stl id:0 copy 0
G1 X125.048 Y100.805 F10800
G1 Z.2 F720
M73 Q5 S4
G1 E1 F2100
M204 S800
;TYPE:Perimeter
;WIDTH:0.419999
G1 F1200
G1 X125.586 Y100.83 E.01689
G1 X126.081 Y100.929 E.01583
G1 X126.569 Y101.091 E.01612
G1 X127.032 Y101.31 E.01606
G1 X127.459 Y101.581 E.01586
G1 X128.046 Y102.092 E.0244
M73 P5 R4
G1 X128.524 Y102.695 E.02413
G1 X128.889 Y103.382 E.02439
G1 X129.103 Y104.078 E.02283
G1 X129.21 Y104.863 E.02484
G1 X129.163 Y105.64 E.02441
G1 X128.975 Y106.395 E.0244
G1 X128.78 Y106.86 E.01581
G1 X128.525 Y107.307 E.01614
G1 X128.219 Y107.718 E.01607
G1 X127.869 Y108.083 E.01586
G1 X127.253 Y108.558 E.02439
G1 X126.56 Y108.912 E.0244
G1 X126.089 Y109.068 E.01556
G1 X125.313 Y109.2 E.02468
G1 X124.809 Y109.207 E.0158
G1 X124.306 Y109.154 E.01586
G1 X123.546 Y108.952 E.02466
G1 X123.083 Y108.75 E.01584
G1 X122.641 Y108.488 E.01611
G1 X122.234 Y108.176 E.01608
G1 X121.868 Y107.815 E.01612
G1 X121.549 Y107.413 E.01609
G1 X121.281 Y106.975 E.0161
G1 X121.068 Y106.507 E.01612
G1 X120.917 Y106.025 E.01584
G1 X120.797 Y105.248 E.02465
G1 X120.797 Y104.743 E.01583
G1 X120.859 Y104.242 E.01583
G1 X121.072 Y103.485 E.02466
G1 X121.281 Y103.025 E.01584
G1 X121.545 Y102.594 E.01585
G1 X122.053 Y101.993 E.02467
G1 X122.433 Y101.662 E.0158
G1 X122.851 Y101.379 E.01583
G1 X123.555 Y101.046 E.02442
G1 X124.307 Y100.846 E.0244
G1 X124.8 Y100.794 E.01554
G1 X124.988 Y100.802 E.0059
M204 S1000
G1 X125.066 Y100.428 F10800
M204 S800
;TYPE:External perimeter
G1 F1200
G1 X125.632 Y100.454 E.01777
G1 X126.178 Y100.564 E.01746
G1 X126.709 Y100.74 E.01754
G1 X127.214 Y100.979 E.01752
G1 X127.685 Y101.277 E.01748
G1 X128.32 Y101.83 E.0264
G1 X128.841 Y102.487 E.02629
G1 X129.091 Y102.957 E.01669
G1 X129.337 Y103.522 E.01932
G1 X129.478 Y104.029 E.0165
G1 X129.588 Y104.857 E.02619
G1 X129.537 Y105.697 E.02639
G1 X129.334 Y106.514 E.0264
G1 X129.119 Y107.027 E.01744
G1 X128.841 Y107.514 E.01758
G1 X128.507 Y107.962 E.01752
G1 X128.122 Y108.365 E.01748
G1 X127.455 Y108.878 E.02638
G1 X126.706 Y109.261 E.02638
G1 X126.18 Y109.435 E.01737
G1 X125.348 Y109.576 E.02646
G1 X124.791 Y109.585 E.01747
G1 X124.237 Y109.525 E.01747
G1 X123.422 Y109.309 E.02644
G1 X122.911 Y109.086 E.01748
G1 X122.429 Y108.801 E.01756
G1 X121.986 Y108.46 E.01753
G1 X121.587 Y108.068 E.01754
G1 X121.239 Y107.629 E.01756
G1 X120.948 Y107.152 E.01752
G1 X120.716 Y106.643 E.01754
G1 X120.548 Y106.111 E.01749
G1 X120.42 Y105.277 E.02646
G1 X120.42 Y104.72 E.01746
G1 X120.488 Y104.167 E.01747
G1 X120.717 Y103.355 E.02645
G1 X120.947 Y102.848 E.01746
G1 X121.238 Y102.373 E.01747
G1 X121.783 Y101.728 E.02648
G1 X122.202 Y101.363 E.01742
G1 X122.664 Y101.05 E.0175
G1 X123.425 Y100.69 E.0264
G1 X124.238 Y100.475 E.02637
G1 X124.789 Y100.416 E.01737
G1 X125.006 Y100.426 E.00681
M204 S1000
;WIPE_START
G1 F8640
G1 X125.066 Y100.428 E-.01386
G1 X125.632 Y100.454 E-.13083
G1 X126.178 Y100.564 E-.12861
M73 Q6 S4
G1 X126.709 Y100.74 E-.12917
G1 X127.214 Y100.979 E-.12901
G1 X127.685 Y101.277 E-.12869
G1 X128.32 Y101.83 E-.19443
G1 X128.711 Y102.324 E-.1454
;WIPE_END
G1 Z.4 F720
G1 X126.913 Y101.421 F10800
G1 Z.2 F720
G1 E1 F2100
M73 P6 R4
M204 S800
;TYPE:Solid infill
;WIDTH:0.43104
G1 F1200
G1 X127.839 Y102.347 E.04226
G1 X128.255 Y102.871 E.02159
G1 X128.594 Y103.51 E.02334
G1 X128.67 Y103.727 E.00742
G1 X126.274 Y101.331 E.10935
G1 X125.999 Y101.239 E.00936
G1 X125.543 Y101.148 E.01501
G1 X128.851 Y104.457 E.151
G1 X128.889 Y104.868 E.01332
G1 X128.879 Y105.033 E.00533
G1 X124.968 Y101.122 E.1785
G1 X124.81 Y101.115 E.0051
G1 X124.45 Y101.153 E.01168
G1 X128.847 Y105.55 E.20068
G1 X128.744 Y105.996 E.01477
G1 X124.006 Y101.258 E.21624
G1 X123.665 Y101.348 E.01138
G1 X123.585 Y101.386 E.00286
G1 X128.617 Y106.418 E.22966
G1 X128.447 Y106.797 E.01341
G1 X123.212 Y101.562 E.23893
G1 X123.011 Y101.658 E.00719
G1 X122.861 Y101.76 E.00585
G1 X128.246 Y107.145 E.24577
G1 X128.012 Y107.459 E.01264
M73 Q7 S4
G1 X122.543 Y101.991 E.24958
G1 X122.254 Y102.251 E.01255
M73 P7 R4
G1 X127.749 Y107.746 E.25079
G1 X127.655 Y107.844 E.00438
G1 X127.453 Y107.999 E.00822
G1 X122.003 Y102.549 E.24874
G1 X121.761 Y102.855 E.01259
G1 X127.143 Y108.238 E.24566
G1 X126.791 Y108.434 E.013
G1 X121.555 Y103.198 E.23897
G1 X121.383 Y103.575 E.01337
G1 X126.426 Y108.619 E.23019
G1 X126.014 Y108.755 E.014
G1 X121.26 Y104.001 E.21697
G1 X121.174 Y104.305 E.0102
M73 Q8 S4
G1 X121.157 Y104.447 E.00462
G1 X125.545 Y108.835 E.20027
G1 X125.284 Y108.88 E.00855
M73 P8 R4
G1 X125.044 Y108.883 E.00775
G1 X121.118 Y104.957 E.17918
G1 X121.118 Y105.224 E.00862
G1 X121.169 Y105.557 E.01087
G1 X124.46 Y108.848 E.1502
G1 X124.365 Y108.837 E.00309
G1 X123.733 Y108.67 E.0211
G1 X121.328 Y106.265 E.10976
G1 X121.368 Y106.392 E.0043
G1 X121.565 Y106.825 E.01535
G1 X121.812 Y107.229 E.01528
G1 X122.078 Y107.563 E.01378
G1 X123.097 Y108.583 E.04653
M204 S1000
;LAYER_CHANGE
;Z:0.35
;HEIGHT:0.15
;BEFORE_LAYER_CHANGE
G92 E0.0
;0.35


;WIPE_START
G1 F8640
G1 X122.078 Y107.563 E-.33291
G1 X121.812 Y107.229 E-.09859
G1 X121.565 Y106.825 E-.10934
G1 X121.368 Y106.392 E-.10984
G1 X121.328 Y106.265 E-.03074
G1 X122.304 Y107.241 E-.31858
;WIPE_END
G1 Z.35 F720
;AFTER_LAYER_CHANGE
;0.35
M104 S230 ; set temperature
M140 S85 ; set bed temperature
; stop printing object Adapter Base Plate Spacer  2.stl id:0 copy 0
G1 Z.55
G1 X121.143 Y111.889 F10800
G1 Z.35 F720
G1 E1 F2100
;TYPE:Skirt/Brim
;WIDTH:0.42
G1 F1238
G1 X120.23 Y111.349 E.02565
G1 X119.154 Y110.375 E.0351
G1 X118.274 Y109.221 E.0351
G1 X117.618 Y107.926 E.03511
G1 X117.209 Y106.533 E.03511
G1 X117.06 Y104.91 E.03942
G1 X117.209 Y103.467 E.03508
G1 X117.736 Y101.793 E.04244
G1 X118.441 Y100.524 E.03511
G1 X119.493 Y99.279 E.03942
G1 X120.626 Y98.372 E.0351
G1 X122.188 Y97.573 E.04243
G1 X123.587 Y97.185 E.03511
G1 X125.212 Y97.061 E.03941
G1 X126.653 Y97.232 E.03509
G1 X128.039 Y97.662 E.0351
G1 X129.577 Y98.509 E.04246
G1 X130.682 Y99.45 E.0351
M73 Q9 S4
G1 X131.695 Y100.726 E.0394
G1 X132.361 Y102.016 E.03511
G1 X132.837 Y103.705 E.04244
M73 P9 R4
G1 X132.942 Y105.152 E.03509
G1 X132.781 Y106.595 E.03512
G1 X132.292 Y108.15 E.03942
G1 X131.597 Y109.424 E.0351
G1 X130.464 Y110.764 E.04244
G1 X129.172 Y111.758 E.03942
G1 X127.873 Y112.405 E.0351
G1 X126.177 Y112.854 E.04243
G1 X124.728 Y112.937 E.0351
G1 X123.288 Y112.755 E.0351
G1 X121.741 Y112.242 E.03942
G1 X121.195 Y111.919 E.01534
G1 X121.386 Y111.596 F10800
G1 F1238
G1 X120.451 Y111.043 E.02627
G1 X119.427 Y110.114 E.03344
G1 X118.508 Y108.881 E.03719
G1 X117.91 Y107.634 E.03345
G1 X117.549 Y106.3 E.03342
G1 X117.438 Y104.889 E.03423
G1 X117.642 Y103.248 E.03999
G1 X118.084 Y101.938 E.03344
G1 X118.846 Y100.602 E.0372
G1 X119.749 Y99.556 E.03342
G1 X120.828 Y98.691 E.03345
G1 X122.328 Y97.923 E.04076
G1 X123.661 Y97.555 E.03344
G1 X125.195 Y97.438 E.03721
G1 X126.568 Y97.599 E.03343
G1 X127.888 Y98.008 E.03342
G1 X129.365 Y98.821 E.04078
G1 X130.417 Y99.718 E.03344
G1 X131.288 Y100.792 E.03344
G1 X132.009 Y102.151 E.03721
G1 X132.466 Y103.774 E.04078
G1 X132.564 Y105.152 E.03341
G1 X132.41 Y106.526 E.03344
G1 X131.948 Y107.994 E.03722
G1 X131.288 Y109.208 E.03342
G1 X130.2 Y110.496 E.04078
M73 Q10 S4
G1 X128.98 Y111.434 E.03722
G1 X127.743 Y112.05 E.03342
G1 X126.114 Y112.483 E.04077
M73 P10 R4
G1 X124.733 Y112.56 E.03345
G1 X123.362 Y112.385 E.03343
G1 X121.902 Y111.901 E.0372
G1 X121.438 Y111.627 E.01303
G1 X121.629 Y111.303 F10800
G1 F1238
G1 X120.671 Y110.737 E.02691
G1 X119.7 Y109.854 E.03174
G1 X118.905 Y108.808 E.03177
G1 X118.314 Y107.635 E.03177
G1 X117.946 Y106.374 E.03177
G1 X117.814 Y104.933 E.035
G1 X117.946 Y103.626 E.03177
G1 X118.431 Y102.084 E.03909
G1 X119.148 Y100.828 E.03498
G1 X120.005 Y99.832 E.03178
G1 X121.029 Y99.009 E.03177
G1 X122.469 Y98.273 E.03911
G1 X123.735 Y97.925 E.03175
G1 X125.177 Y97.814 E.03498
G1 X126.779 Y98.036 E.03911
G1 X128.017 Y98.475 E.03177
G1 X129.262 Y99.211 E.03498
G1 X130.245 Y100.083 E.03178
G1 X131.052 Y101.12 E.03178
G1 X131.657 Y102.286 E.03177
G1 X132.095 Y103.842 E.03909
G1 X132.187 Y105.152 E.03176
G1 X132.04 Y106.458 E.03178
G1 X131.605 Y107.837 E.03497
G1 X130.979 Y108.992 E.03177
G1 X129.935 Y110.227 E.03911
G1 X128.789 Y111.109 E.03497
G1 X127.614 Y111.696 E.03177
G1 X126.051 Y112.111 E.03911
G1 X124.739 Y112.183 E.03178
G1 X123.436 Y112.015 E.03177
G1 X122.063 Y111.56 E.03498
G1 X121.68 Y111.334 E.01076
;WIPE_START
G1 F8640
G1 X121.629 Y111.303 E-.01378
G1 X120.671 Y110.737 E-.25693
G1 X119.7 Y109.854 E-.30305
G1 X118.905 Y108.808 E-.30337
G1 X118.665 Y108.333 E-.12287
;WIPE_END
G1 Z.55 F720
; printing object Adapter Base Plate Spacer  2.stl id:0 copy 0
G1 X125.879 Y102.462 F10800
G1 Z.35 F720
M73 Q11 S4
G1 E1 F2100
M73 P11 R4
M204 S800
;TYPE:Perimeter
;WIDTH:0.449999
G1 F1238
G1 X125.937 Y102.477 E.00156
G1 X126.421 Y102.718 E.01409
G1 X126.884 Y103.081 E.01533
G1 X127.232 Y103.496 E.01411
G1 X127.476 Y103.945 E.01331
G1 X127.631 Y104.432 E.01332
G1 X127.691 Y104.94 E.01333
G1 X127.654 Y105.451 E.01335
G1 X127.521 Y105.944 E.0133
G1 X127.296 Y106.404 E.01334
G1 X126.989 Y106.813 E.01332
G1 X126.61 Y107.157 E.01334
G1 X126.173 Y107.422 E.01332
G1 X125.693 Y107.6 E.01334
G1 X125.189 Y107.684 E.01331
G1 X124.677 Y107.671 E.01334
G1 X124.178 Y107.562 E.01331
G1 X123.708 Y107.359 E.01334
G1 X123.285 Y107.072 E.01332
G1 X122.923 Y106.71 E.01334
G1 X122.637 Y106.286 E.01333
G1 X122.437 Y105.815 E.01333
G1 X122.329 Y105.315 E.01333
G1 X122.318 Y104.804 E.01332
G1 X122.403 Y104.299 E.01334
G1 X122.583 Y103.82 E.01333
G1 X122.85 Y103.384 E.01332
G1 X123.195 Y103.006 E.01333
G1 X123.605 Y102.7 E.01333
G1 X124.065 Y102.478 E.01331
G1 X124.596 Y102.357 E.01419
G1 X124.933 Y102.31 E.00887
G1 X125.443 Y102.346 E.01332
G1 X125.821 Y102.447 E.01019
M204 S1000
G1 X125.743 Y102.857 F10800
M204 S800
;TYPE:External perimeter
G1 F1238
G1 X125.792 Y102.87 E.00132
G1 X126.163 Y103.046 E.0107
G1 X126.626 Y103.41 E.01535
G1 X126.925 Y103.787 E.01254
G1 X127.12 Y104.173 E.01127
G1 X127.238 Y104.589 E.01127
G1 X127.275 Y105.02 E.01127
G1 X127.23 Y105.45 E.01127
G1 X127.045 Y105.98 E.01463
G1 X126.904 Y106.246 E.00784
G1 X126.59 Y106.621 E.01274
G1 X126.258 Y106.891 E.01115
G1 X125.881 Y107.093 E.01114
G1 X125.518 Y107.215 E.00998
G1 X125.09 Y107.272 E.01125
G1 X124.658 Y107.248 E.01127
G1 X124.113 Y107.085 E.01482
G1 X123.847 Y106.96 E.00766
G1 X123.497 Y106.706 E.01127
G1 X123.169 Y106.34 E.01281
G1 X122.971 Y106.024 E.00972
G1 X122.814 Y105.622 E.01124
G1 X122.735 Y105.196 E.01129
G1 X122.772 Y104.597 E.01564
G1 X122.814 Y104.378 E.00581
G1 X122.989 Y103.94 E.01229
G1 X123.29 Y103.512 E.01363
G1 X123.527 Y103.268 E.00886
G1 X123.881 Y103.021 E.01125
G1 X124.285 Y102.843 E.0115
G1 X124.863 Y102.731 E.01534
G1 X125.344 Y102.752 E.01254
G1 X125.685 Y102.842 E.00919
M204 S1000
;WIPE_START
G1 F8640
G1 X125.743 Y102.857 E-.01383
G1 X125.792 Y102.87 E-.01171
G1 X126.163 Y103.046 E-.09482
G1 X126.626 Y103.41 E-.13599
G1 X126.925 Y103.787 E-.1111
G1 X127.12 Y104.173 E-.09986
G1 X127.238 Y104.589 E-.09985
G1 X127.275 Y105.02 E-.09989
