; generated by PrusaSlicer 2.9.4 on 2026-03-20 at 00:01:38 UTC


;
;
; 

; external perimeters extrusion width = 0.45mm
; perimeters extrusion width = 0.45mm
; infill extrusion width = 0.45mm
; solid infill extrusion width = 0.45mm
; top infill extrusion width = 0.40mm
; first layer extrusion width = 0.50mm

M73 P0 R5
M73 Q0 S5
M201 X1000 Y1000 Z200 E5000 ; sets maximum accelerations, mm/sec^2
M203 X200 Y200 Z12 E120 ; sets maximum feedrates, mm / sec
M204 S1250 T1250 ; sets acceleration (S) and retract acceleration (R), mm/sec^2
M205 X8.00 Y8.00 Z0.40 E4.50 ; sets the jerk limits, mm/sec
M205 S0 T0 ; sets the minimum extruding and travel feed rate, mm/sec

; printing object Adapter Base Plate Spacer.stl id:0 copy 0
; stop printing object Adapter Base Plate Spacer.stl id:0 copy 0

;TYPE:Custom
M862.3 P "MK3S" ; printer model check
M862.1 P0.4 ; nozzle diameter check
M115 U3.14.1 ; tell printer latest fw version
G90 ; use absolute coordinates
M83 ; extruder relative mode
M104 S240 ; set extruder temp
M140 S90 ; set bed temp
M190 S90 ; wait for bed temp
M109 S240 ; wait for extruder temp
G28 W ; home all without mesh bed level
G80 X116.631 Y96.6297 W16.7386 H16.7405 ; mesh bed levelling

G1 Z0.2 F720
G1 Y-3 F1000 ; go outside print area
G92 E0
G1 X60 E9 F1000 ; intro line
G1 X100 E12.5 F1000 ; intro line
M73 P1 R5
M73 Q1 S5

G92 E0
M221 S95

; Don't change E values below. Excessive value can damage the printer.
M907 E430 ; set extruder motor current
G21 ; set units to millimeters
G90 ; use absolute coordinates
M83 ; use relative distances for extrusion

M900 K0.08 ; Filament gcode LA 1.5
M900 K45 ; Filament gcode LA 1.0




M107
;LAYER_CHANGE
;Z:0.2
;HEIGHT:0.2
G1 E-1 F2100
G1 Z.4 F720
G1 X118.383 Y100.258 F10800
G1 Z.2 F720
M73 P2 R5
M73 Q2 S5
G1 E1 F2100
M204 S800
;TYPE:Skirt/Brim
;WIDTH:0.5
G1 F900
G1 X119.357 Y99.132 E.05658
G1 X120.777 Y98.04 E.06808
G1 X122.114 Y97.387 E.05655
G1 X123.547 Y96.989 E.05652
G1 X125.221 Y96.861 E.06381
G1 X126.699 Y97.037 E.05657
G1 X128.119 Y97.479 E.05652
G1 X129.689 Y98.343 E.06811
G1 X130.822 Y99.307 E.05654
G1 X131.761 Y100.461 E.05654
G1 X132.548 Y101.944 E.06381
G1 X132.978 Y103.369 E.05657
G1 X133.142 Y105.152 E.06805
G1 X132.937 Y106.818 E.0638
G1 X132.474 Y108.233 E.05658
G1 X131.761 Y109.539 E.05655
G1 X130.605 Y110.907 E.06807
G1 X129.274 Y111.93 E.0638
G1 X127.941 Y112.592 E.05657
G1 X126.21 Y113.052 E.06807
G1 X124.725 Y113.137 E.05653
G1 X123.248 Y112.951 E.05658
M73 Q3 S5
G1 X121.655 Y112.422 E.0638
G1 X120.113 Y111.511 E.06807
G1 X119.01 Y110.513 E.05653
M73 P3 R5
G1 X118.106 Y109.33 E.05659
G1 X117.433 Y108.003 E.05655
G1 X117.013 Y106.576 E.05654
G1 X116.86 Y104.904 E.06381
G1 X117.018 Y103.404 E.05732
G1 X117.551 Y101.716 E.06728
G1 X118.353 Y100.31 E.06152
M204 S1000
G1 X118.747 Y100.535 F10800
M204 S800
G1 F900
G1 X118.75 Y100.531 E.00019
G1 X119.667 Y99.468 E.05336
G1 X121.021 Y98.426 E.06494
G1 X122.284 Y97.812 E.05337
G1 X123.637 Y97.437 E.05336
G1 X125.2 Y97.318 E.05958
G1 X126.595 Y97.482 E.05338
G1 X127.936 Y97.898 E.05336
G1 X129.433 Y98.722 E.06495
G1 X130.501 Y99.633 E.05335
G1 X131.386 Y100.723 E.05336
G1 X132.121 Y102.108 E.05959
G1 X132.528 Y103.452 E.05337
G1 X132.684 Y105.152 E.06488
G1 X132.494 Y106.708 E.05958
G1 X132.058 Y108.043 E.05338
G1 X131.386 Y109.277 E.0534
G1 X130.284 Y110.581 E.06489
G1 X129.042 Y111.537 E.05957
G1 X127.784 Y112.163 E.0534
G1 X126.134 Y112.601 E.06488
G1 X124.732 Y112.68 E.05337
M73 Q4 S5
G1 X123.338 Y112.503 E.05341
G1 X121.851 Y112.009 E.05955
G1 X120.38 Y111.14 E.06493
M73 P4 R5
G1 X119.34 Y110.197 E.05336
G1 X118.489 Y109.08 E.05337
G1 X117.855 Y107.827 E.05337
G1 X117.46 Y106.479 E.05339
G1 X117.317 Y104.918 E.05958
G1 X117.464 Y103.5 E.05418
G1 X117.973 Y101.892 E.0641
G1 X118.718 Y100.587 E.05711
M204 S1000
G1 X119.112 Y100.812 F10800
M204 S800
G1 F900
G1 X119.116 Y100.804 E.00034
G1 X119.978 Y99.803 E.05021
G1 X121.265 Y98.812 E.06173
G1 X122.454 Y98.236 E.05021
G1 X123.727 Y97.885 E.05019
G1 X125.179 Y97.774 E.05535
G1 X126.491 Y97.927 E.0502
G1 X127.754 Y98.317 E.05024
G1 X129.176 Y99.1 E.0617
G1 X130.18 Y99.958 E.05019
G1 X131.011 Y100.985 E.05021
G1 X131.694 Y102.271 E.05534
G1 X132.079 Y103.535 E.05022
G1 X132.227 Y105.152 E.06171
G1 X132.05 Y106.598 E.05537
G1 X131.642 Y107.854 E.05019
G1 X131.011 Y109.015 E.05022
G1 X129.963 Y110.256 E.06173
G1 X128.809 Y111.143 E.05532
G1 X127.627 Y111.734 E.05023
G1 X126.057 Y112.15 E.06173
G1 X124.739 Y112.223 E.05017
G1 X123.428 Y112.055 E.05023
M73 Q5 S5
G1 X122.046 Y111.596 E.05535
G1 X120.648 Y110.77 E.06171
G1 X119.671 Y109.881 E.0502
M73 P5 R5
G1 X118.871 Y108.83 E.0502
G1 X118.277 Y107.65 E.05021
G1 X117.907 Y106.382 E.0502
G1 X117.774 Y104.932 E.05534
G1 X117.911 Y103.597 E.051
G1 X118.394 Y102.069 E.06091
G1 X119.082 Y100.864 E.05274
M204 S1000
;WIPE_START
G1 F8640
G1 X119.112 Y100.812 E-.01386
G1 X119.116 Y100.804 E-.00207
G1 X119.978 Y99.803 E-.30502
G1 X121.265 Y98.812 E-.37506
G1 X122.45 Y98.238 E-.30399
;WIPE_END
G1 Z.4 F720
; printing object Adapter Base Plate Spacer.stl id:0 copy 0
G1 X125.012 Y109.226 F10800
G1 Z.2 F720
G1 E1 F2100
M204 S800
;TYPE:Perimeter
;WIDTH:0.499999
G1 F900
G1 X124.797 Y109.236 E.00818
G1 X124.293 Y109.182 E.01926
G1 X123.79 Y109.065 E.01963
G1 X123.304 Y108.887 E.01967
G1 X122.843 Y108.652 E.01967
G1 X122.423 Y108.368 E.01927
G1 X121.84 Y107.827 E.03023
G1 X121.524 Y107.43 E.01928
G1 X121.255 Y106.989 E.01963
G1 X121.041 Y106.518 E.01966
G1 X120.888 Y106.034 E.01929
G1 X120.767 Y105.248 E.03022
G1 X120.767 Y104.741 E.01927
G1 X120.829 Y104.238 E.01926
G1 X121.045 Y103.472 E.03025
G1 X121.255 Y103.011 E.01925
G1 X121.519 Y102.579 E.01924
G1 X122.033 Y101.971 E.03026
G1 X122.414 Y101.638 E.01923
G1 X122.843 Y101.348 E.01968
G1 X123.304 Y101.113 E.01967
G1 X123.789 Y100.935 E.01964
G1 X124.293 Y100.818 E.01966
G1 X124.797 Y100.764 E.01926
G1 X125.592 Y100.8 E.03025
G1 X126.089 Y100.9 E.01927
G1 X126.58 Y101.063 E.01966
G1 X127.047 Y101.284 E.01964
G1 X127.475 Y101.555 E.01925
G1 X128.075 Y102.078 E.03025
G1 X128.402 Y102.465 E.01926
G1 X128.68 Y102.889 E.01927
G1 X129.005 Y103.604 E.02985
G1 X129.098 Y103.98 E.01472
G1 X129.24 Y104.861 E.03392
G1 X129.192 Y105.644 E.02981
G1 X129.002 Y106.406 E.02985
G1 X128.807 Y106.874 E.01927
G1 X128.55 Y107.323 E.01966
G1 X128.241 Y107.737 E.01963
G1 X127.891 Y108.104 E.01927
G1 X127.268 Y108.583 E.02987
G1 X126.569 Y108.94 E.02983
G1 X126.089 Y109.1 E.01923
G1 X125.592 Y109.2 E.01927
M73 Q6 S5
G1 X125.072 Y109.223 E.01978
M204 S1000
G1 X125.005 Y109.684 F10800
M204 S800
;TYPE:External perimeter
G1 F900
G1 X124.783 Y109.694 E.00845
G1 X124.216 Y109.634 E.02167
G1 X123.659 Y109.504 E.02174
G1 X123.12 Y109.307 E.02181
G1 X122.61 Y109.046 E.02177
M73 P6 R5
G1 X122.138 Y108.727 E.02165
G1 X121.503 Y108.138 E.03292
G1 X121.149 Y107.692 E.02164
G1 X120.85 Y107.204 E.02175
G1 X120.613 Y106.682 E.02179
G1 X120.442 Y106.138 E.02167
G1 X120.31 Y105.283 E.03288
G1 X120.31 Y104.713 E.02166
G1 X120.38 Y104.148 E.02164
G1 X120.614 Y103.315 E.03288
G1 X120.85 Y102.797 E.02163
G1 X121.148 Y102.31 E.0217
G1 X121.706 Y101.649 E.03288
G1 X122.135 Y101.275 E.02163
G1 X122.61 Y100.954 E.02179
G1 X123.121 Y100.693 E.02181
G1 X123.658 Y100.496 E.02174
G1 X124.216 Y100.366 E.02178
G1 X124.783 Y100.306 E.02167
G1 X125.648 Y100.345 E.03291
G1 X126.206 Y100.458 E.02164
G1 X126.75 Y100.638 E.02178
G1 X127.267 Y100.883 E.02174
G1 X127.749 Y101.188 E.02168
G1 X128.402 Y101.756 E.03289
G1 X128.769 Y102.192 E.02166
G1 X129.081 Y102.668 E.02163
G1 X129.438 Y103.453 E.03278
G1 X129.578 Y104.015 E.02201
G1 X129.698 Y104.854 E.03221
G1 X129.646 Y105.714 E.03275
G1 X129.437 Y106.551 E.03279
G1 X129.217 Y107.076 E.02163
G1 X128.933 Y107.574 E.02179
G1 X128.591 Y108.033 E.02175
G1 X128.197 Y108.445 E.02167
G1 X127.514 Y108.971 E.03276
G1 X126.746 Y109.363 E.03277
G1 X126.206 Y109.542 E.02162
G1 X125.647 Y109.655 E.02168
G1 X125.065 Y109.681 E.02214
M204 S1000
;WIPE_START
G1 F8640
G1 X125.005 Y109.684 E-.01387
G1 X124.783 Y109.694 E-.05131
G1 X124.216 Y109.634 E-.13165
G1 X123.659 Y109.504 E-.13207
G1 X123.12 Y109.307 E-.13251
G1 X122.61 Y109.046 E-.13229
G1 X122.138 Y108.727 E-.13154
G1 X121.503 Y108.138 E-.19999
G1 X121.302 Y107.884 E-.07477
;WIPE_END
G1 Z.4 F720
G1 X126.801 Y101.37 F10800
G1 Z.2 F720
G1 E1 F2100
M204 S800
;TYPE:Solid infill
;WIDTH:0.522517
G1 F900
G1 X127.879 Y102.449 E.06082
G1 X128.09 Y102.698 E.01302
G1 X128.338 Y103.077 E.01806
G1 X128.636 Y103.733 E.02873
G1 X128.687 Y103.934 E.00827
G1 X126.049 Y101.296 E.14878
G1 X125.544 Y101.187 E.0206
M73 P6 R4
G1 X125.248 Y101.174 E.01182
G1 X128.841 Y104.767 E.20263
G1 X128.85 Y104.866 E.00396
M73 Q7 S5
G1 X128.816 Y105.42 E.02213
G1 X124.575 Y101.179 E.23918
G1 X124.358 Y101.202 E.0087
M73 P7 R4
G1 X124.002 Y101.285 E.01458
G1 X128.706 Y105.988 E.26526
G1 X128.632 Y106.284 E.01217
G1 X128.541 Y106.502 E.00942
G1 X123.496 Y101.456 E.28455
G1 X123.044 Y101.682 E.02015
M73 Q7 S4
G1 X128.314 Y106.953 E.29724
G1 X128.224 Y107.11 E.00722
G1 X128.04 Y107.357 E.01228
G1 X122.64 Y101.957 E.30454
G1 X122.282 Y102.278 E.01918
G1 X127.723 Y107.718 E.30683
G1 X127.631 Y107.814 E.0053
M73 Q8 S4
G1 X127.354 Y108.027 E.01393
G1 X121.972 Y102.645 E.30353
G1 X121.835 Y102.807 E.00846
M73 P8 R4
G1 X121.691 Y103.043 E.01102
G1 X126.955 Y108.307 E.29687
G1 X126.506 Y108.536 E.0201
G1 X121.463 Y103.493 E.28441
G1 X121.411 Y103.606 E.00496
G1 X121.298 Y104.006 E.01658
G1 X126.009 Y108.717 E.26569
G1 X125.544 Y108.813 E.01893
G1 X125.432 Y108.818 E.00447
G1 X121.18 Y104.567 E.23977
G1 X121.156 Y104.765 E.00795
G1 X121.156 Y105.221 E.01818
G1 X124.779 Y108.843 E.2043
G1 X124.358 Y108.798 E.01688
G1 X123.963 Y108.706 E.01617
G1 X121.298 Y106.041 E.1503
G1 X121.404 Y106.379 E.01413
M73 Q9 S4
G1 X121.599 Y106.807 E.01876
G1 X121.843 Y107.207 E.01869
G1 X122.067 Y107.488 E.01433
G1 X123.215 Y108.637 E.06477
M204 S1000
;LAYER_CHANGE
;Z:0.35
;HEIGHT:0.15
;BEFORE_LAYER_CHANGE
G92 E0.0
;0.35


;WIPE_START
G1 F8640
M73 P9 R4
G1 X122.067 Y107.488 E-.37504
G1 X121.843 Y107.207 E-.08298
G1 X121.599 Y106.807 E-.10819
G1 X121.404 Y106.379 E-.1086
G1 X121.298 Y106.041 E-.08179
G1 X122.043 Y106.787 E-.2434
;WIPE_END
G1 Z.35 F720
;AFTER_LAYER_CHANGE
;0.35
M104 S230 ; set temperature
M140 S85 ; set bed temperature
; stop printing object Adapter Base Plate Spacer.stl id:0 copy 0
G1 Z.55
G1 X121.153 Y112.126 F10800
G1 Z.35 F720
G1 E1 F2100
;TYPE:Skirt/Brim
;WIDTH:0.5
G1 F1239
G1 X120.113 Y111.511 E.03525
G1 X119.01 Y110.513 E.0434
G1 X118.106 Y109.33 E.04344
G1 X117.433 Y108.003 E.04341
G1 X117.013 Y106.576 E.0434
G1 X116.86 Y104.904 E.04898
G1 X117.018 Y103.404 E.044
G1 X117.551 Y101.716 E.05164
G1 X118.383 Y100.258 E.04897
G1 X119.357 Y99.132 E.04343
G1 X120.777 Y98.04 E.05226
G1 X122.114 Y97.387 E.04341
G1 X123.547 Y96.989 E.04339
G1 X125.221 Y96.861 E.04898
G1 X126.699 Y97.037 E.04342
G1 X128.119 Y97.479 E.04339
G1 X129.689 Y98.343 E.05228
G1 X130.822 Y99.307 E.0434
G1 X131.761 Y100.461 E.0434
G1 X132.548 Y101.944 E.04898
G1 X132.978 Y103.369 E.04342
G1 X133.142 Y105.152 E.05224
G1 X132.937 Y106.818 E.04897
G1 X132.474 Y108.233 E.04343
G1 X131.761 Y109.539 E.04341
G1 X130.605 Y110.907 E.05225
G1 X129.274 Y111.93 E.04897
G1 X127.941 Y112.592 E.04342
G1 X126.21 Y113.052 E.05225
G1 X124.725 Y113.137 E.04339
G1 X123.248 Y112.951 E.04343
G1 X121.655 Y112.422 E.04897
G1 X121.205 Y112.156 E.01525
G1 X121.436 Y111.764 F10800
G1 F1239
G1 X120.38 Y111.14 E.03578
G1 X119.34 Y110.197 E.04096
M73 Q10 S4
G1 X118.489 Y109.08 E.04097
G1 X117.855 Y107.827 E.04097
G1 X117.46 Y106.479 E.04098
M73 P10 R4
G1 X117.317 Y104.918 E.04573
G1 X117.464 Y103.5 E.04159
G1 X117.973 Y101.892 E.04921
G1 X118.75 Y100.531 E.04572
G1 X119.667 Y99.468 E.04096
G1 X121.021 Y98.426 E.04984
G1 X122.284 Y97.812 E.04097
G1 X123.637 Y97.437 E.04096
G1 X125.2 Y97.318 E.04573
G1 X126.595 Y97.482 E.04098
G1 X127.936 Y97.898 E.04096
G1 X129.433 Y98.722 E.04985
G1 X130.501 Y99.633 E.04095
G1 X131.386 Y100.723 E.04096
G1 X132.121 Y102.108 E.04574
G1 X132.528 Y103.452 E.04097
G1 X132.684 Y105.152 E.0498
G1 X132.494 Y106.708 E.04573
G1 X132.058 Y108.043 E.04097
G1 X131.386 Y109.277 E.04099
G1 X130.284 Y110.581 E.04981
G1 X129.042 Y111.537 E.04572
G1 X127.784 Y112.163 E.04099
G1 X126.134 Y112.601 E.0498
G1 X124.732 Y112.68 E.04097
G1 X123.338 Y112.503 E.04099
G1 X121.851 Y112.009 E.04571
G1 X121.488 Y111.795 E.01229
G1 X121.72 Y111.403 F10800
G1 F1239
G1 X120.648 Y110.77 E.03632
G1 X119.671 Y109.881 E.03854
G1 X118.871 Y108.83 E.03853
G1 X118.277 Y107.65 E.03854
G1 X117.907 Y106.382 E.03854
G1 X117.774 Y104.932 E.04248
G1 X117.911 Y103.597 E.03915
G1 X118.394 Y102.069 E.04675
G1 X119.116 Y100.804 E.04249
G1 X119.978 Y99.803 E.03854
G1 X121.265 Y98.812 E.04739
G1 X122.454 Y98.236 E.03854
G1 X123.727 Y97.885 E.03852
G1 X125.179 Y97.774 E.04248
G1 X126.491 Y97.927 E.03854
M73 Q11 S4
G1 X127.754 Y98.317 E.03856
G1 X129.176 Y99.1 E.04736
M73 P11 R4
G1 X130.18 Y99.958 E.03853
G1 X131.011 Y100.985 E.03854
G1 X131.694 Y102.271 E.04248
G1 X132.079 Y103.535 E.03855
G1 X132.227 Y105.152 E.04737
G1 X132.05 Y106.598 E.0425
G1 X131.642 Y107.854 E.03853
G1 X131.011 Y109.015 E.03855
G1 X129.963 Y110.256 E.04739
G1 X128.809 Y111.143 E.04246
G1 X127.627 Y111.734 E.03855
G1 X126.057 Y112.15 E.04738
G1 X124.739 Y112.223 E.03851
G1 X123.428 Y112.055 E.03856
G1 X122.046 Y111.596 E.04248
G1 X121.771 Y111.434 E.00931
;WIPE_START
G1 F8640
G1 X121.72 Y111.403 E-.01378
G1 X120.648 Y110.77 E-.28746
G1 X119.671 Y109.881 E-.30501
G1 X118.871 Y108.83 E-.30498
G1 X118.698 Y108.487 E-.08877
;WIPE_END
G1 Z.55 F720
; printing object Adapter Base Plate Spacer.stl id:0 copy 0
G1 X125.001 Y107.679 F10800
G1 Z.35 F720
G1 E1 F2100
M204 S800
;TYPE:Perimeter
;WIDTH:0.449999
G1 F1239
G1 X124.677 Y107.671 E.00844
G1 X124.178 Y107.562 E.01331
G1 X123.708 Y107.36 E.01333
G1 X123.118 Y106.919 E.01919
G1 X122.783 Y106.52 E.01357
G1 X122.537 Y106.076 E.01323
G1 X122.371 Y105.568 E.01393
G1 X122.311 Y105.06 E.01333
G1 X122.348 Y104.549 E.01335
G1 X122.482 Y104.056 E.01331
G1 X122.706 Y103.596 E.01333
G1 X123.013 Y103.187 E.01332
G1 X123.392 Y102.843 E.01334
G1 X123.829 Y102.578 E.01332
G1 X124.309 Y102.4 E.01334
G1 X124.814 Y102.316 E.01334
G1 X125.325 Y102.329 E.01332
G1 X125.825 Y102.438 E.01333
G1 X126.288 Y102.637 E.01313
G1 X126.883 Y103.081 E.01934
G1 X127.232 Y103.496 E.01413
G1 X127.476 Y103.945 E.01331
G1 X127.631 Y104.432 E.01332
G1 X127.691 Y104.94 E.01333
G1 X127.654 Y105.451 E.01335
G1 X127.521 Y105.944 E.0133
G1 X127.296 Y106.404 E.01334
G1 X126.989 Y106.813 E.01332
G1 X126.61 Y107.157 E.01334
G1 X126.173 Y107.422 E.01332
G1 X125.693 Y107.6 E.01334
G1 X125.189 Y107.684 E.01331
G1 X125.061 Y107.681 E.00334
M204 S1000
G1 X125.001 Y107.268 F10800
M204 S800
;TYPE:External perimeter
G1 F1239
G1 X124.658 Y107.248 E.00895
G1 X124.113 Y107.085 E.01482
G1 X123.839 Y106.954 E.00791
G1 X123.377 Y106.59 E.01533
G1 X123.077 Y106.213 E.01255
G1 X122.897 Y105.864 E.01023
G1 X122.764 Y105.411 E.0123
G1 X122.734 Y104.904 E.01323
G1 X122.772 Y104.55 E.00928
G1 X122.908 Y104.116 E.01185
G1 X123.099 Y103.754 E.01066
G1 X123.493 Y103.309 E.01549
G1 X123.857 Y103.045 E.01172
G1 X124.075 Y102.923 E.00651
G1 X124.592 Y102.77 E.01405
G1 X124.913 Y102.728 E.00844
G1 X125.344 Y102.752 E.01125
G1 X125.793 Y102.871 E.0121
G1 X126.157 Y103.043 E.01049
G1 X126.625 Y103.41 E.0155
G1 X126.925 Y103.787 E.01255
G1 X127.12 Y104.173 E.01127
G1 X127.238 Y104.589 E.01127
G1 X127.275 Y105.02 E.01127
G1 X127.23 Y105.45 E.01127
G1 X127.055 Y105.961 E.01407
G1 X126.838 Y106.329 E.01113
G1 X126.573 Y106.636 E.01057
G1 X126.258 Y106.891 E.01056
G1 X125.881 Y107.093 E.01114
G1 X125.518 Y107.215 E.00998
G1 X125.09 Y107.272 E.01125
M73 Q12 S4
G1 X125.061 Y107.271 E.00076
M204 S1000
;WIPE_START
G1 F8640
G1 X125.001 Y107.268 E-.01387
G1 X124.658 Y107.248 E-.07933
G1 X124.113 Y107.085 E-.13135
G1 X123.839 Y106.954 E-.07013
G1 X123.377 Y106.59 E-.13581
G1 X123.077 Y106.213 E-.11125
G1 X122.897 Y105.864 E-.09067
G1 X122.764 Y105.411 E-.10901
G1 X122.734 Y104.904 E-.11727
G1 X122.772 Y104.55 E-.08221
