; generated by PrusaSlicer 2.9.4 on 2026-03-20 at 00:04:44 UTC


;
;
; 

; external perimeters extrusion width = 0.45mm
; perimeters extrusion width = 0.45mm
; infill extrusion width = 0.45mm
; solid infill extrusion width = 0.45mm
; top infill extrusion width = 0.40mm
; first layer extrusion width = 0.50mm

M73 P0 R20
M73 Q0 S20
M201 X1000 Y1000 Z200 E5000 ; sets maximum accelerations, mm/sec^2
M203 X200 Y200 Z12 E120 ; sets maximum feedrates, mm / sec
M204 S1250 T1250 ; sets acceleration (S) and retract acceleration (R), mm/sec^2
M205 X8.00 Y8.00 Z0.40 E4.50 ; sets the jerk limits, mm/sec
M205 S0 T0 ; sets the minimum extruding and travel feed rate, mm/sec

; printing object Button Set.stl id:0 copy 0
; stop printing object Button Set.stl id:0 copy 0

;TYPE:Custom
M862.3 P "MK3S" ; printer model check
M862.1 P0.4 ; nozzle diameter check
M115 U3.14.1 ; tell printer latest fw version
G90 ; use absolute coordinates
M83 ; extruder relative mode
M104 S240 ; set extruder temp
M140 S90 ; set bed temp
M190 S90 ; wait for bed temp
M109 S240 ; wait for extruder temp
G28 W ; home all without mesh bed level
G80 X85.2769 Y75.3654 W79.4442 H59.2683 ; mesh bed levelling

G1 Z0.2 F720
G1 Y-3 F1000 ; go outside print area
G92 E0
G1 X60 E9 F1000 ; intro line
G1 X100 E12.5 F1000 ; intro line

G92 E0
M221 S95

; Don't change E values below. Excessive value can damage the printer.
M907 E430 ; set extruder motor current
G21 ; set units to millimeters
G90 ; use absolute coordinates
M83 ; use relative distances for extrusion

M900 K0.08 ; Filament gcode LA 1.5
M900 K45 ; Filament gcode LA 1.0




M107
;LAYER_CHANGE
;Z:0.2
;HEIGHT:0.2
G1 E-1 F2100
G1 Z.4 F720
G1 X102.924 Y81.467 F10800
G1 Z.2 F720
G1 E1 F2100
M204 S800
;TYPE:Skirt/Brim
;WIDTH:0.5
G1 F900
G1 X103.874 Y80.417 E.05382
G1 X105.061 Y79.33 E.06117
G1 X106.189 Y78.475 E.05379
G1 X107.219 Y77.819 E.04641
G1 X108.471 Y77.157 E.05383
G1 X109.958 Y76.541 E.06117
G1 X111.123 Y76.174 E.04642
G1 X112.503 Y75.859 E.0538
G1 X114.099 Y75.649 E.06118
G1 X115.417 Y75.594 E.05014
G1 X147.278 Y75.597 E1.21092
G1 X148.638 Y75.674 E.05177
G1 X149.984 Y75.885 E.05178
G1 X151.094 Y76.163 E.04349
G1 X152.38 Y76.612 E.05177
G1 X153.616 Y77.185 E.05178
G1 X154.79 Y77.876 E.05177
G1 X155.89 Y78.679 E.05176
G1 X156.906 Y79.586 E.05176
G1 X157.967 Y80.758 E.06008
G1 X158.648 Y81.677 E.04347
G1 X159.357 Y82.839 E.05174
G1 X163.668 Y90.493 E.33387
G1 X164.044 Y91.279 E.03312
G1 X164.326 Y92.186 E.0361
G1 X164.491 Y93.509 E.05067
G1 X164.483 Y128.296 E1.32213
G1 X164.248 Y129.674 E.05313
M73 P1 R20
M73 Q1 S20
G1 X164.019 Y130.366 E.0277
G1 X163.61 Y131.2 E.0353
G1 X162.713 Y132.384 E.05646
G1 X162.149 Y132.92 E.02957
G1 X161.443 Y133.43 E.0331
G1 X160.449 Y133.937 E.04241
G1 X159.434 Y134.254 E.04041
G1 X158.381 Y134.4 E.0404
G1 X157.066 Y134.335 E.05004
G1 X97.491 Y121.987 E2.31235
G1 X96.159 Y121.589 E.05284
G1 X88.867 Y118.374 E.30288
G1 X87.613 Y117.473 E.05869
G1 X87.066 Y116.916 E.02967
G1 X86.547 Y116.223 E.03291
G1 X85.87 Y114.835 E.05869
G1 X85.652 Y114.087 E.02961
G1 X85.516 Y113.161 E.03557
G1 X85.521 Y112.165 E.03785
G1 X85.667 Y111.242 E.03552
G1 X86.174 Y109.822 E.05731
G1 X102.069 Y82.595 E1.19823
M73 P1 R19
G1 X102.888 Y81.515 E.05151
M204 S1000
;WIPE_START
G1 F8640
G1 X102.924 Y81.467 E-.01385
G1 X103.874 Y80.417 E-.32695
G1 X105.061 Y79.33 E-.37164
G1 X106.054 Y78.578 E-.28756
;WIPE_END
G1 Z.4 F720
; printing object Button Set.stl id:0 copy 0
G1 X130.118 Y118.722 F10800
G1 Z.2 F720
G1 E1 F2100
M204 S800
;TYPE:External perimeter
;WIDTH:0.499999
G1 F900
G1 X113.992 Y118.722 E.61289
G1 X113.81 Y118.631 E.00773
G1 X113.764 Y118.494 E.00549
G1 X113.764 Y116.431 E.07841
G1 X113.714 Y115.573 E.03266
M73 P2 R19
M73 Q2 S20
G1 X113.568 Y114.735 E.03233
G1 X113.326 Y113.919 E.03235
G1 X112.992 Y113.136 E.03235
G1 X112.722 Y112.664 E.02067
G1 X112.19 Y111.881 E.03598
G1 X111.539 Y111.146 E.03732
G1 X110.86 Y110.555 E.03421
G1 X110.155 Y110.079 E.03233
G1 X109.4 Y109.687 E.03233
G1 X108.931 Y109.507 E.01909
G1 X108.084 Y109.251 E.03363
G1 X107.723 Y109.164 E.01411
G1 X106.908 Y109.058 E.03124
G1 X106.057 Y109.046 E.03235
G1 X105.177 Y109.136 E.03362
G1 X104.538 Y108.918 E.02566
G1 X103.864 Y108.783 E.02613
G1 X102.847 Y108.737 E.03869
G1 X102.717 Y108.565 E.00819
G1 X102.717 Y91.815 E.63661
G1 X102.771 Y90.651 E.04429
G1 X102.917 Y89.6 E.04033
G1 X103.16 Y88.522 E.042
G1 X103.495 Y87.47 E.04196
G1 X103.92 Y86.45 E.042
G1 X104.432 Y85.472 E.04196
G1 X105.027 Y84.541 E.04199
G1 X105.7 Y83.665 E.04198
G1 X106.024 Y83.274 E.0193
G1 X106.853 Y82.444 E.04458
G1 X107.755 Y81.694 E.04458
G1 X108.722 Y81.03 E.04458
G1 X109.747 Y80.459 E.04459
G1 X110.819 Y79.984 E.04456
G1 X111.931 Y79.61 E.04459
G1 X113.083 Y79.338 E.04499
G1 X114.245 Y79.176 E.04459
G1 X115.41 Y79.122 E.04432
G1 X134.088 Y79.122 E.70988
G1 X134.271 Y79.214 E.00778
G1 X134.317 Y79.351 E.00549
G1 X134.317 Y89.624 E.39044
G1 X134.217 Y89.813 E.00813
G1 X133.511 Y90.091 E.02884
G1 X132.952 Y90.418 E.02461
G1 X132.454 Y90.831 E.02459
G1 X132.03 Y91.32 E.0246
G1 X131.692 Y91.872 E.0246
G1 X131.449 Y92.472 E.0246
G1 X131.306 Y93.103 E.02459
G1 X131.269 Y93.749 E.02459
G1 X131.338 Y94.393 E.02462
G1 X131.511 Y95.017 E.02461
G1 X131.784 Y95.604 E.0246
G1 X132.149 Y96.138 E.02458
G1 X132.596 Y96.606 E.0246
G1 X133.114 Y96.995 E.02462
G1 X133.688 Y97.293 E.02458
G1 X134.302 Y97.494 E.02455
G1 X135.007 Y97.592 E.02705
G1 X135.59 Y97.584 E.02216
G1 X136.227 Y97.47 E.02459
G1 X136.836 Y97.254 E.02456
G1 X137.455 Y96.901 E.02708
G1 X137.912 Y96.539 E.02216
G1 X138.347 Y96.06 E.02459
G1 X138.697 Y95.518 E.02452
G1 X138.972 Y94.86 E.0271
G1 X139.113 Y94.295 E.02213
G1 X139.166 Y93.649 E.02463
G1 X139.112 Y93.004 E.0246
G1 X138.954 Y92.377 E.02457
G1 X138.695 Y91.783 E.02463
G1 X138.343 Y91.24 E.02459
G1 X137.951 Y90.809 E.02214
G1 X137.397 Y90.36 E.0271
G1 X136.832 Y90.049 E.02451
G1 X136.221 Y89.833 E.02463
G1 X135.505 Y89.706 E.02764
G1 X135.397 Y89.655 E.00454
G1 X135.317 Y89.481 E.00728
G1 X135.317 Y79.351 E.385
G1 X135.362 Y79.214 E.00548
G1 X135.545 Y79.122 E.00778
G1 X145.641 Y79.122 E.38371
G1 X145.823 Y79.214 E.00775
G1 X145.869 Y79.351 E.00549
G1 X145.869 Y89.585 E.38896
G1 X145.816 Y89.731 E.0059
G1 X145.71 Y89.802 E.00485
G1 X145.031 Y90.036 E.0273
G1 X144.462 Y90.343 E.02457
G1 X143.95 Y90.74 E.02462
G1 X143.51 Y91.215 E.02461
G1 X143.153 Y91.755 E.0246
G1 X142.89 Y92.346 E.02459
G1 X142.727 Y92.973 E.02462
G1 X142.668 Y93.618 E.02462
G1 X142.715 Y94.263 E.02458
G1 X142.868 Y94.893 E.02464
G1 X143.121 Y95.488 E.02457
G1 X143.468 Y96.035 E.02462
G1 X143.856 Y96.47 E.02215
G1 X144.405 Y96.924 E.02708
G1 X144.968 Y97.241 E.02456
G1 X145.576 Y97.462 E.02459
G1 X146.213 Y97.581 E.02463
G1 X146.86 Y97.594 E.0246
G1 X147.501 Y97.501 E.02462
G1 X148.057 Y97.326 E.02215
G1 X148.695 Y97.01 E.02706
G1 X149.215 Y96.626 E.02457
G1 X149.666 Y96.162 E.02459
G1 X150.035 Y95.63 E.02461
G1 X150.312 Y95.045 E.0246
G1 X150.49 Y94.422 E.02463
G1 X150.558 Y93.843 E.02216
G1 X150.531 Y93.131 E.02708
G1 X150.394 Y92.5 E.02454
G1 X150.155 Y91.898 E.02462
G1 X149.82 Y91.344 E.02461
G1 X149.4 Y90.852 E.02459
G1 X148.905 Y90.434 E.02462
G1 X148.405 Y90.134 E.02216
G1 X147.744 Y89.868 E.02708
G1 X147.05 Y89.721 E.02696
G1 X146.941 Y89.664 E.00467
G1 X146.869 Y89.497 E.00691
G1 X146.869 Y79.347 E.38576
G1 X146.914 Y79.211 E.00544
G1 X147.123 Y79.12 E.00866
G1 X148.239 Y79.178 E.04247
G1 X149.207 Y79.33 E.03724
G1 X150.188 Y79.581 E.03849
G1 X151.14 Y79.925 E.03847
G1 X152.053 Y80.36 E.03844
G1 X153.264 Y81.108 E.0541
G1 X154.088 Y81.775 E.04029
G1 X154.855 Y82.54 E.04117
G1 X155.537 Y83.382 E.04118
G1 X156.128 Y84.29 E.04118
G1 X156.621 Y85.256 E.04122
G1 X157.01 Y86.267 E.04117
M73 P3 R19
G1 X157.291 Y87.314 E.0412
G1 X157.463 Y88.396 E.04164
G1 X157.522 Y89.52 E.04278
M73 Q3 S20
G1 X157.462 Y89.686 E.00671
G1 X157.355 Y89.752 E.00478
G1 X156.645 Y89.95 E.02801
G1 X156.072 Y90.216 E.02401
G1 X155.549 Y90.571 E.02402
G1 X155.088 Y91.005 E.02406
G1 X154.738 Y91.452 E.02158
G1 X154.429 Y92.005 E.02408
G1 X154.212 Y92.598 E.024
G1 X154.092 Y93.219 E.02404
G1 X154.073 Y93.851 E.02403
G1 X154.155 Y94.477 E.024
G1 X154.336 Y95.083 E.02404
G1 X154.612 Y95.652 E.02404
G1 X154.974 Y96.17 E.02402
G1 X155.415 Y96.623 E.02403
G1 X155.922 Y97 E.02401
G1 X156.483 Y97.292 E.02404
G1 X157.16 Y97.515 E.02709
G1 X157.263 Y97.584 E.00471
G1 X157.317 Y97.803 E.00857
G1 X157.317 Y118.494 E.78639
G1 X157.225 Y118.677 E.00778
G1 X157.088 Y118.722 E.00548
G1 X146.795 Y118.722 E.3912
G1 X146.612 Y118.631 E.00777
M73 Q3 S19
G1 X146.567 Y118.494 E.00548
G1 X146.567 Y106.809 E.4441
G1 X146.655 Y106.629 E.00761
G1 X146.802 Y106.577 E.00593
G1 X147.494 Y106.477 E.02657
G1 X148.107 Y106.283 E.02444
G1 X148.679 Y105.991 E.02441
G1 X149.197 Y105.609 E.02446
G1 X149.645 Y105.148 E.02443
G1 X150.012 Y104.62 E.02444
G1 X150.262 Y104.098 E.022
G1 X150.465 Y103.42 E.0269
G1 X150.538 Y102.783 E.02437
G1 X150.507 Y102.141 E.02443
G1 X150.371 Y101.513 E.02442
G1 X150.135 Y100.915 E.02443
G1 X149.804 Y100.364 E.02443
G1 X149.388 Y99.875 E.0244
G1 X148.897 Y99.46 E.02443
G1 X148.345 Y99.13 E.02444
G1 X147.746 Y98.895 E.02446
G1 X147.181 Y98.772 E.02198
G1 X146.475 Y98.732 E.02688
G1 X145.838 Y98.807 E.02438
G1 X145.22 Y98.986 E.02445
G1 X144.697 Y99.232 E.02197
G1 X144.113 Y99.632 E.0269
G1 X143.654 Y100.08 E.02438
G1 X143.274 Y100.598 E.02442
G1 X142.984 Y101.172 E.02444
G1 X142.79 Y101.785 E.02444
G1 X142.706 Y102.357 E.02197
G1 X142.715 Y103.065 E.02691
G1 X142.835 Y103.695 E.02437
G1 X143.056 Y104.298 E.02441
G1 X143.372 Y104.858 E.02444
G1 X143.776 Y105.358 E.02443
G1 X144.255 Y105.785 E.02439
G1 X144.799 Y106.129 E.02446
G1 X145.431 Y106.399 E.02612
G1 X145.522 Y106.472 E.00443
G1 X145.567 Y106.608 E.00544
G1 X145.567 Y118.494 E.45174
G1 X145.521 Y118.631 E.00549
G1 X145.338 Y118.722 E.00777
G1 X130.178 Y118.722 E.57618
M204 S1000
;WIPE_START
G1 F8640
G1 X130.118 Y118.722 E-.01385
G1 X125.847 Y118.722 E-.98615
;WIPE_END
G1 Z.4 F720
G1 X146.081 Y106.608 F10800
G1 Z.2 F720
G1 E1 F2100
M204 S800
;TYPE:Perimeter
;WIDTH:0.613636
G1 F900
G1 X146.017 Y106.472 E.00713
;WIDTH:0.575757
G1 X145.954 Y106.337 E.0066
;WIDTH:0.537878
G1 X145.891 Y106.202 E.00613
;WIDTH:0.499999
G1 X145.75 Y106.059 E.00763
G1 X145.607 Y105.977 E.00627
G1 X145.012 Y105.723 E.02459
G1 X144.532 Y105.419 E.02159
G1 X144.108 Y105.042 E.02156
G1 X143.751 Y104.6 E.02159
G1 X143.472 Y104.106 E.02156
G1 X143.277 Y103.573 E.02157
G1 X143.172 Y103.019 E.02143
G1 X143.163 Y102.388 E.02398
G1 X143.237 Y101.888 E.01921
G1 X143.408 Y101.345 E.02164
G1 X143.665 Y100.838 E.0216
G1 X144.001 Y100.381 E.02156
G1 X144.404 Y99.987 E.02142
G1 X144.925 Y99.63 E.024
G1 X145.382 Y99.415 E.0192
G1 X145.929 Y99.256 E.02165
G1 X146.489 Y99.19 E.02143
G1 X147.119 Y99.226 E.02398
G1 X147.613 Y99.334 E.01922
G1 X148.143 Y99.542 E.02164
G1 X148.631 Y99.833 E.02159
G1 X149.064 Y100.199 E.02155
G1 X149.432 Y100.632 E.0216
G1 X149.724 Y101.118 E.02155
G1 X149.933 Y101.646 E.02158
G1 X150.052 Y102.201 E.02157
G1 X150.08 Y102.768 E.02158
G1 X150.015 Y103.328 E.02143
G1 X149.834 Y103.933 E.024
G1 X149.615 Y104.389 E.01923
G1 X149.291 Y104.857 E.02163
G1 X148.895 Y105.264 E.02158
G1 X148.438 Y105.6 E.02156
G1 X147.932 Y105.858 E.02159
G1 X147.391 Y106.03 E.02158
G1 X146.697 Y106.13 E.02665
G1 X146.373 Y106.268 E.01338
;WIDTH:0.537878
G1 X146.276 Y106.381 E.00613
;WIDTH:0.575757
G1 X146.178 Y106.494 E.00663
;WIDTH:0.613636
G1 X146.12 Y106.562 E.00424
M204 S1000
;WIPE_START
G1 F8640
G1 X146.081 Y106.608 E-.01393
G1 X146.017 Y106.472 E-.03471
G1 X145.954 Y106.337 E-.0344
G1 X145.891 Y106.202 E-.0344
G1 X145.75 Y106.059 E-.04637
G1 X145.607 Y105.977 E-.03806
G1 X145.012 Y105.723 E-.14938
G1 X144.532 Y105.419 E-.13119
G1 X144.108 Y105.042 E-.13101
G1 X143.751 Y104.6 E-.13119
G1 X143.472 Y104.106 E-.131
G1 X143.287 Y103.6 E-.12436
;WIPE_END
G1 Z.4 F720
G1 X154.91 Y129.524 F10800
G1 Z.2 F720
G1 E1 F2100
M204 S800
;WIDTH:0.499999
G1 F900
G1 X154.692 Y128.994 E.02178
G1 X154.564 Y128.441 E.02157
G1 X154.532 Y127.805 E.0242
G1 X154.585 Y127.297 E.01941
G1 X154.735 Y126.744 E.02178
G1 X154.971 Y126.228 E.02157
G1 X155.335 Y125.704 E.02425
G1 X155.686 Y125.334 E.01938
G1 X156.143 Y124.988 E.02179
G1 X156.649 Y124.721 E.02174
G1 X157.357 Y124.484 E.02838
G1 X157.612 Y124.295 E.01206
;WIDTH:0.546541
G1 X157.716 Y124.089 E.00966
;WIDTH:0.593082
G1 X157.82 Y123.882 E.0106
G1 X157.943 Y124.078 E.01059
;WIDTH:0.546541
G1 X158.066 Y124.274 E.00969
;WIDTH:0.499999
G1 X158.243 Y124.399 E.00824
G1 X158.392 Y124.452 E.00601
G1 X159.048 Y124.598 E.02554
G1 X159.579 Y124.812 E.02176
G1 X160.068 Y125.109 E.02174
G1 X160.502 Y125.482 E.02175
G1 X160.869 Y125.921 E.02175
G1 X161.159 Y126.414 E.02174
G1 X161.364 Y126.945 E.02163
G1 X161.437 Y127.32 E.01452
G1 X161.504 Y128.079 E.02896
G1 X161.433 Y128.648 E.02179
G1 X161.27 Y129.197 E.02177
G1 X161.021 Y129.708 E.0216
G1 X160.647 Y130.223 E.02419
G1 X160.287 Y130.583 E.01935
G1 X159.825 Y130.917 E.02167
G1 X159.252 Y131.194 E.02419
G1 X158.764 Y131.342 E.01938
G1 X158.196 Y131.418 E.02178
G1 X157.628 Y131.401 E.0216
G1 X157.005 Y131.27 E.0242
G1 X156.527 Y131.089 E.01943
G1 X156.031 Y130.803 E.02176
G1 X155.592 Y130.442 E.0216
G1 X155.178 Y129.958 E.02421
G1 X154.942 Y129.575 E.0171
M204 S1000
;WIPE_START
G1 F8640
G1 X154.91 Y129.524 E-.0139
G1 X154.692 Y128.994 E-.13233
G1 X154.564 Y128.441 E-.13107
G1 X154.532 Y127.805 E-.14704
G1 X154.585 Y127.297 E-.11794
G1 X154.735 Y126.744 E-.1323
G1 X154.971 Y126.228 E-.13102
G1 X155.335 Y125.704 E-.14732
G1 X155.475 Y125.556 E-.04708
;WIPE_END
G1 Z.4 F720
G1 X157.088 Y119.222 F10800
G1 Z.2 F720
G1 E1 F2100
M204 S800
;WIDTH:0.585846
G1 F900
G1 X157.211 Y119.185 E.0058
;WIDTH:0.55534
G1 X157.333 Y119.147 E.00544
;WIDTH:0.524833
G1 X157.499 Y119.041 E.00789
;WIDTH:0.529972
G1 X157.603 Y118.901 E.00706
;WIDTH:0.563426
G1 X157.707 Y118.761 E.00755
;WIDTH:0.59688
G1 X157.811 Y118.621 E.00803
G1 X157.828 Y118.821 E.00925
;WIDTH:0.563426
G1 X157.845 Y119.022 E.00873
;WIDTH:0.529972
G1 X157.861 Y119.222 E.00813
;WIDTH:0.541179
G1 X157.839 Y119.587 E.01515
;WIDTH:0.58584
G1 X157.817 Y119.951 E.01646
G1 X157.658 Y119.677 E.0143
;WIDTH:0.541179
G1 X157.499 Y119.404 E.01309
;WIDTH:0.524833
G1 X157.333 Y119.297 E.00791
M73 P4 R19
;WIDTH:0.55534
G1 X157.211 Y119.26 E.00543
;WIDTH:0.585846
G1 X157.146 Y119.24 E.00307
M204 S1000
G1 X157.817 Y119.951 F10800
M204 S800
;WIDTH:0.58584
G1 F900
G1 X157.817 Y123.783 E.17299
;WIDTH:0.593082
G1 X157.82 Y123.882 E.00453
M73 Q4 S19
M204 S1000
;WIPE_START
G1 F8640
G1 X157.817 Y123.783 E-.02287
G1 X157.817 Y119.951 E-.88482
;WIPE_END
G1 E-.09231 F2100
G1 Z.4 F720
G1 X145.465 Y119.217 F10800
G1 Z.2 F720
G1 E1 F2100
M204 S800
;WIDTH:0.596888
G1 F900
G1 X145.605 Y119.113 E.00803
;WIDTH:0.563431
G1 X145.745 Y119.008 E.00757
;WIDTH:0.529974
G1 X145.885 Y118.904 E.00706
;WIDTH:0.541715
G1 X146 Y118.742 E.00824
;WIDTH:0.591406
G1 X146.067 Y118.558 E.00893
G1 X146.134 Y118.742 E.00893
;WIDTH:0.541715
G1 X146.248 Y118.904 E.00822
;WIDTH:0.541183
G1 X146.522 Y119.063 E.01312
;WIDTH:0.585848
G1 X146.795 Y119.222 E.01426
G1 X146.431 Y119.245 E.01647
;WIDTH:0.541183
G1 X146.067 Y119.267 E.01511
;WIDTH:0.529974
G1 X145.866 Y119.25 E.00817
;WIDTH:0.563431
G1 X145.666 Y119.234 E.00868
;WIDTH:0.596888
G1 X145.525 Y119.222 E.00652
M204 S1000
;WIPE_START
G1 F8640
G1 X145.465 Y119.217 E-.0139
G1 X145.605 Y119.113 E-.04027
G1 X145.745 Y119.008 E-.04041
G1 X145.885 Y118.904 E-.04027
G1 X146 Y118.742 E-.04587
G1 X146.067 Y118.558 E-.04522
G1 X146.134 Y118.742 E-.04522
G1 X146.248 Y118.904 E-.04574
G1 X146.522 Y119.063 E-.07315
G1 X146.795 Y119.222 E-.07295
G1 X146.431 Y119.245 E-.08422
G1 X146.067 Y119.267 E-.0842
G1 X145.866 Y119.25 E-.04658
G1 X145.666 Y119.234 E-.04633
G1 X145.525 Y119.222 E-.03267
;WIPE_END
G1 E-.243 F2100
G1 Z.4 F720
G1 X146.081 Y106.608 F10800
G1 Z.2 F720
G1 E1 F2100
M204 S800
;WIDTH:0.613636
G1 F900
G1 X146.067 Y106.809 E.00956
;WIDTH:0.591406
G1 X146.067 Y118.558 E.53583
M204 S1000
;WIPE_START
G1 F8640
G1 X146.067 Y114.227 E-1
;WIPE_END
G1 Z.4 F720
