; generated by PrusaSlicer 2.9.4 on 2026-03-18 at 00:20:32 UTC


;
;
; 

; external perimeters extrusion width = 0.45mm
; perimeters extrusion width = 0.45mm
; infill extrusion width = 0.45mm
; solid infill extrusion width = 0.45mm
; top infill extrusion width = 0.40mm
; first layer extrusion width = 0.42mm

M73 P0 R19
M73 Q0 S19
M201 X1000 Y1000 Z200 E5000 ; sets maximum accelerations, mm/sec^2
M203 X200 Y200 Z12 E120 ; sets maximum feedrates, mm / sec
M204 S1250 T1250 ; sets acceleration (S) and retract acceleration (R), mm/sec^2
M205 X8.00 Y8.00 Z0.40 E4.50 ; sets the jerk limits, mm/sec
M205 S0 T0 ; sets the minimum extruding and travel feed rate, mm/sec

; printing object Button Set.stl id:0 copy 0
; stop printing object Button Set.stl id:0 copy 0

;TYPE:Custom
M862.3 P "MK3S" ; printer model check
M862.1 P0.4 ; nozzle diameter check
M115 U3.14.1 ; tell printer latest fw version
G90 ; use absolute coordinates
M83 ; extruder relative mode
M104 S240 ; set extruder temp
M140 S90 ; set bed temp
M190 S90 ; wait for bed temp
M109 S240 ; wait for extruder temp
G28 W ; home all without mesh bed level
G80 X85.3569 Y75.4454 W79.2842 H59.1083 ; mesh bed levelling

G1 Z0.2 F720
G1 Y-3 F1000 ; go outside print area
G92 E0
G1 X60 E9 F1000 ; intro line
G1 X100 E12.5 F1000 ; intro line

G92 E0
M221 S95

; Don't change E values below. Excessive value can damage the printer.
M907 E430 ; set extruder motor current
G21 ; set units to millimeters
G90 ; use absolute coordinates
M83 ; use relative distances for extrusion

M900 K0.08 ; Filament gcode LA 1.5
M900 K45 ; Filament gcode LA 1.0




M107
;LAYER_CHANGE
;Z:0.2
;HEIGHT:0.2
G1 E-1 F2100
G1 Z.4 F720
G1 X102.956 Y81.491 F10800
G1 Z.2 F720
G1 E1 F2100
M204 S800
;TYPE:Skirt/Brim
;WIDTH:0.42
G1 F1200
G1 X103.904 Y80.444 E.04429
G1 X104.939 Y79.484 E.04426
G1 X106.211 Y78.509 E.05025
G1 X107.241 Y77.852 E.03831
G1 X108.49 Y77.193 E.04428
G1 X109.97 Y76.579 E.05024
G1 X111.135 Y76.212 E.0383
G1 X112.512 Y75.898 E.04428
G1 X114.101 Y75.689 E.05025
G1 X115.417 Y75.634 E.0413
G1 X147.277 Y75.637 E.99895
G1 X148.633 Y75.714 E.04258
G1 X149.975 Y75.924 E.04259
G1 X151.084 Y76.202 E.03585
G1 X152.366 Y76.649 E.04257
G1 X153.599 Y77.221 E.04262
G1 X154.769 Y77.91 E.04257
G1 X155.866 Y78.711 E.04259
G1 X156.879 Y79.616 E.04259
G1 X157.935 Y80.782 E.04932
G1 X158.735 Y81.879 E.04257
G1 X159.323 Y82.86 E.03586
G1 X163.633 Y90.512 E.27536
G1 X164.006 Y91.293 E.02714
G1 X164.287 Y92.196 E.02965
G1 X164.451 Y93.509 E.04149
G1 X164.444 Y128.292 E1.0906
G1 X164.21 Y129.662 E.04358
M73 P1 R18
M73 Q1 S19
G1 X163.982 Y130.35 E.02273
G1 X163.576 Y131.18 E.02897
G1 X162.684 Y132.356 E.04628
G1 X162.124 Y132.888 E.02422
G1 X161.422 Y133.396 E.02717
G1 X160.434 Y133.9 E.03478
G1 X159.425 Y134.215 E.03314
G1 X158.378 Y134.36 E.03314
G1 X157.073 Y134.296 E.04097
G1 X97.499 Y121.948 E1.9076
G1 X96.174 Y121.552 E.04336
G1 X88.886 Y118.339 E.24973
G1 X87.64 Y117.444 E.0481
G1 X87.097 Y116.89 E.02432
G1 X86.58 Y116.201 E.02701
G1 X85.908 Y114.822 E.0481
G1 X85.691 Y114.079 E.02427
G1 X85.556 Y113.158 E.02919
G1 X85.561 Y112.168 E.03104
G1 X85.706 Y111.25 E.02914
G1 X86.209 Y109.841 E.04691
G1 X102.103 Y82.616 E.98844
G1 X102.92 Y81.539 E.04239
M204 S1000
;WIPE_START
G1 F8640
G1 X102.956 Y81.491 E-.01385
G1 X103.904 Y80.444 E-.32613
G1 X104.939 Y79.484 E-.32596
G1 X106.087 Y78.603 E-.33406
;WIPE_END
G1 Z.4 F720
; printing object Button Set.stl id:0 copy 0
G1 X102.695 Y108.819 F10800
G1 Z.2 F720
G1 E1 F2100
M204 S800
;TYPE:External perimeter
;WIDTH:0.419999
G1 F1200
G1 X102.64 Y108.791 E.00194
G1 X102.607 Y108.684 E.00351
G1 X102.607 Y91.813 E.52898
G1 X102.661 Y90.64 E.03682
G1 X102.808 Y89.585 E.0334
G1 X103.053 Y88.497 E.03497
G1 X103.391 Y87.435 E.03494
G1 X103.82 Y86.406 E.03496
G1 X104.336 Y85.418 E.03495
G1 X104.936 Y84.479 E.03494
G1 X105.615 Y83.595 E.03495
G1 X105.944 Y83.199 E.01614
G1 X106.78 Y82.362 E.03709
G1 X107.69 Y81.605 E.03711
G1 X108.666 Y80.936 E.0371
G1 X109.699 Y80.359 E.0371
G1 X110.781 Y79.881 E.03709
G1 X111.903 Y79.504 E.03711
G1 X113.063 Y79.23 E.03737
G1 X114.235 Y79.067 E.0371
G1 X115.407 Y79.012 E.03679
G1 X134.238 Y79.012 E.59043
G1 X134.427 Y79.143 E.00721
G1 X134.427 Y89.727 E.33185
G1 X134.306 Y89.903 E.0067
G1 X133.556 Y90.191 E.02519
G1 X133.014 Y90.509 E.0197
G1 X132.53 Y90.911 E.01973
G1 X132.118 Y91.387 E.01974
G1 X131.79 Y91.923 E.0197
G1 X131.553 Y92.506 E.01973
G1 X131.415 Y93.12 E.01973
G1 X131.379 Y93.748 E.01972
G1 X131.446 Y94.374 E.01974
G1 X131.615 Y94.98 E.01973
G1 X131.88 Y95.55 E.01971
G1 X132.235 Y96.07 E.01974
G1 X132.67 Y96.525 E.01974
G1 X133.173 Y96.902 E.01971
M73 P2 R18
M73 Q2 S19
G1 X133.731 Y97.192 E.01972
G1 X134.328 Y97.387 E.01969
G1 X135.004 Y97.482 E.0214
G1 X135.58 Y97.474 E.01806
G1 X136.2 Y97.363 E.01975
G1 X136.792 Y97.153 E.01969
G1 X137.385 Y96.816 E.02139
G1 X137.837 Y96.458 E.01808
G1 X138.26 Y95.992 E.01973
G1 X138.6 Y95.465 E.01966
G1 X138.864 Y94.836 E.02139
G1 X139.004 Y94.277 E.01807
G1 X139.055 Y93.649 E.01976
G1 X139.003 Y93.022 E.01973
G1 X138.85 Y92.412 E.01972
G1 X138.619 Y91.884 E.01807
G1 X138.255 Y91.307 E.02139
G1 X137.832 Y90.843 E.01969
G1 X137.338 Y90.453 E.01973
G1 X136.787 Y90.15 E.01972
G1 X136.194 Y89.94 E.01972
G1 X135.363 Y89.793 E.02646
G1 X135.207 Y89.637 E.00692
G1 X135.207 Y79.201 E.32721
G1 X135.244 Y79.088 E.00373
G1 X135.395 Y79.012 E.0053
G1 X145.791 Y79.012 E.32596
G1 X145.979 Y79.141 E.00715
G1 X145.979 Y89.621 E.32859
G1 X145.935 Y89.813 E.00618
G1 X145.076 Y90.137 E.02879
G1 X144.522 Y90.436 E.01974
G1 X144.025 Y90.821 E.01971
G1 X143.597 Y91.283 E.01975
G1 X143.25 Y91.808 E.01973
G1 X142.994 Y92.383 E.01973
G1 X142.835 Y92.991 E.0197
G1 X142.778 Y93.618 E.01974
G1 X142.824 Y94.246 E.01974
G1 X142.972 Y94.857 E.01971
G1 X143.218 Y95.436 E.01972
G1 X143.555 Y95.968 E.01975
G1 X143.939 Y96.398 E.01808
G1 X144.466 Y96.832 E.02141
G1 X145.013 Y97.14 E.01968
G1 X145.604 Y97.355 E.01972
G1 X146.223 Y97.471 E.01975
G1 X146.852 Y97.484 E.01973
G1 X147.475 Y97.394 E.01974
G1 X148.025 Y97.221 E.01808
G1 X148.636 Y96.917 E.0214
G1 X149.141 Y96.544 E.01968
G1 X149.58 Y96.093 E.01973
G1 X149.939 Y95.576 E.01974
G1 X150.208 Y95.008 E.01971
G1 X150.381 Y94.402 E.01976
G1 X150.449 Y93.83 E.01806
G1 X150.422 Y93.148 E.0214
G1 X150.289 Y92.534 E.0197
G1 X150.057 Y91.949 E.01973
G1 X149.732 Y91.41 E.01973
G1 X149.36 Y90.97 E.01807
G1 X148.842 Y90.525 E.02141
G1 X148.303 Y90.204 E.01967
G1 X147.717 Y89.975 E.01973
G1 X146.908 Y89.806 E.02591
G1 X146.819 Y89.759 E.00316
G1 X146.759 Y89.621 E.00472
G1 X146.759 Y79.189 E.32709
G1 X146.795 Y79.078 E.00366
G1 X146.957 Y79.001 E.00562
G1 X148.253 Y79.069 E.04069
G1 X149.225 Y79.222 E.03085
G1 X150.217 Y79.474 E.03209
G1 X151.179 Y79.822 E.03208
G1 X152.103 Y80.262 E.03209
G1 X152.979 Y80.79 E.03207
G1 X153.327 Y81.017 E.01303
G1 X154.163 Y81.694 E.03373
G1 X154.938 Y82.468 E.03434
G1 X155.628 Y83.319 E.03435
G1 X156.225 Y84.237 E.03433
G1 X156.723 Y85.213 E.03436
G1 X157.116 Y86.235 E.03433
G1 X157.4 Y87.293 E.03435
G1 X157.573 Y88.384 E.03463
G1 X157.638 Y89.634 E.03925
G1 X157.587 Y89.773 E.00464
G1 X156.687 Y90.052 E.02954
G1 X156.13 Y90.31 E.01925
G1 X155.621 Y90.654 E.01926
G1 X155.173 Y91.075 E.01928
G1 X154.827 Y91.517 E.0176
G1 X154.527 Y92.054 E.01929
G1 X154.317 Y92.631 E.01925
G1 X154.201 Y93.234 E.01925
G1 X154.183 Y93.848 E.01926
G1 X154.264 Y94.457 E.01926
G1 X154.44 Y95.045 E.01924
G1 X154.708 Y95.598 E.01927
G1 X155.06 Y96.101 E.01925
G1 X155.489 Y96.541 E.01927
G1 X155.982 Y96.907 E.01925
G1 X156.527 Y97.19 E.01925
G1 X157.299 Y97.445 E.02549
G1 X157.383 Y97.502 E.00318
G1 X157.427 Y97.683 E.00584
G1 X157.427 Y118.644 E.65722
G1 X157.351 Y118.795 E.0053
M73 Q2 S18
G1 X157.238 Y118.832 E.00373
G1 X146.645 Y118.832 E.33214
G1 X146.457 Y118.702 E.00717
G1 X146.457 Y106.679 E.37697
G1 X146.577 Y106.503 E.00668
G1 X147.468 Y106.37 E.02825
G1 X148.063 Y106.181 E.01957
G1 X148.62 Y105.898 E.01959
G1 X149.123 Y105.527 E.0196
G1 X149.559 Y105.079 E.0196
G1 X149.915 Y104.566 E.01958
G1 X150.163 Y104.05 E.01795
G1 X150.356 Y103.401 E.02123
G1 X150.428 Y102.782 E.01954
G1 X150.398 Y102.158 E.01959
G1 X150.267 Y101.547 E.01959
G1 X150.037 Y100.966 E.01959
G1 X149.716 Y100.431 E.01956
G1 X149.312 Y99.954 E.0196
G1 X148.835 Y99.551 E.01958
G1 X148.299 Y99.23 E.01959
G1 X147.718 Y99.001 E.01958
G1 X147.159 Y98.879 E.01794
G1 X146.482 Y98.841 E.02126
G1 X145.863 Y98.914 E.01954
G1 X145.262 Y99.088 E.01962
G1 X144.745 Y99.332 E.01792
G1 X144.186 Y99.714 E.02123
G1 X143.74 Y100.15 E.01956
G1 X143.37 Y100.653 E.01958
G1 X143.087 Y101.21 E.01959
G1 X142.899 Y101.806 E.01959
G1 X142.815 Y102.372 E.01794
G1 X142.824 Y103.049 E.02123
G1 X142.94 Y103.662 E.01956
G1 X143.154 Y104.249 E.01959
G1 X143.461 Y104.793 E.01959
G1 X143.852 Y105.279 E.01956
G1 X144.318 Y105.695 E.01959
G1 X144.846 Y106.029 E.01959
G1 X145.561 Y106.331 E.02434
G1 X145.677 Y106.505 E.00656
G1 X145.677 Y118.644 E.38061
G1 X145.639 Y118.757 E.00374
G1 X145.488 Y118.832 E.00529
G1 X113.842 Y118.832 E.99224
G1 X113.654 Y118.702 E.00717
G1 X113.654 Y116.446 E.07074
G1 X113.606 Y115.608 E.02632
G1 X113.465 Y114.782 E.02627
G1 X113.229 Y113.978 E.02627
G1 X112.902 Y113.206 E.02629
G1 X112.639 Y112.74 E.01678
G1 X112.095 Y111.938 E.03039
G1 X111.451 Y111.213 E.0304
G1 X110.788 Y110.639 E.0275
M73 P3 R18
G1 X110.094 Y110.17 E.02626
G1 X109.35 Y109.785 E.02627
G1 X108.566 Y109.487 E.0263
G1 X107.709 Y109.273 E.0277
M73 Q3 S18
G1 X106.9 Y109.168 E.02558
G1 X106.062 Y109.156 E.02628
G1 X105.152 Y109.249 E.02868
G1 X104.508 Y109.024 E.02139
G1 X104.013 Y108.907 E.01595
G1 X103.331 Y108.862 E.02143
G1 X102.799 Y108.872 E.01668
G1 X102.748 Y108.846 E.00179
M204 S1000
;WIPE_START
G1 F8640
G1 X102.695 Y108.819 E-.01373
G1 X102.64 Y108.791 E-.01425
G1 X102.607 Y108.684 E-.02585
G1 X102.607 Y104.586 E-.94617
;WIPE_END
G1 Z.4 F720
G1 X95.252 Y113.772 F10800
G1 Z.2 F720
G1 E1 F2100
M204 S800
;TYPE:Perimeter
G1 F1200
G1 X95.032 Y114.292 E.0177
G1 X94.73 Y114.769 E.0177
G1 X94.353 Y115.192 E.01777
G1 X93.858 Y115.681 E.02182
;WIDTH:0.420729
G1 X93.774 Y116.11 E.01373
;WIDTH:0.42291
G1 X93.9 Y116.368 E.00907
G1 X93.705 Y116.144 E.00938
;WIDTH:0.420729
G1 X93.312 Y115.951 E.01375
;WIDTH:0.419999
G1 X93.156 Y115.963 E.00491
G1 X92.436 Y116.122 E.02312
G1 X91.87 Y116.151 E.01777
G1 X91.31 Y116.087 E.01767
G1 X90.716 Y115.913 E.01941
G1 X90.251 Y115.691 E.01616
G1 X89.783 Y115.369 E.01781
G1 X89.376 Y114.975 E.01776
G1 X89.039 Y114.52 E.01775
G1 X88.78 Y114.016 E.01777
G1 X88.607 Y113.479 E.01769
G1 X88.522 Y112.866 E.0194
G1 X88.533 Y112.35 E.01618
G1 X88.636 Y111.792 E.01779
G1 X88.828 Y111.259 E.01776
G1 X89.104 Y110.764 E.01777
G1 X89.457 Y110.321 E.01776
G1 X89.876 Y109.943 E.01769
G1 X90.4 Y109.614 E.0194
G1 X90.875 Y109.412 E.01618
G1 X91.426 Y109.276 E.01779
G1 X91.991 Y109.232 E.01777
G1 X92.552 Y109.281 E.01766
G1 X93.15 Y109.44 E.0194
G1 X93.622 Y109.648 E.01617
G1 X94.095 Y109.956 E.0177
G1 X94.363 Y110.207 E.01151
G1 X94.703 Y110.579 E.0158
G1 X95.003 Y111.039 E.01722
G1 X95.232 Y111.553 E.01764
G1 X95.374 Y112.099 E.01769
G1 X95.425 Y112.661 E.01769
G1 X95.384 Y113.224 E.0177
G1 X95.266 Y113.714 E.0158
M204 S1000
;WIPE_START
G1 F8640
G1 X95.252 Y113.772 E-.01378
G1 X95.032 Y114.292 E-.13037
G1 X94.73 Y114.769 E-.13036
G1 X94.353 Y115.192 E-.13083
G1 X93.858 Y115.681 E-.16066
G1 X93.774 Y116.11 E-.10094
G1 X93.9 Y116.368 E-.0663
G1 X93.705 Y116.144 E-.06858
G1 X93.312 Y115.951 E-.1011
G1 X93.156 Y115.963 E-.03613
G1 X92.898 Y116.02 E-.06095
;WIPE_END
G1 Z.4 F720
G1 X93.9 Y116.368 F10800
G1 Z.2 F720
G1 E1 F2100
M204 S800
;WIDTH:0.45728
G1 F1200
G1 X94.405 Y116.922 E.02583
;WIDTH:0.457686
G1 X95.043 Y117.506 E.02983
G1 X95.447 Y117.814 E.01752
;WIDTH:0.433236
G1 X96.187 Y118.278 E.02835
;WIDTH:0.434488
G1 X97.041 Y118.68 E.03073
;WIDTH:0.436578
G1 X97.938 Y118.975 E.03091
;WIDTH:0.439472
G1 X98.865 Y119.155 E.03114
;WIDTH:0.445848
G1 X99.835 Y119.222 E.03258
G1 X112.685 Y119.222 E.43052
;WIDTH:0.494059
G1 X112.782 Y119.198 E.00375
;WIDTH:0.54227
G1 X112.878 Y119.174 E.00411
;WIDTH:0.590481
G1 X112.975 Y119.15 E.00455
;WIDTH:0.638692
G1 X113.071 Y119.126 E.0049
;WIDTH:0.686903
G1 X113.167 Y119.102 E.0053
;WIDTH:0.735114
G1 X113.264 Y119.078 E.00575
G1 X113.264 Y118.639 E.02527
;WIDTH:0.686902
G1 X113.264 Y118.2 E.02351
;WIDTH:0.63869
G1 X113.264 Y117.762 E.0217
;WIDTH:0.590477
G1 X113.264 Y117.323 E.01999
;WIDTH:0.542265
G1 X113.264 Y116.884 E.01823
;WIDTH:0.494053
G1 X113.264 Y116.446 E.01643
;WIDTH:0.450322
G1 X113.215 Y115.631 E.02766
;WIDTH:0.4554
G1 X113.076 Y114.85 E.02721
;WIDTH:0.457936
G1 X112.849 Y114.091 E.02734
G1 X112.538 Y113.362 E.02735
G1 X112.292 Y112.906 E.01788
;WIDTH:0.437452
G1 X111.784 Y112.166 E.02945
;WIDTH:0.443056
G1 X111.167 Y111.478 E.03075
;WIDTH:0.450302
G1 X110.534 Y110.938 E.02818
;WIDTH:0.455402
G1 X109.874 Y110.498 E.02721
;WIDTH:0.457946
G1 X109.168 Y110.137 E.02736
G1 X108.427 Y109.858 E.02732
G1 X107.928 Y109.721 E.01786
;WIDTH:0.433944
G1 X106.923 Y109.558 E.0331
;WIDTH:0.44253
G1 X106.741 Y109.554 E.00605
M204 S1000
;WIPE_START
G1 F8640
G1 X106.923 Y109.558 E-.04203
G1 X107.928 Y109.721 E-.23509
G1 X108.427 Y109.858 E-.11948
G1 X109.168 Y110.137 E-.18283
G1 X109.874 Y110.498 E-.18309
G1 X110.534 Y110.938 E-.18316
G1 X110.713 Y111.091 E-.05432
;WIPE_END
G1 Z.4 F720
G1 X102.43 Y109.074 F10800
G1 Z.2 F720
G1 E1 F2100
M204 S800
;WIDTH:0.431737
G1 F1200
G1 X102.689 Y109.239 E.00993
;WIDTH:0.419999
G1 X103.752 Y109.258 E.03333
G1 X104.397 Y109.385 E.02061
G1 X104.931 Y109.59 E.01793
G1 X105.191 Y109.624 E.00822
G1 X106.238 Y109.536 E.03294
;WIDTH:0.44253
G1 X106.741 Y109.554 E.01672
G1 X106.371 Y109.797 E.01471
;WIDTH:0.419999
G1 X106.212 Y110.022 E.00864
G1 X106.11 Y110.392 E.01203
G1 X106.176 Y110.618 E.00738
G1 X106.533 Y111.277 E.0235
G1 X106.736 Y111.868 E.01959
G1 X106.827 Y112.434 E.01797
G1 X106.826 Y112.956 E.01637
G1 X106.723 Y113.572 E.01958
G1 X106.532 Y114.112 E.01796
G1 X106.282 Y114.571 E.01639
G1 X105.897 Y115.063 E.01959
G1 X105.471 Y115.446 E.01796
G1 X105.033 Y115.73 E.01637
G1 X104.459 Y115.978 E.01961
G1 X103.904 Y116.112 E.0179
G1 X103.33 Y116.152 E.01804
G1 X102.81 Y116.105 E.01637
G1 X102.206 Y115.948 E.01957
G1 X101.686 Y115.711 E.01792
G1 X101.209 Y115.389 E.01804
G1 X100.828 Y115.032 E.01637
G1 X100.449 Y114.535 E.0196
G1 X100.185 Y114.028 E.01792
G1 X100.008 Y113.481 E.01803
G1 X99.928 Y112.965 E.01637
G1 X99.935 Y112.34 E.0196
G1 X99.989 Y112.054 E.00913
G1 X100.148 Y111.482 E.01861
G1 X100.363 Y111.013 E.01618
G1 X100.717 Y110.501 E.01952
G1 X101.082 Y110.117 E.01661
G1 X101.545 Y109.773 E.01809
G1 X102.041 Y109.441 E.01871
;WIDTH:0.431737
G1 X102.21 Y109.044 E.01395
;WIDTH:0.454612
G1 X102.221 Y108.784 E.00891
G1 X102.325 Y109.008 E.00845
;WIDTH:0.431737
G1 X102.379 Y109.042 E.00206
M204 S1000
;WIPE_START
G1 F8640
G1 X102.43 Y109.074 E-.0139
G1 X102.689 Y109.239 E-.07091
G1 X103.752 Y109.258 E-.24549
G1 X104.397 Y109.385 E-.15179
G1 X104.931 Y109.59 E-.13208
G1 X105.191 Y109.624 E-.06055
G1 X106.238 Y109.536 E-.24261
G1 X106.596 Y109.549 E-.08267
;WIPE_END
G1 Z.4 F720
G1 X143.497 Y104.09 F10800
G1 Z.2 F720
G1 E1 F2100
M204 S800
;WIDTH:0.419999
G1 F1200
G1 X143.304 Y103.562 E.01763
G1 X143.201 Y103.011 E.01758
G1 X143.192 Y102.397 E.01925
G1 X143.267 Y101.891 E.01604
G1 X143.437 Y101.353 E.01769
G1 X143.692 Y100.851 E.01765
G1 X144.025 Y100.398 E.01763
G1 X144.426 Y100.007 E.01756
G1 X144.933 Y99.66 E.01926
G1 X145.396 Y99.441 E.01606
G1 X145.938 Y99.285 E.01768
G1 X146.494 Y99.22 E.01755
G1 X147.108 Y99.254 E.01928
G1 X147.608 Y99.363 E.01605
G1 X148.132 Y99.57 E.01767
G1 X148.615 Y99.858 E.01763
G1 X149.045 Y100.222 E.01766
G1 X149.409 Y100.651 E.01764
G1 X149.698 Y101.134 E.01765
G1 X149.905 Y101.657 E.01764
G1 X150.023 Y102.207 E.01764
G1 X150.05 Y102.769 E.01764
G1 X149.985 Y103.325 E.01755
G1 X149.882 Y103.672 E.01135
G1 X149.701 Y104.142 E.01579
G1 X149.425 Y104.611 E.01706
G1 X149.069 Y105.042 E.01753
G1 X148.647 Y105.41 E.01756
G1 X148.17 Y105.704 E.01757
G1 X147.652 Y105.916 E.01755
G1 X147.104 Y106.041 E.01762
