; generated by PrusaSlicer 2.9.4 on 2026-03-20 at 00:07:08 UTC


;
;
; 

; external perimeters extrusion width = 0.45mm
; perimeters extrusion width = 0.45mm
; infill extrusion width = 0.45mm
; solid infill extrusion width = 0.45mm
; top infill extrusion width = 0.40mm
; first layer extrusion width = 0.50mm

M73 P0 R6
M73 Q0 S6
M201 X1000 Y1000 Z200 E5000 ; sets maximum accelerations, mm/sec^2
M203 X200 Y200 Z12 E120 ; sets maximum feedrates, mm / sec
M204 S1250 T1250 ; sets acceleration (S) and retract acceleration (R), mm/sec^2
M205 X8.00 Y8.00 Z0.40 E4.50 ; sets the jerk limits, mm/sec
M205 S0 T0 ; sets the minimum extruding and travel feed rate, mm/sec

; printing object Display Bracket Left.stl id:0 copy 0
; stop printing object Display Bracket Left.stl id:0 copy 0

;TYPE:Custom
M862.3 P "MK3S" ; printer model check
M862.1 P0.4 ; nozzle diameter check
M115 U3.14.1 ; tell printer latest fw version
G90 ; use absolute coordinates
M83 ; extruder relative mode
M104 S240 ; set extruder temp
M140 S90 ; set bed temp
M190 S90 ; wait for bed temp
M109 S240 ; wait for extruder temp
G28 W ; home all without mesh bed level
G80 X117.986 Y91.4375 W14.0283 H27.1224 ; mesh bed levelling

G1 Z0.2 F720
G1 Y-3 F1000 ; go outside print area
G92 E0
G1 X60 E9 F1000 ; intro line
G1 X100 E12.5 F1000 ; intro line
M73 P1 R6
M73 Q1 S6

G92 E0
M221 S95

; Don't change E values below. Excessive value can damage the printer.
M907 E430 ; set extruder motor current
G21 ; set units to millimeters
G90 ; use absolute coordinates
M83 ; use relative distances for extrusion

M900 K0.08 ; Filament gcode LA 1.5
M900 K45 ; Filament gcode LA 1.0




M107
;LAYER_CHANGE
;Z:0.2
;HEIGHT:0.2
G1 E-1 F2100
G1 Z.4 F720
G1 X120.602 Y93.748 F10800
G1 Z.2 F720
G1 E1 F2100
M204 S800
;TYPE:Skirt/Brim
;WIDTH:0.5
G1 F900
G1 X121.172 Y93.147 E.03148
G1 X122.039 Y92.497 E.04118
G1 X122.748 Y92.129 E.03036
M73 Q2 S6
G1 X123.531 Y91.857 E.0315
G1 X124.316 Y91.706 E.03038
G1 X125.399 Y91.678 E.04117
G1 X126.22 Y91.797 E.03153
G1 X126.986 Y92.022 E.03034
M73 P2 R6
G1 X127.739 Y92.368 E.0315
G1 X128.634 Y92.978 E.04116
G1 X129.211 Y93.531 E.03038
G1 X129.722 Y94.184 E.03151
G1 X130.119 Y94.877 E.03035
G1 X130.424 Y95.647 E.03148
G1 X130.662 Y96.836 E.04609
G1 X131.758 Y108.936 E.46176
G1 X131.786 Y111.548 E.09928
G1 X131.673 Y112.774 E.04679
G1 X131.257 Y114.171 E.0554
G1 X130.618 Y115.351 E.051
G1 X129.676 Y116.464 E.05542
G1 X128.617 Y117.288 E.051
G1 X127.308 Y117.928 E.05538
G1 X126.007 Y118.257 E.051
G1 X124.889 Y118.332 E.04259
G1 X123.993 Y118.257 E.03417
G1 X123.228 Y118.097 E.0297
G1 X121.869 Y117.567 E.05544
G1 X121.197 Y117.166 E.02974
G1 X120.488 Y116.614 E.03415
G1 X119.579 Y115.627 E.051
G1 X118.833 Y114.375 E.05539
G1 X118.397 Y113.106 E.051
G1 X118.231 Y111.998 E.04258
G1 X118.217 Y109.384 E.09935
G1 X119.338 Y96.836 E.4788
G1 X119.505 Y95.894 E.03636
M73 P3 R6
M73 Q3 S6
G1 X119.763 Y95.138 E.03036
G1 X120.141 Y94.4 E.03151
G1 X120.567 Y93.797 E.02806
M204 S1000
G1 X120.946 Y94.05 F10800
M204 S800
G1 F900
G1 X120.948 Y94.046 E.00017
G1 X121.488 Y93.477 E.02981
G1 X122.287 Y92.881 E.03788
G1 X122.919 Y92.553 E.02706
G1 X123.66 Y92.296 E.02981
G1 X124.359 Y92.161 E.02706
G1 X125.356 Y92.133 E.03791
G1 X126.133 Y92.245 E.02984
G1 X126.815 Y92.447 E.02703
G1 X127.529 Y92.773 E.02983
G1 X128.351 Y93.337 E.03789
G1 X128.865 Y93.829 E.02704
G1 X129.349 Y94.448 E.02986
G1 X129.702 Y95.066 E.02705
G1 X129.991 Y95.795 E.0298
G1 X130.207 Y96.877 E.04193
G1 X131.303 Y108.978 E.4618
G1 X131.329 Y111.548 E.09768
G1 X131.225 Y112.68 E.0432
G1 X130.831 Y114.005 E.05254
G1 X130.246 Y115.086 E.04672
G1 X129.353 Y116.141 E.05253
G1 X128.383 Y116.895 E.04669
G1 X127.141 Y117.502 E.05254
G1 X125.95 Y117.804 E.0467
G1 X124.908 Y117.875 E.03969
G1 X123.358 Y117.659 E.05948
G1 X122.07 Y117.156 E.05255
G1 X120.783 Y116.265 E.05949
G1 X119.951 Y115.362 E.04667
G1 X119.243 Y114.174 E.05256
G1 X118.844 Y113.012 E.04669
G1 X118.687 Y111.979 E.03971
G1 X118.674 Y109.391 E.09836
G1 X119.793 Y96.877 E.47751
M73 Q4 S6
G1 X120.102 Y95.524 E.05275
M73 P4 R6
G1 X120.395 Y94.876 E.02703
G1 X120.912 Y94.099 E.03547
M204 S1000
;WIPE_START
G1 F8640
G1 X120.946 Y94.05 E-.01377
G1 X120.948 Y94.046 E-.00103
G1 X121.488 Y93.477 E-.18113
G1 X122.287 Y92.881 E-.23016
G1 X122.919 Y92.553 E-.16441
G1 X123.66 Y92.296 E-.1811
G1 X124.359 Y92.161 E-.16438
G1 X124.636 Y92.153 E-.06402
;WIPE_END
G1 Z.4 F720
; printing object Display Bracket Left.stl id:0 copy 0
G1 X125 Y114.024 F10800
G1 Z.2 F720
G1 E1 F2100
M204 S800
;TYPE:Perimeter
;WIDTH:0.711333
G1 F900
G1 X124.42 Y113.963 E.03241
;WIDTH:0.714469
G1 X124.001 Y113.82 E.02472
G1 X123.657 Y113.641 E.02165
;WIDTH:0.711858
G1 X123.254 Y113.32 E.02866
;WIDTH:0.710443
G1 X122.846 Y112.784 E.03739
;WIDTH:0.711869
G1 X122.737 Y112.582 E.01277
G1 X122.57 Y112.078 E.02953
;WIDTH:0.71082
G1 X122.509 Y111.549 E.02957
G1 X122.509 Y109.421 E.11818
;WIDTH:0.703842
G1 X122.53 Y108.483 E.05156
;WIDTH:0.664978
G1 X122.551 Y107.546 E.04848
;WIDTH:0.655829
G1 X122.645 Y106.854 E.03559
G1 X122.721 Y106.726 E.00759
;WIDTH:0.616872
G1 X122.797 Y106.598 E.0071
;WIDTH:0.577914
G1 X122.874 Y106.47 E.00664
;WIDTH:0.538957
G1 X122.95 Y106.342 E.00614
;WIDTH:0.499999
G1 X123.077 Y106.148 E.00881
G1 X123.451 Y105.744 E.02092
G1 X123.975 Y105.399 E.02384
G1 X124.743 Y105.184 E.03031
G1 X124.981 Y105.17 E.00906
G1 X125.568 Y105.239 E.02246
G1 X126.122 Y105.446 E.02248
G1 X126.576 Y105.761 E.021
G1 X127.069 Y106.376 E.02996
;WIDTH:0.549387
G1 X127.169 Y106.549 E.00842
;WIDTH:0.598096
G1 X127.268 Y106.723 E.00924
;WIDTH:0.646805
G1 X127.368 Y106.897 E.01008
G1 X127.448 Y107.495 E.0303
;WIDTH:0.668466
G1 X127.469 Y108.458 E.0501
;WIDTH:0.710819
G1 X127.491 Y109.421 E.0535
G1 X127.491 Y111.5 E.11546
G1 X127.439 Y112.032 E.02969
;WIDTH:0.717535
G1 X127.352 Y112.328 E.01731
G1 X127.147 Y112.796 E.02866
;WIDTH:0.715233
G1 X126.976 Y113.05 E.01712
G1 X126.626 Y113.425 E.02868
;WIDTH:0.712205
G1 X126.079 Y113.787 E.0365
;WIDTH:0.721528
G1 X125.612 Y113.943 E.02778
G1 X125.099 Y114.034 E.0294
;WIDTH:0.711333
G1 X125.059 Y114.03 E.00223
M204 S1000
G1 X125 Y113.453 F10800
M204 S800
;TYPE:External perimeter
;WIDTH:0.499999
G1 F900
G1 X124.485 Y113.404 E.01966
G1 X124.013 Y113.204 E.01948
G1 X123.65 Y112.922 E.01747
G1 X123.297 Y112.448 E.02246
G1 X123.119 Y111.967 E.01949
G1 X123.071 Y111.524 E.01694
G1 X123.071 Y107.546 E.15119
G1 X123.136 Y107.066 E.01841
M73 P4 R5
G1 X123.37 Y106.524 E.02244
M73 Q5 S6
G1 X123.787 Y106.055 E.02385
G1 X124.274 Y105.765 E.02154
G1 X124.848 Y105.629 E.02242
G1 X125.515 Y105.693 E.02547
G1 X125.987 Y105.893 E.01948
G1 X126.35 Y106.175 E.01747
G1 X126.703 Y106.649 E.02246
M73 P5 R5
G1 X126.881 Y107.13 E.01949
G1 X126.929 Y107.546 E.01592
G1 X126.929 Y111.551 E.15222
G1 X126.864 Y112.031 E.01841
G1 X126.63 Y112.573 E.02244
G1 X126.246 Y113.007 E.02202
G1 X125.791 Y113.305 E.02067
G1 X125.152 Y113.468 E.02506
G1 X125.06 Y113.459 E.00351
M204 S1000
;WIPE_START
G1 F8640
G1 X125 Y113.453 E-.01392
G1 X124.485 Y113.404 E-.11945
G1 X124.013 Y113.204 E-.11837
G1 X123.65 Y112.922 E-.10614
G1 X123.297 Y112.448 E-.13646
G1 X123.119 Y111.967 E-.11843
G1 X123.071 Y111.524 E-.10289
G1 X123.071 Y110.292 E-.28434
;WIPE_END
G1 Z.4 F720
G1 X125.01 Y99.01 F10800
G1 Z.2 F720
G1 E1 F2100
M204 S800
G1 F900
G1 X124.582 Y98.971 E.01633
G1 X124.126 Y98.778 E.01882
G1 X123.721 Y98.431 E.02027
G1 X123.461 Y98.01 E.01881
G1 X123.331 Y97.493 E.02026
G1 X123.391 Y96.881 E.02337
G1 X123.668 Y96.332 E.02337
G1 X124.126 Y95.919 E.02344
G1 X124.582 Y95.726 E.01882
G1 X125.113 Y95.677 E.02027
M73 Q5 S5
G1 X125.599 Y95.784 E.01891
G1 X126.058 Y96.049 E.02014
G1 X126.456 Y96.519 E.02341
G1 X126.657 Y97.101 E.0234
G1 X126.634 Y97.716 E.02339
G1 X126.391 Y98.282 E.02341
G1 X126.058 Y98.648 E.01881
G1 X125.596 Y98.914 E.02026
G1 X125.113 Y99.02 E.01879
G1 X125.07 Y99.016 E.00164
M204 S1000
;WIPE_START
G1 F8640
G1 X125.01 Y99.01 E-.01392
G1 X124.582 Y98.971 E-.09924
G1 X124.126 Y98.778 E-.11433
G1 X123.721 Y98.431 E-.12315
G1 X123.461 Y98.01 E-.11425
G1 X123.331 Y97.493 E-.12309
G1 X123.391 Y96.881 E-.14199
G1 X123.668 Y96.332 E-.14199
G1 X124.08 Y95.961 E-.12804
;WIPE_END
G1 Z.4 F720
G1 X122.841 Y97.496 F10800
G1 Z.2 F720
G1 E1 F2100
M204 S800
;TYPE:Perimeter
;WIDTH:0.555874
G1 F900
G1 X122.925 Y96.823 E.02893
;WIDTH:0.54958
G1 X123.11 Y96.352 E.02132
G1 X123.415 Y95.91 E.02262
;WIDTH:0.524716
G1 X123.823 Y95.565 E.02141
;WIDTH:0.52506
G1 X124.331 Y95.311 E.02277
;WIDTH:0.550912
G1 X124.801 Y95.221 E.02021
G1 X125.283 Y95.225 E.02036
;WIDTH:0.526374
G1 X125.798 Y95.357 E.02137
;WIDTH:0.526702
G1 X126.293 Y95.641 E.02296
;WIDTH:0.549614
G1 X126.658 Y96.001 E.0216
G1 X126.943 Y96.45 E.02241
;WIDTH:0.524966
G1 X127.103 Y96.959 E.02139
;WIDTH:0.537376
G1 X127.142 Y97.214 E.01061
;WIDTH:0.577991
G1 X127.146 Y97.481 E.01188
;WIDTH:0.618606
G1 X127.15 Y97.748 E.01278
;WIDTH:0.621224
G1 X127.15 Y97.764 E.00077
M204 S1000
;WIPE_START
G1 F8640
G1 X127.15 Y97.748 E-.00369
G1 X127.146 Y97.481 E-.06166
G1 X127.142 Y97.214 E-.06166
G1 X127.103 Y96.959 E-.05956
G1 X126.943 Y96.45 E-.1232
G1 X126.658 Y96.001 E-.1228
G1 X126.293 Y95.641 E-.11838
G1 X125.798 Y95.357 E-.13177
G1 X125.283 Y95.225 E-.12276
G1 X124.801 Y95.221 E-.1113
G1 X124.447 Y95.288 E-.08322
;WIPE_END
G1 Z.4 F720
G1 X124.964 Y114.689 F10800
G1 Z.2 F720
G1 E1 F2100
M204 S800
;WIDTH:0.720853
G1 F900
G1 X124.712 Y114.684 E.01421
G1 X124.199 Y114.599 E.02931
;WIDTH:0.714469
G1 X123.708 Y114.424 E.02911
G1 X123.252 Y114.173 E.02907
;WIDTH:0.711858
G1 X122.843 Y113.851 E.02895
;WIDTH:0.72138
G1 X122.498 Y113.46 E.02942
G1 X122.172 Y112.951 E.0341
;WIDTH:0.70912
G1 X121.975 Y112.434 E.03065
G1 X121.909 Y112.128 E.01734
M73 Q6 S5
;WIDTH:0.71082
G1 X121.841 Y111.524 E.03376
G1 X121.841 Y109.411 E.11735
G1 X121.908 Y108.424 E.05494
;WIDTH:0.668467
G1 X121.975 Y107.437 E.05146
;WIDTH:0.655829
G1 X122.058 Y106.705 E.03754
M73 P6 R5
G1 X122.052 Y106.556 E.0076
;WIDTH:0.616872
G1 X122.046 Y106.407 E.00712
;WIDTH:0.577914
G1 X122.04 Y106.258 E.00663
;WIDTH:0.538957
G1 X122.034 Y106.11 E.00611
;WIDTH:0.499999
G1 X122.755 Y98.142 E.30407
;WIDTH:0.527937
G1 X122.798 Y97.819 E.01314
;WIDTH:0.555874
G1 X122.841 Y97.496 E.0139
G1 X122.868 Y97.609 E.00496
;WIDTH:0.539377
G1 X123.1 Y98.315 E.03068
;WIDTH:0.499999
G1 X123.424 Y98.778 E.02148
G1 X124.008 Y99.236 E.02821
G1 X124.54 Y99.426 E.02147
G1 X125.281 Y99.462 E.0282
G1 X125.824 Y99.31 E.02143
G1 X126.45 Y98.912 E.02819
G1 X126.807 Y98.473 E.02151
;WIDTH:0.540408
G1 X126.921 Y98.236 E.01088
;WIDTH:0.580816
G1 X127.036 Y98 E.01174
;WIDTH:0.621224
G1 X127.15 Y97.764 E.0126
G1 X127.182 Y97.895 E.00648
;WIDTH:0.580278
G1 X127.215 Y98.025 E.00599
;WIDTH:0.539332
G1 X127.282 Y98.554 E.02201
;WIDTH:0.499999
G1 X127.906 Y105.446 E.26301
;WIDTH:0.500677
G1 X127.989 Y106.366 E.03516
;WIDTH:0.549387
G1 X127.977 Y106.5 E.00567
;WIDTH:0.598096
G1 X127.965 Y106.633 E.00616
;WIDTH:0.646805
G1 X127.952 Y106.766 E.00671
G1 X127.983 Y107.008 E.01225
;WIDTH:0.629329
G1 X128.031 Y107.519 E.02503
;WIDTH:0.664977
G1 X128.095 Y108.465 E.04904
;WIDTH:0.703841
G1 X128.159 Y109.411 E.05211
;WIDTH:0.710819
G1 X128.159 Y111.534 E.1179
;WIDTH:0.71279
G1 X128.105 Y112.095 E.03139
;WIDTH:0.717535
G1 X127.971 Y112.598 E.0292
G1 X127.758 Y113.073 E.0292
;WIDTH:0.716075
G1 X127.47 Y113.506 E.02911
G1 X127.114 Y113.886 E.02915
G1 X126.701 Y114.202 E.02911
;WIDTH:0.715107
G1 X126.242 Y114.449 E.02913
;WIDTH:0.721528
G1 X125.746 Y114.607 E.02937
G1 X125.233 Y114.694 E.02936
;WIDTH:0.720853
G1 X125.024 Y114.69 E.01178
M204 S1000
G1 X124.987 Y115.251 F10800
M204 S800
;TYPE:External perimeter
;WIDTH:0.499999
G1 F900
G1 X124.619 Y115.244 E.01399
G1 X124.016 Y115.131 E.02332
G1 X123.44 Y114.92 E.02331
G1 X122.906 Y114.617 E.02333
G1 X122.354 Y114.148 E.02753
G1 X122.023 Y113.771 E.01907
G1 X121.618 Y113.096 E.02992
G1 X121.445 Y112.619 E.01928
G1 X121.358 Y112.227 E.01526
G1 X121.279 Y111.524 E.02689
G1 X121.279 Y109.38 E.08149
G1 X122.388 Y97.125 E.46767
G1 X122.487 Y96.605 E.02012
M73 Q7 S5
G1 X122.682 Y96.127 E.01962
M73 P7 R5
G1 X122.967 Y95.696 E.01964
G1 X123.329 Y95.33 E.01956
G1 X123.805 Y95.019 E.02161
G1 X124.28 Y94.833 E.01939
G1 X124.785 Y94.739 E.01952
G1 X125.331 Y94.76 E.02077
G1 X125.766 Y94.856 E.01693
G1 X126.251 Y95.049 E.01984
G1 X126.67 Y95.329 E.01915
G1 X127.033 Y95.696 E.01962
G1 X127.318 Y96.127 E.01964
G1 X127.513 Y96.605 E.01962
G1 X127.612 Y97.125 E.02012
G1 X128.721 Y109.38 E.46767
G1 X128.721 Y111.61 E.08475
G1 X128.637 Y112.291 E.02608
G1 X128.489 Y112.825 E.02106
G1 X128.206 Y113.42 E.02504
G1 X127.886 Y113.888 E.02155
G1 X127.423 Y114.361 E.02516
G1 X126.969 Y114.699 E.02151
G1 X126.327 Y115.013 E.02716
G1 X125.839 Y115.167 E.01945
G1 X125.233 Y115.256 E.02328
G1 X125.047 Y115.252 E.00707
M204 S1000
;WIPE_START
G1 F8640
G1 X124.987 Y115.251 E-.01386
G1 X124.619 Y115.244 E-.08499
G1 X124.016 Y115.131 E-.14166
G1 X123.44 Y114.92 E-.14164
G1 X122.906 Y114.617 E-.14177
G1 X122.354 Y114.148 E-.16725
G1 X122.023 Y113.771 E-.11584
G1 X121.618 Y113.096 E-.18176
G1 X121.601 Y113.05 E-.01123
;WIPE_END
G1 Z.4 F720
G1 X126.652 Y98.962 F10800
G1 Z.2 F720
G1 E1 F2100
M204 S800
;TYPE:Solid infill
;WIDTH:0.511727
G1 F900
G1 X126.957 Y99.266 E.01679
G1 X127.023 Y99.995 E.02853
G1 X126.434 Y99.407 E.03244
G1 X126.014 Y99.649 E.0189
G1 X127.089 Y100.724 E.05926
G1 X127.154 Y101.453 E.02853
G1 X125.511 Y99.809 E.0906
G1 X125.354 Y99.844 E.00627
G1 X125.097 Y99.866 E.01005
G1 X124.886 Y99.847 E.00826
G1 X127.22 Y102.182 E.1287
G1 X127.286 Y102.911 E.02853
G1 X124.051 Y99.676 E.17834
G1 X123.845 Y99.589 E.00872
G1 X123.585 Y99.428 E.01192
M73 Q8 S5
G1 X123.162 Y99.065 E.02173
G1 X123.071 Y98.959 E.00545
G1 X123.038 Y99.326 E.01436
G1 X127.352 Y103.64 E.23782
G1 X127.418 Y104.369 E.02853
M73 P8 R5
G1 X122.983 Y99.933 E.24452
G1 X122.928 Y100.541 E.0238
G1 X127.484 Y105.098 E.25119
G1 X127.55 Y105.827 E.02853
G1 X122.873 Y101.149 E.25786
G1 X122.818 Y101.757 E.0238
G1 X126.055 Y104.994 E.17845
G1 X125.903 Y104.929 E.00644
G1 X125.624 Y104.854 E.01126
G1 X125.204 Y104.807 E.01647
G1 X122.763 Y102.365 E.1346
G1 X122.708 Y102.973 E.0238
G1 X124.562 Y104.827 E.10221
G1 X124.031 Y104.959 E.02133
G1 X122.653 Y103.581 E.07597
G1 X122.598 Y104.189 E.0238
G1 X123.587 Y105.178 E.05452
G1 X123.393 Y105.294 E.00881
G1 X123.198 Y105.452 E.00978
G1 X122.543 Y104.797 E.03611
G1 X122.487 Y105.405 E.0238
G1 X122.876 Y105.793 E.02142
G1 X122.783 Y105.894 E.00535
G1 X122.596 Y106.177 E.01322
G1 X122.243 Y105.824 E.01946
M204 S1000
;LAYER_CHANGE
;Z:0.35
;HEIGHT:0.15
;BEFORE_LAYER_CHANGE
G92 E0.0
;0.35


;WIPE_START
G1 F8640
G1 X122.596 Y106.177 E-.11527
G1 X122.783 Y105.894 E-.07832
G1 X122.876 Y105.793 E-.0317
G1 X122.487 Y105.405 E-.12686
G1 X122.543 Y104.797 E-.14098
G1 X123.198 Y105.452 E-.21389
G1 X123.393 Y105.294 E-.05795
G1 X123.587 Y105.178 E-.05219
G1 X123.027 Y104.618 E-.18284
;WIPE_END
G1 Z.35 F720
;AFTER_LAYER_CHANGE
;0.35
M104 S230 ; set temperature
M140 S85 ; set bed temperature
; stop printing object Display Bracket Left.stl id:0 copy 0
G1 Z.55
G1 X118.564 Y105.495 F10800
G1 Z.35 F720
G1 E1 F2100
M73 Q9 S5
;TYPE:Skirt/Brim
;WIDTH:0.5
G1 F1973
G1 X119.338 Y96.836 E.25362
G1 X119.505 Y95.894 E.02791
M73 P9 R5
G1 X119.763 Y95.138 E.0233
G1 X120.141 Y94.4 E.02419
G1 X120.602 Y93.748 E.0233
G1 X121.172 Y93.147 E.02417
G1 X122.039 Y92.497 E.03161
G1 X122.748 Y92.129 E.0233
G1 X123.531 Y91.857 E.02418
G1 X124.316 Y91.706 E.02332
G1 X125.399 Y91.678 E.03161
G1 X126.22 Y91.797 E.0242
G1 X126.986 Y92.022 E.02329
G1 X127.739 Y92.368 E.02418
G1 X128.634 Y92.978 E.0316
G1 X129.211 Y93.531 E.02332
G1 X129.722 Y94.184 E.02419
G1 X130.119 Y94.877 E.0233
G1 X130.424 Y95.647 E.02416
G1 X130.662 Y96.836 E.03538
G1 X131.758 Y108.936 E.35445
G1 X131.786 Y111.548 E.07621
G1 X131.673 Y112.774 E.03592
G1 X131.257 Y114.171 E.04252
G1 X130.618 Y115.351 E.03915
G1 X129.676 Y116.464 E.04254
G1 X128.617 Y117.288 E.03915
G1 X127.308 Y117.928 E.04251
G1 X126.007 Y118.257 E.03915
G1 X124.889 Y118.332 E.03269
G1 X123.993 Y118.257 E.02623
G1 X123.228 Y118.097 E.0228
