; generated by PrusaSlicer 2.9.4 on 2026-03-20 at 00:09:54 UTC


;
;
; 

; external perimeters extrusion width = 0.45mm
; perimeters extrusion width = 0.45mm
; infill extrusion width = 0.45mm
; solid infill extrusion width = 0.45mm
; top infill extrusion width = 0.40mm
; first layer extrusion width = 0.50mm

M73 P0 R6
M73 Q0 S6
M201 X1000 Y1000 Z200 E5000 ; sets maximum accelerations, mm/sec^2
M203 X200 Y200 Z12 E120 ; sets maximum feedrates, mm / sec
M204 S1250 T1250 ; sets acceleration (S) and retract acceleration (R), mm/sec^2
M205 X8.00 Y8.00 Z0.40 E4.50 ; sets the jerk limits, mm/sec
M205 S0 T0 ; sets the minimum extruding and travel feed rate, mm/sec

; printing object Display Bracket Right.stl id:0 copy 0
; stop printing object Display Bracket Right.stl id:0 copy 0

;TYPE:Custom
M862.3 P "MK3S" ; printer model check
M862.1 P0.4 ; nozzle diameter check
M115 U3.14.1 ; tell printer latest fw version
G90 ; use absolute coordinates
M83 ; extruder relative mode
M104 S240 ; set extruder temp
M140 S90 ; set bed temp
M190 S90 ; wait for bed temp
M109 S240 ; wait for extruder temp
G28 W ; home all without mesh bed level
G80 X117.994 Y91.4417 W14.0116 H27.1141 ; mesh bed levelling

G1 Z0.2 F720
G1 Y-3 F1000 ; go outside print area
G92 E0
G1 X60 E9 F1000 ; intro line
G1 X100 E12.5 F1000 ; intro line
M73 P1 R6
M73 Q1 S6

G92 E0
M221 S95

; Don't change E values below. Excessive value can damage the printer.
M907 E430 ; set extruder motor current
G21 ; set units to millimeters
G90 ; use absolute coordinates
M83 ; use relative distances for extrusion

M900 K0.08 ; Filament gcode LA 1.5
M900 K45 ; Filament gcode LA 1.0




M107
;LAYER_CHANGE
;Z:0.2
;HEIGHT:0.2
G1 E-1 F2100
G1 Z.4 F720
G1 X120.77 Y93.547 F10800
G1 Z.2 F720
G1 E1 F2100
M204 S800
;TYPE:Skirt/Brim
;WIDTH:0.5
G1 F900
G1 X121.357 Y92.982 E.03097
G1 X122.031 Y92.501 E.03147
G1 X122.74 Y92.133 E.03036
G1 X123.772 Y91.801 E.0412
M73 Q2 S6
G1 X124.593 Y91.682 E.03153
G1 X125.391 Y91.682 E.03033
G1 X126.212 Y91.801 E.03153
G1 X126.977 Y92.027 E.03032
G1 X127.73 Y92.372 E.03148
M73 P2 R6
G1 X128.626 Y92.982 E.0412
G1 X129.203 Y93.535 E.03038
G1 X129.714 Y94.188 E.03151
G1 X130.11 Y94.881 E.03034
G1 X130.415 Y95.651 E.03148
G1 X130.654 Y96.84 E.04609
G1 X131.75 Y108.941 E.4618
G1 X131.777 Y111.552 E.09924
G1 X131.664 Y112.777 E.04676
G1 X131.249 Y114.172 E.05532
G1 X130.611 Y115.351 E.05095
G1 X129.67 Y116.462 E.05534
G1 X128.613 Y117.285 E.05091
G1 X127.305 Y117.924 E.05533
G1 X126.006 Y118.253 E.05093
G1 X124.889 Y118.327 E.04255
G1 X123.994 Y118.253 E.03413
G1 X123.23 Y118.093 E.02967
G1 X121.873 Y117.564 E.05535
G1 X120.751 Y116.83 E.05096
G1 X120.091 Y116.223 E.03408
G1 X119.586 Y115.626 E.02972
G1 X118.84 Y114.376 E.05533
G1 X118.405 Y113.108 E.05095
G1 X118.239 Y112.002 E.04251
G1 X118.223 Y109.183 E.10714
G1 X119.329 Y96.84 E.47099
G1 X119.497 Y95.898 E.03637
M73 P3 R6
M73 Q3 S6
G1 X119.755 Y95.143 E.03032
G1 X120.133 Y94.403 E.03158
G1 X120.734 Y93.595 E.03827
M204 S1000
G1 X121.07 Y93.913 F10800
M204 S800
G1 F900
G1 X121.48 Y93.481 E.02264
G1 X122.279 Y92.885 E.03788
G1 X122.911 Y92.557 E.02706
G1 X123.859 Y92.25 E.03787
G1 X124.636 Y92.137 E.02984
G1 X125.347 Y92.137 E.02702
G1 X126.125 Y92.25 E.02988
G1 X126.807 Y92.451 E.02702
G1 X127.52 Y92.778 E.02981
G1 X128.343 Y93.341 E.0379
G1 X128.857 Y93.834 E.02707
G1 X129.34 Y94.452 E.02981
G1 X129.694 Y95.07 E.02707
G1 X129.983 Y95.799 E.0298
G1 X130.199 Y96.881 E.04193
G1 X131.294 Y108.982 E.46179
G1 X131.32 Y111.552 E.09768
G1 X131.217 Y112.683 E.04316
G1 X130.823 Y114.006 E.05246
G1 X130.239 Y115.085 E.04663
G1 X129.347 Y116.139 E.05248
G1 X128.379 Y116.892 E.04661
G1 X127.139 Y117.498 E.05245
G1 X125.95 Y117.8 E.04662
G1 X124.908 Y117.871 E.03969
G1 X123.36 Y117.655 E.0594
G1 X122.074 Y117.153 E.05247
G1 X121.046 Y116.482 E.04666
G1 X119.958 Y115.361 E.05937
G1 X119.177 Y114.006 E.05944
G1 X118.783 Y112.683 E.05246
G1 X118.682 Y111.645 E.03964
G1 X118.68 Y109.183 E.09357
G1 X119.784 Y96.881 E.46943
M73 Q4 S6
G1 X120.093 Y95.528 E.05275
M73 P4 R6
G1 X120.387 Y94.879 E.02708
G1 X120.939 Y94.051 E.03782
G1 X121.029 Y93.957 E.00495
M204 S1000
;WIPE_START
G1 F8640
G1 X121.07 Y93.913 E-.01389
G1 X121.48 Y93.481 E-.13752
G1 X122.279 Y92.885 E-.23016
G1 X122.911 Y92.557 E-.16441
G1 X123.859 Y92.25 E-.23009
G1 X124.636 Y92.137 E-.1813
G1 X124.821 Y92.137 E-.04263
;WIPE_END
G1 Z.4 F720
; printing object Display Bracket Right.stl id:0 copy 0
G1 X124.991 Y114.033 F10800
G1 Z.2 F720
G1 E1 F2100
M204 S800
;TYPE:Perimeter
;WIDTH:0.708181
G1 F900
G1 X124.412 Y113.964 E.03225
;WIDTH:0.704377
G1 X123.83 Y113.748 E.03414
;WIDTH:0.703277
G1 X123.356 Y113.42 E.03165
;WIDTH:0.713543
G1 X123.056 Y113.083 E.02516
G1 X122.752 Y112.627 E.03056
;WIDTH:0.697965
G1 X122.578 Y112.137 E.02832
;WIDTH:0.702442
G1 X122.505 Y111.585 E.03053
G1 X122.505 Y109.24 E.1286
G1 X122.524 Y108.395 E.04635
;WIDTH:0.664267
G1 X122.543 Y107.55 E.04367
;WIDTH:0.655809
G1 X122.636 Y106.858 E.03558
G1 X122.713 Y106.73 E.00761
;WIDTH:0.616857
G1 X122.789 Y106.602 E.0071
;WIDTH:0.577904
G1 X122.865 Y106.475 E.00658
;WIDTH:0.538952
G1 X122.942 Y106.347 E.00616
;WIDTH:0.499999
G1 X123.068 Y106.152 E.00882
G1 X123.443 Y105.748 E.02095
G1 X123.966 Y105.403 E.02381
G1 X124.734 Y105.188 E.03031
G1 X124.972 Y105.174 E.00906
G1 X125.559 Y105.243 E.02246
G1 X126.113 Y105.451 E.02249
G1 X126.567 Y105.765 E.02098
G1 X127.061 Y106.38 E.02998
;WIDTH:0.548935
G1 X127.16 Y106.553 E.00839
;WIDTH:0.597871
G1 X127.26 Y106.727 E.00926
;WIDTH:0.646807
G1 X127.359 Y106.901 E.01005
G1 X127.439 Y107.5 E.03034
;WIDTH:0.66845
G1 X127.461 Y108.462 E.05005
;WIDTH:0.710796
G1 X127.483 Y109.425 E.05349
G1 X127.483 Y111.505 E.11551
G1 X127.431 Y112.036 E.02963
;WIDTH:0.717229
G1 X127.345 Y112.33 E.01718
G1 X127.14 Y112.8 E.02875
;WIDTH:0.719437
G1 X126.817 Y113.22 E.0298
G1 X126.443 Y113.567 E.0287
;WIDTH:0.706445
G1 X125.981 Y113.834 E.02944
;WIDTH:0.715277
G1 X125.385 Y113.995 E.03451
G1 X125.051 Y114.029 E.01877
M204 S1000
G1 X124.991 Y113.468 F10800
M204 S800
;TYPE:External perimeter
;WIDTH:0.499999
G1 F900
G1 X124.477 Y113.408 E.01967
G1 X124.005 Y113.208 E.01948
G1 X123.642 Y112.926 E.01747
G1 X123.289 Y112.452 E.02246
G1 X123.11 Y111.971 E.01951
G1 X123.063 Y111.505 E.0178
G1 X123.063 Y107.55 E.15031
G1 X123.127 Y107.07 E.0184
G1 X123.361 Y106.528 E.02244
G1 X123.778 Y106.059 E.02385
M73 Q5 S6
G1 X124.266 Y105.769 E.02157
G1 X124.84 Y105.633 E.02242
G1 X125.506 Y105.697 E.02543
G1 X125.978 Y105.897 E.01948
G1 X126.341 Y106.179 E.01747
G1 X126.694 Y106.653 E.02246
G1 X126.873 Y107.134 E.01951
M73 P5 R5
G1 X126.92 Y107.55 E.01591
G1 X126.92 Y111.555 E.15222
G1 X126.856 Y112.035 E.0184
G1 X126.622 Y112.577 E.02244
G1 X126.205 Y113.046 E.02385
G1 X125.757 Y113.323 E.02002
G1 X125.064 Y113.477 E.02698
G1 X125.051 Y113.475 E.0005
M204 S1000
;WIPE_START
G1 F8640
G1 X124.991 Y113.468 E-.01395
G1 X124.477 Y113.408 E-.11949
G1 X124.005 Y113.208 E-.11837
G1 X123.642 Y112.926 E-.10614
G1 X123.289 Y112.452 E-.13646
G1 X123.11 Y111.971 E-.11851
G1 X123.063 Y111.505 E-.10815
G1 X123.063 Y110.297 E-.27893
;WIPE_END
G1 Z.4 F720
G1 X125.001 Y99.004 F10800
G1 Z.2 F720
G1 E1 F2100
M204 S800
G1 F900
G1 X124.574 Y98.975 E.01627
G1 X124.129 Y98.791 E.0183
G1 X123.796 Y98.526 E.01617
G1 X123.488 Y98.091 E.02026
G1 X123.323 Y97.498 E.02339
G1 X123.383 Y96.885 E.02341
G1 X123.589 Y96.436 E.01878
G1 X123.948 Y96.042 E.02026
G1 X124.493 Y95.753 E.02345
G1 X125.065 Y95.685 E.02189
G1 X125.54 Y95.766 E.01831
G1 X126.049 Y96.053 E.02221
G1 X126.448 Y96.524 E.02346
G1 X126.649 Y97.105 E.02337
G1 X126.626 Y97.72 E.02339
G1 X126.383 Y98.286 E.02341
G1 X126.061 Y98.644 E.0183
G1 X125.701 Y98.87 E.01615
G1 X125.189 Y99.016 E.02023
G1 X125.061 Y99.008 E.00487
M204 S1000
;WIPE_START
G1 F8640
G1 X125.001 Y99.004 E-.01388
G1 X124.574 Y98.975 E-.09882
G1 X124.129 Y98.791 E-.11119
G1 X123.796 Y98.526 E-.09827
G1 X123.488 Y98.091 E-.12307
G1 X123.323 Y97.498 E-.14213
M73 Q5 S5
G1 X123.383 Y96.885 E-.14222
G1 X123.589 Y96.436 E-.11407
G1 X123.948 Y96.042 E-.12308
G1 X124.075 Y95.975 E-.03327
;WIPE_END
G1 Z.4 F720
G1 X122.833 Y97.502 F10800
G1 Z.2 F720
G1 E1 F2100
M204 S800
;TYPE:Perimeter
;WIDTH:0.556114
G1 F900
G1 X122.916 Y96.827 E.02902
;WIDTH:0.532824
G1 X123.095 Y96.353 E.02064
;WIDTH:0.546304
G1 X123.333 Y96.004 E.01768
G1 X123.738 Y95.616 E.02348
;WIDTH:0.526868
G1 X124.283 Y95.332 E.02473
;WIDTH:0.55092
G1 X124.793 Y95.225 E.02201
G1 X125.275 Y95.229 E.02036
;WIDTH:0.526364
G1 X125.789 Y95.361 E.02133
;WIDTH:0.526672
G1 X126.284 Y95.646 E.02298
;WIDTH:0.549644
G1 X126.649 Y96.005 E.02157
G1 X126.935 Y96.455 E.02247
;WIDTH:0.52493
G1 X127.095 Y96.963 E.02135
;WIDTH:0.53751
G1 X127.134 Y97.217 E.01057
;WIDTH:0.577953
G1 X127.138 Y97.484 E.01188
;WIDTH:0.618396
G1 X127.142 Y97.752 E.01283
;WIDTH:0.621092
G1 X127.142 Y97.768 E.00077
M204 S1000
;WIPE_START
G1 F8640
G1 X127.142 Y97.752 E-.00369
G1 X127.138 Y97.484 E-.06189
G1 X127.134 Y97.217 E-.06166
G1 X127.095 Y96.963 E-.05934
G1 X126.935 Y96.455 E-.12298
G1 X126.649 Y96.005 E-.12312
G1 X126.284 Y95.646 E-.11821
G1 X125.789 Y95.361 E-.13189
G1 X125.275 Y95.229 E-.12254
G1 X124.793 Y95.225 E-.1113
G1 X124.439 Y95.299 E-.08338
;WIPE_END
G1 Z.4 F720
G1 X124.965 Y114.694 F10800
G1 Z.2 F720
G1 E1 F2100
M204 S800
;WIDTH:0.715356
G1 F900
G1 X124.51 Y114.657 E.02552
G1 X124.15 Y114.579 E.0206
;WIDTH:0.703277
G1 X123.566 Y114.353 E.03438
;WIDTH:0.706032
G1 X123.245 Y114.167 E.02046
G1 X122.848 Y113.853 E.02791
;WIDTH:0.713543
G1 X122.504 Y113.463 E.029
G1 X122.216 Y113.024 E.02928
;WIDTH:0.706283
G1 X122.014 Y112.551 E.02837
G1 X121.89 Y112.044 E.02879
;WIDTH:0.704487
G1 X121.845 Y111.505 E.02975
M73 Q6 S5
;WIDTH:0.702442
G1 X121.845 Y109.23 E.12476
G1 X121.906 Y108.336 E.04914
;WIDTH:0.664267
G1 X121.967 Y107.441 E.04635
;WIDTH:0.655809
G1 X122.05 Y106.709 E.03754
G1 X122.044 Y106.56 E.0076
M73 P6 R5
;WIDTH:0.616857
G1 X122.037 Y106.411 E.00712
;WIDTH:0.577904
G1 X122.031 Y106.263 E.00659
;WIDTH:0.538952
G1 X122.025 Y106.114 E.00615
;WIDTH:0.499999
G1 X122.746 Y98.147 E.30403
;WIDTH:0.528057
G1 X122.79 Y97.825 E.01311
;WIDTH:0.556114
G1 X122.833 Y97.502 E.0139
G1 X122.86 Y97.615 E.00496
;WIDTH:0.539454
G1 X123.01 Y98.127 E.02203
;WIDTH:0.499999
G1 X123.115 Y98.356 E.00957
G1 X123.57 Y98.941 E.02817
G1 X123.999 Y99.24 E.01987
G1 X124.532 Y99.43 E.02151
G1 X125.063 Y99.479 E.02027
G1 X125.314 Y99.456 E.00958
G1 X126.017 Y99.222 E.02816
G1 X126.442 Y98.916 E.0199
G1 X126.798 Y98.477 E.02148
;WIDTH:0.540364
G1 X126.913 Y98.241 E.01086
;WIDTH:0.580728
G1 X127.027 Y98.005 E.01172
;WIDTH:0.621092
G1 X127.142 Y97.768 E.01266
G1 X127.174 Y97.899 E.00648
;WIDTH:0.580139
G1 X127.207 Y98.03 E.00603
;WIDTH:0.539186
G1 X127.274 Y98.559 E.022
;WIDTH:0.499999
G1 X127.898 Y105.451 E.26301
;WIDTH:0.500687
G1 X127.981 Y106.371 E.03516
;WIDTH:0.549394
G1 X127.969 Y106.504 E.00562
;WIDTH:0.598101
G1 X127.956 Y106.637 E.00617
;WIDTH:0.646807
G1 X127.944 Y106.77 E.00671
G1 X127.974 Y107.012 E.01224
;WIDTH:0.62935
G1 X128.022 Y107.523 E.02503
;WIDTH:0.664967
G1 X128.086 Y108.469 E.04904
;WIDTH:0.703829
G1 X128.151 Y109.415 E.05211
;WIDTH:0.710796
G1 X128.151 Y111.538 E.1179
;WIDTH:0.712768
G1 X128.097 Y112.097 E.03128
;WIDTH:0.717229
G1 X127.963 Y112.599 E.02913
G1 X127.651 Y113.247 E.04032
;WIDTH:0.719437
G1 X127.331 Y113.659 E.02935
G1 X126.955 Y114.019 E.02928
;WIDTH:0.712854
G1 X126.521 Y114.305 E.02895
G1 X126.047 Y114.518 E.02895
;WIDTH:0.715356
G1 X125.545 Y114.648 E.02899
G1 X125.027 Y114.7 E.02911
G1 X125.024 Y114.699 E.00018
M204 S1000
G1 X124.988 Y115.264 F10800
M204 S800
;TYPE:External perimeter
;WIDTH:0.499999
G1 F900
G1 X124.389 Y115.214 E.02284
G1 X123.866 Y115.082 E.0205
G1 X123.342 Y114.865 E.02156
G1 X122.924 Y114.628 E.01826
G1 X122.486 Y114.284 E.02117
G1 X122.071 Y113.833 E.02329
G1 X121.708 Y113.265 E.02562
G1 X121.489 Y112.758 E.02099
G1 X121.338 Y112.163 E.02333
G1 X121.287 Y111.542 E.02368
G1 X121.287 Y109.2 E.08901
G1 X122.38 Y97.129 E.46065
G1 X122.479 Y96.609 E.02012
M73 Q7 S5
G1 X122.674 Y96.131 E.01962
G1 X122.958 Y95.7 E.01962
M73 P7 R5
G1 X123.321 Y95.334 E.01959
G1 X123.797 Y95.023 E.02161
G1 X124.271 Y94.837 E.01935
G1 X124.777 Y94.743 E.01956
G1 X125.323 Y94.764 E.02077
G1 X125.758 Y94.86 E.01693
G1 X126.242 Y95.053 E.0198
G1 X126.661 Y95.333 E.01915
G1 X127.025 Y95.7 E.01965
G1 X127.31 Y96.131 E.01964
G1 X127.504 Y96.609 E.01961
G1 X127.604 Y97.129 E.02013
G1 X128.713 Y109.384 E.46767
G1 X128.713 Y111.542 E.08202
G1 X128.662 Y112.163 E.02368
G1 X128.511 Y112.758 E.02333
G1 X128.289 Y113.265 E.02104
G1 X128.075 Y113.628 E.01602
G1 X127.731 Y114.067 E.0212
G1 X127.28 Y114.482 E.02329
G1 X126.767 Y114.817 E.02329
G1 X126.205 Y115.064 E.02333
G1 X125.611 Y115.214 E.02328
G1 X125.047 Y115.261 E.02151
M204 S1000
;WIPE_START
G1 F8640
G1 X124.988 Y115.264 E-.01364
G1 X124.389 Y115.214 E-.13879
G1 X123.866 Y115.082 E-.12455
G1 X123.342 Y114.865 E-.13096
G1 X122.924 Y114.628 E-.11095
G1 X122.486 Y114.284 E-.1286
G1 X122.071 Y113.833 E-.14152
G1 X121.708 Y113.265 E-.15565
G1 X121.613 Y113.045 E-.05534
;WIPE_END
G1 Z.4 F720
G1 X126.644 Y98.966 F10800
G1 Z.2 F720
G1 E1 F2100
M204 S800
;TYPE:Solid infill
;WIDTH:0.511737
G1 F900
G1 X126.948 Y99.271 E.01679
G1 X127.014 Y99.999 E.0285
G1 X126.43 Y99.415 E.0322
G1 X126.222 Y99.553 E.00973
G1 X126.004 Y99.653 E.00935
G1 X127.08 Y100.728 E.05929
G1 X127.146 Y101.457 E.02853
G1 X125.497 Y99.808 E.09091
G1 X125.091 Y99.871 E.01602
G1 X124.877 Y99.851 E.00838
G1 X127.212 Y102.186 E.12873
G1 X127.278 Y102.915 E.02853
G1 X124.043 Y99.68 E.17834
G1 X123.839 Y99.594 E.00863
G1 X123.627 Y99.472 E.00953
G1 X123.326 Y99.244 E.01472
G1 X123.063 Y98.955 E.01523
G1 X123.03 Y99.33 E.01467
M73 Q8 S5
G1 X127.344 Y103.644 E.23783
G1 X127.41 Y104.373 E.02853
M73 P8 R5
G1 X122.974 Y99.938 E.24453
G1 X122.919 Y100.546 E.0238
G1 X127.476 Y105.102 E.2512
G1 X127.542 Y105.831 E.02853
G1 X122.864 Y101.154 E.25787
G1 X122.809 Y101.762 E.0238
G1 X126.046 Y104.998 E.17843
G1 X125.895 Y104.933 E.00641
G1 X125.616 Y104.858 E.01126
G1 X125.196 Y104.811 E.01647
G1 X122.754 Y102.37 E.1346
G1 X122.699 Y102.978 E.0238
G1 X124.553 Y104.832 E.10221
G1 X124.022 Y104.964 E.02133
G1 X122.644 Y103.586 E.07597
G1 X122.589 Y104.193 E.02376
G1 X123.578 Y105.182 E.05452
G1 X123.384 Y105.298 E.00881
G1 X123.189 Y105.457 E.00981
G1 X122.534 Y104.801 E.03614
G1 X122.479 Y105.409 E.0238
G1 X122.867 Y105.798 E.02142
G1 X122.774 Y105.898 E.00532
G1 X122.588 Y106.181 E.0132
G1 X122.235 Y105.828 E.01946
M204 S1000
;LAYER_CHANGE
;Z:0.35
;HEIGHT:0.15
;BEFORE_LAYER_CHANGE
G92 E0.0
;0.35


;WIPE_START
G1 F8640
G1 X122.588 Y106.181 E-.11527
G1 X122.774 Y105.898 E-.0782
G1 X122.867 Y105.798 E-.03153
G1 X122.479 Y105.409 E-.12686
G1 X122.534 Y104.801 E-.14096
G1 X123.189 Y105.457 E-.21405
G1 X123.384 Y105.298 E-.0581
G1 X123.578 Y105.182 E-.05219
G1 X123.018 Y104.622 E-.18284
;WIPE_END
G1 Z.35 F720
;AFTER_LAYER_CHANGE
;0.35
M104 S230 ; set temperature
M140 S85 ; set bed temperature
; stop printing object Display Bracket Right.stl id:0 copy 0
G1 Z.55
G1 X118.553 Y105.498 F10800
G1 Z.35 F720
G1 E1 F2100
;TYPE:Skirt/Brim
;WIDTH:0.5
G1 F1976
M73 Q9 S5
G1 X119.329 Y96.84 E.2536
G1 X119.497 Y95.898 E.02792
M73 P9 R5
G1 X119.755 Y95.143 E.02328
G1 X120.133 Y94.403 E.02424
G1 X120.77 Y93.547 E.03113
G1 X121.357 Y92.982 E.02377
G1 X122.031 Y92.501 E.02416
G1 X122.74 Y92.133 E.0233
G1 X123.772 Y91.801 E.03163
G1 X124.593 Y91.682 E.0242
G1 X125.391 Y91.682 E.02328
G1 X126.212 Y91.801 E.0242
G1 X126.977 Y92.027 E.02327
G1 X127.73 Y92.372 E.02416
G1 X128.626 Y92.982 E.03162
G1 X129.203 Y93.535 E.02332
G1 X129.714 Y94.188 E.02419
G1 X130.11 Y94.881 E.02329
G1 X130.415 Y95.651 E.02416
G1 X130.654 Y96.84 E.03538
G1 X131.75 Y108.941 E.35448
G1 X131.777 Y111.552 E.07618
G1 X131.664 Y112.777 E.03589
G1 X131.249 Y114.172 E.04246
G1 X130.611 Y115.351 E.03911
G1 X129.67 Y116.462 E.04248
G1 X128.613 Y117.285 E.03908
G1 X127.305 Y117.924 E.04247
G1 X126.006 Y118.253 E.03909
G1 X124.889 Y118.327 E.03266
G1 X123.994 Y118.253 E.0262
G1 X123.23 Y118.093 E.02277
G1 X121.873 Y117.564 E.04249
