; generated by PrusaSlicer 2.9.4 on 2026-03-18 at 00:22:11 UTC


;
;
; 

; external perimeters extrusion width = 0.45mm
; perimeters extrusion width = 0.45mm
; infill extrusion width = 0.45mm
; solid infill extrusion width = 0.45mm
; top infill extrusion width = 0.40mm
; first layer extrusion width = 0.42mm

M73 P0 R6
M73 Q0 S6
M201 X1000 Y1000 Z200 E5000 ; sets maximum accelerations, mm/sec^2
M203 X200 Y200 Z12 E120 ; sets maximum feedrates, mm / sec
M204 S1250 T1250 ; sets acceleration (S) and retract acceleration (R), mm/sec^2
M205 X8.00 Y8.00 Z0.40 E4.50 ; sets the jerk limits, mm/sec
M205 S0 T0 ; sets the minimum extruding and travel feed rate, mm/sec

; printing object Display Bracket Right.stl id:0 copy 0
; stop printing object Display Bracket Right.stl id:0 copy 0

;TYPE:Custom
M862.3 P "MK3S" ; printer model check
M862.1 P0.4 ; nozzle diameter check
M115 U3.14.1 ; tell printer latest fw version
G90 ; use absolute coordinates
M83 ; extruder relative mode
M104 S240 ; set extruder temp
M140 S90 ; set bed temp
M190 S90 ; wait for bed temp
M109 S240 ; wait for extruder temp
G28 W ; home all without mesh bed level
G80 X118.154 Y91.6017 W13.6916 H26.7943 ; mesh bed levelling

G1 Z0.2 F720
G1 Y-3 F1000 ; go outside print area
G92 E0
G1 X60 E9 F1000 ; intro line
G1 X100 E12.5 F1000 ; intro line
M73 P1 R5
M73 Q1 S5

G92 E0
M221 S95

; Don't change E values below. Excessive value can damage the printer.
M907 E430 ; set extruder motor current
G21 ; set units to millimeters
G90 ; use absolute coordinates
M83 ; use relative distances for extrusion

M900 K0.08 ; Filament gcode LA 1.5
M900 K45 ; Filament gcode LA 1.0




M107
;LAYER_CHANGE
;Z:0.2
;HEIGHT:0.2
G1 E-1 F2100
G1 Z.4 F720
G1 X120.861 Y93.625 F10800
G1 Z.2 F720
M73 Q2 S5
G1 E1 F2100
M204 S800
;TYPE:Skirt/Brim
;WIDTH:0.42
G1 F1200
G1 X121.432 Y93.076 E.02484
G1 X122.096 Y92.601 E.0256
G1 X122.785 Y92.245 E.02432
M73 P2 R5
G1 X123.795 Y91.919 E.03328
G1 X124.604 Y91.802 E.02563
G1 X125.379 Y91.802 E.0243
G1 X126.189 Y91.919 E.02566
G1 X126.933 Y92.138 E.02432
G1 X127.675 Y92.478 E.02559
G1 X128.552 Y93.076 E.03328
G1 X129.112 Y93.614 E.02435
G1 X129.616 Y94.258 E.02564
G1 X130.001 Y94.931 E.02431
G1 X130.302 Y95.69 E.0256
G1 X130.535 Y96.851 E.03713
G1 X131.63 Y108.951 E.38094
G1 X131.657 Y111.552 E.08156
G1 X131.547 Y112.753 E.03781
G1 X131.137 Y114.129 E.04502
G1 X130.513 Y115.281 E.04108
G1 X129.585 Y116.377 E.04503
G1 X128.551 Y117.182 E.04109
G1 X127.262 Y117.812 E.04498
G1 X125.991 Y118.134 E.04111
G1 X124.894 Y118.208 E.03447
G1 X124.009 Y118.134 E.02785
G1 X123.264 Y117.978 E.02387
G1 X121.926 Y117.456 E.04503
G1 X120.828 Y116.739 E.04112
G1 X120.176 Y116.138 E.0278
G1 X119.683 Y115.556 E.02392
G1 X118.948 Y114.323 E.04501
G1 X118.523 Y113.084 E.04107
G1 X118.359 Y111.997 E.03447
G1 X118.343 Y109.183 E.08823
G1 X119.449 Y96.851 E.38821
G1 X119.614 Y95.926 E.02946
G1 X119.864 Y95.192 E.02431
G1 X120.237 Y94.463 E.02568
G1 X120.825 Y93.673 E.03088
M204 S1000
G1 X121.103 Y93.936 F10800
M204 S800
G1 F1200
G1 X121.507 Y93.51 E.01841
G1 X122.3 Y92.918 E.03103
M73 Q3 S5
G1 X122.926 Y92.595 E.02209
G1 X123.866 Y92.289 E.031
G1 X124.64 Y92.177 E.02452
G1 X125.343 Y92.177 E.02204
G1 X126.117 Y92.289 E.02452
G1 X126.792 Y92.488 E.02206
G1 X127.502 Y92.813 E.02448
G1 X128.318 Y93.372 E.03101
M73 P3 R5
G1 X128.827 Y93.86 E.02211
G1 X129.308 Y94.475 E.02448
G1 X129.657 Y95.086 E.02206
G1 X129.945 Y95.812 E.02449
G1 X130.159 Y96.885 E.03431
G1 X131.255 Y108.985 E.38094
G1 X131.28 Y111.552 E.08049
G1 X131.178 Y112.675 E.03536
G1 X130.786 Y113.991 E.04305
G1 X130.207 Y115.062 E.03817
G1 X129.318 Y116.111 E.04311
G1 X128.358 Y116.858 E.03814
G1 X127.125 Y117.461 E.04304
G1 X125.945 Y117.76 E.03817
G1 X124.909 Y117.831 E.03256
G1 X123.372 Y117.617 E.04866
G1 X122.092 Y117.117 E.04309
G1 X121.072 Y116.451 E.0382
G1 X119.99 Y115.337 E.04869
G1 X119.214 Y113.991 E.04871
G1 X118.822 Y112.675 E.04305
G1 X118.722 Y111.643 E.03251
G1 X118.72 Y109.183 E.07713
G1 X119.824 Y96.885 E.38715
G1 X120.131 Y95.541 E.04323
G1 X120.421 Y94.899 E.02209
G1 X120.97 Y94.077 E.03099
G1 X121.062 Y93.98 E.00419
M204 S1000
;WIPE_START
G1 F8640
G1 X121.103 Y93.936 E-.01389
G1 X121.507 Y93.51 E-.13556
G1 X122.3 Y92.918 E-.2285
G1 X122.926 Y92.595 E-.16265
G1 X123.866 Y92.289 E-.22826
G1 X124.64 Y92.177 E-.18058
G1 X124.859 Y92.177 E-.05056
;WIPE_END
G1 Z.4 F720
; printing object Display Bracket Right.stl id:0 copy 0
G1 X122.744 Y112.682 F10800
G1 Z.2 F720
M73 Q4 S5
G1 E1 F2100
M204 S800
;TYPE:Perimeter
;WIDTH:0.63241
G1 F1200
G1 X122.724 Y112.649 E.00189
;WIDTH:0.628062
G1 X122.543 Y112.143 E.02615
;WIDTH:0.632442
G1 X122.47 Y111.59 E.02734
G1 X122.47 Y109.24 E.11519
G1 X122.489 Y108.393 E.04153
M73 P4 R5
;WIDTH:0.594168
G1 X122.508 Y107.545 E.03888
;WIDTH:0.574042
G1 X122.586 Y106.911 E.02821
G1 X122.677 Y106.749 E.00821
;WIDTH:0.535532
G1 X122.768 Y106.587 E.00761
;WIDTH:0.497021
G1 X122.859 Y106.425 E.00702
;WIDTH:0.45851
G1 X122.95 Y106.263 E.00642
;WIDTH:0.419999
G1 X123.434 Y105.715 E.02292
G1 X123.842 Y105.431 E.01559
G1 X124.363 Y105.223 E.01759
G1 X124.903 Y105.14 E.01713
G1 X125.383 Y105.171 E.01508
G1 X125.747 Y105.26 E.01175
G1 X126.255 Y105.496 E.01756
G1 X126.672 Y105.818 E.01652
G1 X126.882 Y106.053 E.00988
G1 X127.177 Y106.529 E.01756
;WIDTH:0.458729
G1 X127.232 Y106.623 E.00377
;WIDTH:0.497458
G1 X127.287 Y106.717 E.00412
;WIDTH:0.536187
G1 X127.342 Y106.812 E.0045
;WIDTH:0.574916
G1 X127.397 Y106.906 E.00482
G1 X127.474 Y107.504 E.02667
;WIDTH:0.598352
G1 X127.496 Y108.464 E.04435
;WIDTH:0.640796
G1 X127.518 Y109.425 E.04779
G1 X127.518 Y111.508 E.10355
G1 X127.462 Y112.058 E.02748
;WIDTH:0.638153
G1 X127.299 Y112.564 E.02631
;WIDTH:0.638638
G1 X127.033 Y113.027 E.02645
G1 X126.629 Y113.464 E.02948
;WIDTH:0.638106
G1 X126.211 Y113.762 E.02541
;WIDTH:0.637546
G1 X125.687 Y113.976 E.02799
;WIDTH:0.631709
G1 X125.155 Y114.068 E.02643
;WIDTH:0.635355
G1 X124.592 Y114.042 E.02776
G1 X124.194 Y113.943 E.0202
;WIDTH:0.635067
G1 X123.715 Y113.727 E.02587
;WIDTH:0.631694
G1 X123.308 Y113.427 E.02475
;WIDTH:0.63241
G1 X123.012 Y113.111 E.02122
G1 X122.776 Y112.733 E.02184
M204 S1000
G1 X123.173 Y112.466 F10800
M204 S800
;TYPE:External perimeter
;WIDTH:0.419999
G1 F1200
G1 X123.161 Y112.447 E.0007
G1 X122.995 Y111.925 E.01717
G1 X122.953 Y111.508 E.01314
G1 X122.953 Y107.545 E.12426
G1 X123.013 Y107.063 E.01523
G1 X123.153 Y106.676 E.0129
G1 X123.307 Y106.408 E.00969
G1 X123.711 Y105.971 E.01866
G1 X123.992 Y105.777 E.01071
G1 X124.429 Y105.594 E.01485
G1 X124.894 Y105.517 E.01478
G1 X125.304 Y105.54 E.01288
G1 X125.597 Y105.607 E.00942
G1 X126.029 Y105.799 E.01482
G1 X126.398 Y106.077 E.01449
G1 X126.567 Y106.26 E.00781
G1 X126.823 Y106.657 E.01481
G1 X126.979 Y107.104 E.01484
G1 X127.03 Y107.545 E.01392
G1 X127.03 Y111.56 E.12589
G1 X126.97 Y112.042 E.01523
G1 X126.777 Y112.524 E.01628
G1 X126.676 Y112.697 E.00628
G1 X126.272 Y113.134 E.01866
G1 X125.992 Y113.328 E.01068
G1 X125.554 Y113.511 E.01488
G1 X125.04 Y113.586 E.01629
G1 X124.421 Y113.509 E.01956
G1 X123.954 Y113.306 E.01597
G1 X123.585 Y113.028 E.01449
G1 X123.416 Y112.845 E.00781
G1 X123.205 Y112.517 E.01223
M204 S1000
;WIPE_START
G1 F8640
G1 X123.173 Y112.466 E-.0139
G1 X123.161 Y112.447 E-.00519
G1 X122.995 Y111.925 E-.12648
G1 X122.953 Y111.508 E-.09677
G1 X122.953 Y108.227 E-.75766
;WIPE_END
G1 Z.4 F720
G1 X125.578 Y99.017 F10800
G1 Z.2 F720
G1 E1 F2100
M204 S800
G1 F1200
G1 X125.192 Y99.127 E.01258
G1 X124.536 Y99.08 E.02062
G1 X124.078 Y98.889 E.01556
G1 X123.724 Y98.611 E.01411
G1 X123.384 Y98.131 E.01844
G1 X123.211 Y97.498 E.02058
G1 X123.279 Y96.844 E.02062
G1 X123.491 Y96.384 E.01588
G1 X123.888 Y95.948 E.01849
G1 X124.469 Y95.644 E.02056
G1 X125.053 Y95.578 E.01843
G1 X125.549 Y95.655 E.01574
G1 X126.127 Y95.974 E.0207
G1 X126.49 Y96.404 E.01764
G1 X126.582 Y96.539 E.00512
G1 X126.76 Y97.098 E.01839
G1 X126.732 Y97.754 E.02059
G1 X126.469 Y98.356 E.0206
G1 X126.137 Y98.725 E.01556
G1 X125.757 Y98.966 E.01411
G1 X125.636 Y99.001 E.00395
M204 S1000
;WIPE_START
G1 F8640
G1 X125.578 Y99.017 E-.01389
G1 X125.192 Y99.127 E-.09268
G1 X124.536 Y99.08 E-.15186
G1 X124.078 Y98.889 E-.11458
G1 X123.724 Y98.611 E-.10393
G1 X123.384 Y98.131 E-.13582
G1 X123.211 Y97.498 E-.15152
G1 X123.279 Y96.844 E-.15182
G1 X123.431 Y96.514 E-.0839
;WIPE_END
G1 Z.4 F720
G1 X122.833 Y97.499 F10800
M73 Q5 S5
G1 Z.2 F720
G1 E1 F2100
M204 S800
;TYPE:Perimeter
;WIDTH:0.415298
G1 F1200
G1 X122.921 Y96.8 E.02181
;WIDTH:0.387262
G1 X123.134 Y96.282 E.01604
;WIDTH:0.409126
G1 X123.334 Y96.005 E.0104
G1 X123.729 Y95.621 E.01677
;WIDTH:0.375092
G1 X124.313 Y95.33 E.01802
;WIDTH:0.399948
G1 X124.581 Y95.253 E.00828
M73 P5 R5
G1 X125.09 Y95.215 E.01515
;WIDTH:0.388012
G1 X125.626 Y95.303 E.01559
;WIDTH:0.409014
G1 X126.026 Y95.486 E.01339
G1 X126.458 Y95.795 E.01617
;WIDTH:0.384962
G1 X126.829 Y96.252 E.01674
;WIDTH:0.40585
G1 X126.972 Y96.547 E.00989
G1 X127.123 Y97.079 E.01669
;WIDTH:0.434937
G1 X127.132 Y97.429 E.01141
;WIDTH:0.48486
G1 X127.141 Y97.779 E.01287
;WIDTH:0.487026
G1 X127.141 Y97.793 E.00052
M204 S1000
;WIPE_START
G1 F8640
G1 X127.141 Y97.779 E-.00323
G1 X127.132 Y97.429 E-.08084
G1 X127.123 Y97.079 E-.08084
G1 X126.972 Y96.547 E-.12769
G1 X126.829 Y96.252 E-.0757
G1 X126.458 Y95.795 E-.13592
G1 X126.026 Y95.486 E-.12264
G1 X125.626 Y95.303 E-.10157
G1 X125.09 Y95.215 E-.12542
G1 X124.581 Y95.253 E-.11786
G1 X124.463 Y95.287 E-.02829
;WIPE_END
G1 Z.4 F720
G1 X125.621 Y99.385 F10800
G1 Z.2 F720
G1 E1 F2100
M204 S800
;WIDTH:0.419999
G1 F1200
G1 X126.018 Y99.256 E.01309
G1 X126.451 Y98.949 E.01664
G1 X126.812 Y98.514 E.01772
;WIDTH:0.453513
G1 X126.976 Y98.153 E.01354
;WIDTH:0.487026
G1 X127.141 Y97.793 E.01462
G1 X127.178 Y98.004 E.00791
;WIDTH:0.450627
G1 X127.247 Y98.589 E.01997
;WIDTH:0.419999
G1 X127.95 Y106.356 E.24452
;WIDTH:0.458729
G1 X127.94 Y106.465 E.00378
;WIDTH:0.497458
G1 X127.931 Y106.573 E.0041
;WIDTH:0.536187
G1 X127.921 Y106.682 E.00449
;WIDTH:0.574916
G1 X127.911 Y106.791 E.00484
G1 X127.938 Y106.998 E.00923
;WIDTH:0.559965
G1 X127.987 Y107.522 E.02263
;WIDTH:0.594869
G1 X128.051 Y108.469 E.04356
;WIDTH:0.633831
G1 X128.116 Y109.416 E.04664
;WIDTH:0.640796
G1 X128.116 Y111.608 E.10897
G1 X128.017 Y112.289 E.03421
;WIDTH:0.636316
G1 X127.851 Y112.782 E.02567
;WIDTH:0.637633
G1 X127.62 Y113.232 E.02501
;WIDTH:0.650359
G1 X127.303 Y113.638 E.02602
G1 X126.931 Y113.993 E.02597
;WIDTH:0.638298
G1 X126.503 Y114.278 E.02546
;WIDTH:0.638476
G1 X126.034 Y114.488 E.02545
G1 X125.762 Y114.564 E.01399
;WIDTH:0.633021
G1 X125.203 Y114.654 E.02778
;WIDTH:0.63284
G1 X124.645 Y114.64 E.02738
G1 X124.152 Y114.544 E.02464
;WIDTH:0.633797
G1 X123.564 Y114.314 E.03102
;WIDTH:0.636518
G1 X123.266 Y114.14 E.01703
G1 X122.873 Y113.829 E.02474
;WIDTH:0.63241
G1 X122.518 Y113.431 E.02614
G1 X122.247 Y113.01 E.02454
;WIDTH:0.636832
G1 X122.048 Y112.542 E.02511
G1 X121.925 Y112.041 E.02548
;WIDTH:0.635029
G1 X121.88 Y111.508 E.02634
;WIDTH:0.632442
G1 X121.88 Y109.231 E.11162
G1 X121.94 Y108.345 E.04353
;WIDTH:0.594168
G1 X122 Y107.458 E.04075
;WIDTH:0.574042
G1 X122.071 Y106.798 E.02932
G1 X122.064 Y106.662 E.00601
;WIDTH:0.535532
G1 X122.057 Y106.527 E.00554
;WIDTH:0.497021
G1 X122.05 Y106.391 E.00514
;WIDTH:0.45851
G1 X122.043 Y106.256 E.00467
;WIDTH:0.419999
G1 X122.833 Y97.499 E.27568
;WIDTH:0.416399
G1 X122.848 Y97.589 E.00283
;WIDTH:0.419999
G1 X122.99 Y98.16 E.01845
G1 X123.076 Y98.349 E.00651
G1 X123.537 Y98.953 E.02382
G1 X123.971 Y99.259 E.01665
G1 X124.502 Y99.455 E.01775
G1 X125.088 Y99.509 E.01845
G1 X125.295 Y99.49 E.00652
G1 X125.564 Y99.403 E.00886
M204 S1000
;WIPE_START
G1 F8640
G1 X125.621 Y99.385 E-.0138
G1 X126.018 Y99.256 E-.09639
G1 X126.451 Y98.949 E-.12256
G1 X126.812 Y98.514 E-.13053
G1 X126.976 Y98.153 E-.09155
G1 X127.141 Y97.793 E-.09144
G1 X127.178 Y98.004 E-.04946
G1 X127.247 Y98.589 E-.13601
G1 X127.352 Y99.746 E-.26826
;WIPE_END
G1 Z.4 F720
G1 X126.197 Y95.155 F10800
G1 Z.2 F720
G1 E1 F2100
M204 S800
;TYPE:External perimeter
G1 F1200
M73 Q6 S5
G1 X126.215 Y95.163 E.00062
G1 X126.741 Y95.561 E.02068
G1 X127.086 Y95.969 E.01675
G1 X127.327 Y96.442 E.01664
G1 X127.494 Y97.136 E.02238
G1 X128.603 Y109.389 E.38575
G1 X128.603 Y111.54 E.06744
M73 P6 R5
G1 X128.553 Y112.145 E.01903
G1 X128.423 Y112.659 E.01662
G1 X128.232 Y113.12 E.01565
G1 X127.986 Y113.564 E.01592
G1 X127.65 Y113.992 E.01706
G1 X127.213 Y114.395 E.01864
G1 X126.714 Y114.721 E.01869
G1 X126.17 Y114.959 E.01862
G1 X125.593 Y115.106 E.01867
G1 X125 Y115.155 E.01866
G1 X124.407 Y115.106 E.01866
G1 X123.83 Y114.959 E.01867
G1 X123.37 Y114.757 E.01575
G1 X122.988 Y114.539 E.01379
G1 X122.56 Y114.203 E.01706
G1 X122.158 Y113.766 E.01862
G1 X121.808 Y113.217 E.02041
G1 X121.593 Y112.722 E.01692
G1 X121.447 Y112.145 E.01866
G1 X121.397 Y111.54 E.01903
G1 X121.397 Y109.205 E.07321
G1 X122.47 Y97.35 E.37322
G1 X122.574 Y96.697 E.02073
G1 X122.757 Y96.215 E.01617
G1 X123.023 Y95.8 E.01546
G1 X123.391 Y95.419 E.01661
G1 X123.839 Y95.125 E.0168
G1 X124.502 Y94.891 E.02204
G1 X125.032 Y94.845 E.01668
G1 X125.727 Y94.953 E.02205
G1 X126.142 Y95.132 E.01417
M204 S1000
;WIPE_START
G1 F8640
G1 X126.197 Y95.155 E-.01377
G1 X126.215 Y95.163 E-.00455
G1 X126.741 Y95.561 E-.1523
G1 X127.086 Y95.969 E-.12337
G1 X127.327 Y96.442 E-.12258
G1 X127.494 Y97.136 E-.16482
G1 X127.657 Y98.942 E-.41861
;WIPE_END
G1 Z.4 F720
G1 X127.184 Y99.566 F10800
G1 Z.2 F720
G1 E1 F2100
M204 S800
;TYPE:Solid infill
;WIDTH:0.42776
G1 F1200
G1 X126.733 Y99.115 E.02041
G1 X126.437 Y99.363 E.01236
G1 X127.051 Y99.977 E.02779
G1 X127.105 Y100.576 E.01925
G1 X126.099 Y99.57 E.04553
G1 X125.958 Y99.634 E.00495
G1 X125.694 Y99.709 E.00878
G1 X127.159 Y101.174 E.0663
G1 X127.213 Y101.773 E.01925
G1 X125.255 Y99.815 E.08861
G1 X125.106 Y99.832 E.0048
G1 X124.69 Y99.794 E.01337
G1 X127.267 Y102.371 E.11662
G1 X127.321 Y102.969 E.01921
G1 X123.951 Y99.599 E.15251
G1 X123.664 Y99.451 E.01033
M73 Q7 S5
G1 X123.336 Y99.203 E.01316
G1 X123.161 Y99.023 E.00803
G1 X123.035 Y98.845 E.00698
G1 X123.004 Y99.196 E.01128
G1 X127.376 Y103.568 E.19785
G1 X127.43 Y104.166 E.01921
M73 P7 R5
G1 X122.958 Y99.695 E.20235
G1 X122.913 Y100.194 E.01603
G1 X127.484 Y104.765 E.20686
G1 X127.538 Y105.363 E.01921
G1 X122.868 Y100.693 E.21134
G1 X122.823 Y101.192 E.01603
G1 X127.592 Y105.961 E.21582
G1 X127.629 Y106.362 E.01289
G1 X127.591 Y106.505 E.00473
G1 X122.778 Y101.691 E.21783
G1 X122.732 Y102.19 E.01604
G1 X125.397 Y104.855 E.1206
G1 X124.903 Y104.819 E.01585
G1 X124.828 Y104.83 E.00243
G1 X122.687 Y102.689 E.09689
G1 X122.642 Y103.188 E.01603
G1 X124.354 Y104.9 E.07748
G1 X124.118 Y104.963 E.00782
G1 X123.946 Y105.037 E.00599
G1 X122.597 Y103.687 E.06107
G1 X122.552 Y104.186 E.01603
G1 X123.584 Y105.218 E.0467
G1 X123.263 Y105.441 E.01251
G1 X122.507 Y104.685 E.03421
G1 X122.461 Y105.184 E.01604
G1 X122.995 Y105.718 E.02417
G1 X122.741 Y106.008 E.01234
G1 X122.416 Y105.684 E.01469
G1 X122.371 Y106.183 E.01603
G1 X122.664 Y106.476 E.01326
M204 S1000
;LAYER_CHANGE
;Z:0.35
;HEIGHT:0.15
;BEFORE_LAYER_CHANGE
G92 E0.0
;0.35


;WIPE_START
G1 F8640
G1 X122.371 Y106.183 E-.09568
G1 X122.416 Y105.684 E-.11569
G1 X122.741 Y106.008 E-.10596
G1 X122.995 Y105.718 E-.08901
G1 X122.461 Y105.184 E-.17438
M73 Q8 S5
G1 X122.507 Y104.685 E-.11571
G1 X123.263 Y105.441 E-.24687
G1 X123.464 Y105.301 E-.0567
;WIPE_END
G1 Z.35 F720
;AFTER_LAYER_CHANGE
;0.35
M104 S230 ; set temperature
M140 S85 ; set bed temperature
; stop printing object Display Bracket Right.stl id:0 copy 0
G1 Z.55
G1 X118.618 Y106.113 F10800
G1 Z.35 F720
M73 P8 R5
G1 E1 F2100
;TYPE:Skirt/Brim
;WIDTH:0.42
G1 F1933
G1 X119.449 Y96.851 E.2249
G1 X119.614 Y95.926 E.02272
G1 X119.864 Y95.192 E.01875
G1 X120.237 Y94.463 E.0198
G1 X120.861 Y93.625 E.02527
G1 X121.432 Y93.076 E.01916
G1 X122.096 Y92.601 E.01974
G1 X122.785 Y92.245 E.01876
G1 X123.795 Y91.919 E.02567
G1 X124.604 Y91.802 E.01977
G1 X125.379 Y91.802 E.01874
G1 X126.189 Y91.919 E.01979
G1 X126.933 Y92.138 E.01876
G1 X127.675 Y92.478 E.01974
G1 X128.552 Y93.076 E.02567
G1 X129.112 Y93.614 E.01878
