; generated by PrusaSlicer 2.9.4 on 2026-04-07 at 16:08:29 UTC


;
;
; 

; external perimeters extrusion width = 0.45mm
; perimeters extrusion width = 0.45mm
; infill extrusion width = 0.45mm
; solid infill extrusion width = 0.45mm
; top infill extrusion width = 0.40mm
; first layer extrusion width = 0.50mm

M73 P0 R6
M73 Q0 S6
M201 X1000 Y1000 Z200 E5000 ; sets maximum accelerations, mm/sec^2
M203 X200 Y200 Z12 E120 ; sets maximum feedrates, mm / sec
M204 S1250 T1250 ; sets acceleration (S) and retract acceleration (R), mm/sec^2
M205 X8.00 Y8.00 Z0.40 E4.50 ; sets the jerk limits, mm/sec
M205 S0 T0 ; sets the minimum extruding and travel feed rate, mm/sec

; printing object HDMI Stubout.stl id:0 copy 0
; stop printing object HDMI Stubout.stl id:0 copy 0

;TYPE:Custom
M862.3 P "MK3S" ; printer model check
M862.1 P0.4 ; nozzle diameter check
M115 U3.14.1 ; tell printer latest fw version
G90 ; use absolute coordinates
M83 ; extruder relative mode
M104 S240 ; set extruder temp
M140 S90 ; set bed temp
M190 S90 ; wait for bed temp
M109 S240 ; wait for extruder temp
G28 W ; home all without mesh bed level
G80 X119.418 Y62.8554 W11.1642 H84.2892 ; mesh bed levelling

G1 Z0.2 F720
G1 Y-3 F1000 ; go outside print area
G92 E0
G1 X60 E9 F1000 ; intro line
G1 X100 E12.5 F1000 ; intro line

G92 E0
M221 S95

; Don't change E values below. Excessive value can damage the printer.
M907 E430 ; set extruder motor current
G21 ; set units to millimeters
G90 ; use absolute coordinates
M83 ; use relative distances for extrusion

M900 K0.08 ; Filament gcode LA 1.5
M900 K45 ; Filament gcode LA 1.0




M107
;LAYER_CHANGE
;Z:0.2
;HEIGHT:0.2
G1 E-1 F2100
M73 P1 R6
M73 Q1 S6
G1 Z.4 F720
G1 X120.102 Y64.31 F10800
G1 Z.2 F720
G1 E1 F2100
M204 S800
;TYPE:Skirt/Brim
;WIDTH:0.5
G1 F900
G1 X120.609 Y63.738 E.02905
G1 X121.338 Y63.294 E.03244
G1 X121.83 Y63.142 E.01957
G1 X122.364 Y63.085 E.02041
G1 X127.416 Y63.103 E.19201
G1 X128.218 Y63.316 E.03154
G1 X128.766 Y63.638 E.02416
G1 X129.165 Y64.005 E.0206
G1 X129.649 Y64.789 E.03502
G1 X129.853 Y65.794 E.03898
G1 X130.353 Y127.669 E2.35172
G1 X130.354 Y141.688 E.53281
M73 P2 R6
M73 Q2 S6
G1 X130.167 Y142.67 E.03799
M73 P3 R6
M73 Q3 S6
G1 X129.826 Y143.294 E.02703
G1 X127.385 Y146.032 E.13941
G1 X126.982 Y146.389 E.02046
G1 X126.357 Y146.729 E.02704
G1 X125.666 Y146.897 E.02703
G1 X122.375 Y146.916 E.12508
G1 X121.955 Y146.88 E.01602
G1 X121.272 Y146.679 E.02706
G1 X120.665 Y146.309 E.02702
G1 X120.253 Y145.898 E.02212
G1 X119.837 Y145.18 E.03154
G1 X119.646 Y144.188 E.03839
G1 X119.646 Y65.813 E2.97875
G1 X119.79 Y64.949 E.03329
M73 P4 R6
M73 Q4 S6
G1 X120.075 Y64.364 E.02473
M204 S1000
;WIPE_START
G1 F8640
G1 X120.102 Y64.31 E-.01394
G1 X120.609 Y63.738 E-.17649
G1 X121.338 Y63.294 E-.19709
G1 X121.83 Y63.142 E-.1189
G1 X122.364 Y63.085 E-.124
G1 X123.965 Y63.091 E-.36958
;WIPE_END
G1 Z.4 F720
; printing object HDMI Stubout.stl id:0 copy 0
G1 X123.275 Y120.043 F10800
G1 Z.2 F720
G1 E1 F2100
M204 S800
;TYPE:External perimeter
;WIDTH:0.40136
G1 F900
G1 X123.275 Y124.723 E.13948
M204 S1000
;WIPE_START
G1 F8640
M73 P5 R6
M73 Q5 S6
G1 X123.275 Y120.392 E-1
;WIPE_END
G1 Z.4 F720
G1 X123.275 Y86.542 F10800
G1 Z.2 F720
G1 E1 F2100
M204 S800
;WIDTH:0.4
G1 F900
G1 X123.275 Y108.332 E.64697
;WIDTH:0.402702
G1 X123.274 Y108.363 E.00093
M204 S1000
;WIPE_START
G1 F8640
G1 X123.275 Y108.332 E-.00716
G1 X123.275 Y104.032 E-.99284
;WIPE_END
G1 Z.4 F720
G1 X123.668 Y117.306 F10800
G1 Z.2 F720
G1 E1 F2100
M204 S800
;TYPE:Perimeter
;WIDTH:0.499999
G1 F900
G1 X123.259 Y117.321 E.01556
;WIDTH:0.542903
G1 X122.967 Y117.656 E.01848
;WIDTH:0.585806
G1 X122.675 Y117.991 E.02006
G1 X122.653 Y117.403 E.02656
;WIDTH:0.542903
G1 X122.632 Y116.815 E.02446
;WIDTH:0.499999
G1 X122.632 Y111.56 E.19972
;WIDTH:0.54843
G1 X122.656 Y111.036 E.02205
;WIDTH:0.59686
G1 X122.68 Y110.511 E.02421
G1 X122.97 Y110.782 E.01828
;WIDTH:0.54843
G1 X123.259 Y111.054 E.01668
;WIDTH:0.499999
G1 X123.668 Y111.069 E.01556
G1 X123.668 Y117.246 E.23476
M204 S1000
;WIPE_START
G1 F8640
G1 X123.668 Y117.306 E-.01385
G1 X123.259 Y117.321 E-.0945
G1 X122.967 Y117.656 E-.10261
G1 X122.675 Y117.991 E-.10261
G1 X122.653 Y117.403 E-.13587
M73 Q6 S6
G1 X122.632 Y116.815 E-.13586
G1 X122.632 Y115.019 E-.4147
;WIPE_END
G1 Z.4 F720
M73 P6 R6
G1 X122.675 Y117.991 F10800
G1 Z.2 F720
G1 E1 F2100
M204 S800
;WIDTH:0.585904
G1 F900
G1 X122.675 Y118.003 E.00054
;WIDTH:0.602698
G1 X122.683 Y119.022 E.04743
;WIDTH:0.619722
G1 X122.692 Y119.279 E.01233
M204 S1000
;WIPE_START
G1 F8640
G1 X122.683 Y119.022 E-.05938
G1 X122.675 Y118.003 E-.2353
G1 X122.675 Y117.991 E-.00277
;WIPE_END
G1 E-.70255 F2100
G1 Z.4 F720
G1 X122.69 Y109.11 F10800
G1 Z.2 F720
G1 E1 F2100
M204 S800
;WIDTH:0.61519
G1 F900
G1 X122.683 Y109.31 E.00952
;WIDTH:0.60269
G1 X122.675 Y110.372 E.04943
;WIDTH:0.59686
G1 X122.68 Y110.511 E.00641
M204 S1000
;WIPE_START
G1 F8640
G1 X122.675 Y110.372 E-.03212
G1 X122.683 Y109.31 E-.24523
G1 X122.69 Y109.11 E-.04621
;WIPE_END
G1 E-.67644 F2100
G1 Z.4 F720
G1 X123.275 Y120.043 F10800
G1 Z.2 F720
G1 E1 F2100
M204 S800
;TYPE:External perimeter
;WIDTH:0.447343
G1 F900
G1 X123.191 Y119.93 E.00473
;WIDTH:0.494686
G1 X123.106 Y119.817 E.00531
;WIDTH:0.499999
G1 X122.175 Y119.773 E.03542
G1 X122.175 Y108.607 E.42438
G1 X123.115 Y108.552 E.03579
;WIDTH:0.483699
G1 X123.194 Y108.458 E.0045
;WIDTH:0.443201
G1 X123.274 Y108.363 E.00413
;WIDTH:0.451351
G1 X123.249 Y108.587 E.00765
;WIDTH:0.499999
G1 X123.192 Y109.318 E.02787
G1 X123.175 Y110.38 E.04037
G1 X123.355 Y110.607 E.01101
G1 X123.89 Y110.612 E.02033
G1 X124.056 Y110.682 E.00685
G1 X124.125 Y110.847 E.0068
G1 X124.125 Y117.041 E.23541
G1 X124.103 Y117.611 E.02168
G1 X124.021 Y117.728 E.00543
G1 X123.855 Y117.763 E.00645
G1 X123.355 Y117.768 E.019
G1 X123.175 Y117.995 E.01101
G1 X123.194 Y119.168 E.04459
G1 X123.235 Y119.605 E.01668
;WIDTH:0.45
G1 X123.269 Y119.983 E.01285
M204 S1000
;WIPE_START
G1 F8640
G1 X123.275 Y120.043 E-.01392
G1 X123.191 Y119.93 E-.03251
G1 X123.106 Y119.817 E-.03265
G1 X122.175 Y119.773 E-.21521
G1 X122.175 Y116.717 E-.70571
;WIPE_END
G1 Z.4 F720
G1 X125 Y143.93 F10800
G1 Z.2 F720
G1 E1 F2100
M204 S800
;TYPE:Perimeter
;WIDTH:0.499999
G1 F900
G1 X122.632 Y143.93 E.09
G1 X122.632 Y125.425 E.70331
M73 Q7 S6
G1 X123.419 Y125.393 E.02994
M73 P7 R6
G1 X124.422 Y125.442 E.03817
G1 X125.118 Y125.444 E.02645
G1 X125.128 Y127.377 E.07347
G1 X125.292 Y127.716 E.01431
G1 X125.457 Y127.85 E.00808
G1 X125.804 Y127.945 E.01367
G1 X127.368 Y127.945 E.05944
G1 X127.368 Y141.43 E.51251
G1 X125.804 Y141.43 E.05944
G1 X125.457 Y141.525 E.01367
G1 X125.292 Y141.659 E.00808
G1 X125.166 Y141.863 E.00911
G1 X125.118 Y142.116 E.00979
G1 X125.118 Y143.93 E.06894
G1 X125.06 Y143.93 E.0022
M204 S1000
G1 X125 Y144.388 F10800
M204 S800
;TYPE:External perimeter
G1 F900
G1 X122.409 Y144.388 E.09847
G1 X122.244 Y144.318 E.00681
G1 X122.175 Y144.153 E.0068
G1 X122.175 Y125.935 E.6924
G1 X122.197 Y125.14 E.03023
M73 P8 R6
M73 Q8 S6
G1 X122.28 Y125.019 E.00558
G1 X122.451 Y124.979 E.00667
G1 X123.127 Y124.934 E.02575
G1 X123.201 Y124.829 E.00488
;WIDTH:0.45068
G1 X123.275 Y124.723 E.00438
G1 X123.334 Y124.826 E.00402
;WIDTH:0.499999
G1 X123.393 Y124.928 E.00448
G1 X123.442 Y124.936 E.00189
G1 X124.424 Y124.985 E.03737
G1 X125.34 Y124.987 E.03481
G1 X125.506 Y125.057 E.00685
G1 X125.575 Y125.222 E.0068
G1 X125.575 Y127.259 E.07742
G1 X125.633 Y127.411 E.00618
G1 X125.804 Y127.488 E.00713
G1 X127.642 Y127.488 E.06986
G1 X127.79 Y127.592 E.00687
G1 X127.825 Y127.757 E.00641
G1 X127.825 Y141.653 E.52814
G1 X127.756 Y141.818 E.0068
G1 X127.591 Y141.888 E.00681
G1 X125.804 Y141.888 E.06792
G1 X125.633 Y141.964 E.00711
G1 X125.575 Y142.116 E.00618
G1 X125.575 Y144.153 E.07742
G1 X125.506 Y144.318 E.0068
G1 X125.341 Y144.388 E.00681
G1 X125.06 Y144.388 E.01068
M204 S1000
;WIPE_START
G1 F8640
G1 X125 Y144.388 E-.01385
G1 X122.409 Y144.388 E-.59827
G1 X122.244 Y144.318 E-.04139
G1 X122.175 Y144.153 E-.0413
G1 X122.175 Y142.831 E-.30519
;WIPE_END
G1 Z.4 F720
G1 X123.302 Y85.879 F10800
G1 Z.2 F720
G1 E1 F2100
M204 S800
;TYPE:Perimeter
G1 F900
G1 X123.275 Y85.88 E.00103
G1 X122.632 Y85.825 E.02453
G1 X122.632 Y66.07 E.75081
G1 X126.868 Y66.075 E.16099
M73 P9 R6
M73 Q9 S6
G1 X126.868 Y85.806 E.7499
G1 X124.365 Y85.808 E.09513
G1 X123.362 Y85.875 E.03821
M204 S1000
G1 X123.275 Y86.542 F10800
M204 S800
;TYPE:External perimeter
;WIDTH:0.45
G1 F900
G1 X123.216 Y86.432 E.00423
;WIDTH:0.499999
G1 X123.156 Y86.322 E.00476
G1 X122.42 Y86.269 E.02805
G1 X122.245 Y86.195 E.00722
G1 X122.175 Y86.028 E.00688
G1 X122.175 Y65.847 E.767
G1 X122.244 Y65.682 E.0068
G1 X122.409 Y65.613 E.0068
G1 X127.094 Y65.618 E.17806
G1 X127.254 Y65.68 E.00652
M73 Q10 S6
G1 X127.325 Y65.847 E.0069
G1 X127.325 Y86.08 E.76898
G1 X127.221 Y86.228 E.00687
M73 P10 R6
G1 X127.055 Y86.263 E.00645
G1 X124.381 Y86.265 E.10163
G1 X123.423 Y86.316 E.03646
M73 P10 R5
G1 X123.349 Y86.429 E.00513
;WIDTH:0.45
G1 X123.308 Y86.492 E.00254
M204 S1000
;WIPE_START
G1 F8640
G1 X123.275 Y86.542 E-.01383
G1 X123.216 Y86.432 E-.02882
G1 X123.156 Y86.322 E-.02893
G1 X122.42 Y86.269 E-.17038
G1 X122.245 Y86.195 E-.04387
G1 X122.175 Y86.028 E-.04181
G1 X122.175 Y83.116 E-.67236
;WIPE_END
G1 Z.4 F720
G1 X125.757 Y66.256 F10800
G1 Z.2 F720
G1 E1 F2100
M204 S800
;TYPE:Solid infill
;WIDTH:0.501663
G1 F900
G1 X126.479 Y66.979 E.03898
G1 X126.479 Y67.628 E.02476
G1 X125.313 Y66.461 E.06293
G1 X124.664 Y66.461 E.02476
G1 X126.479 Y68.276 E.09791
G1 X126.479 Y68.925 E.02476
G1 X124.014 Y66.46 E.13297
G1 X123.365 Y66.459 E.02476
G1 X126.479 Y69.574 E.16801
G1 X126.479 Y70.223 E.02476
G1 X123.021 Y66.764 E.18657
G1 X123.021 Y67.413 E.02476
G1 X126.479 Y70.872 E.18657
G1 X126.479 Y71.52 E.02472
M73 P11 R5
M73 Q11 S6
G1 X123.021 Y68.061 E.18657
G1 X123.021 Y68.71 E.02476
G1 X126.479 Y72.169 E.18657
G1 X126.479 Y72.818 E.02476
G1 X123.021 Y69.359 E.18657
G1 X123.021 Y70.008 E.02476
G1 X126.479 Y73.467 E.18657
G1 X126.479 Y74.115 E.02472
G1 X123.021 Y70.657 E.18654
G1 X123.021 Y71.305 E.02472
G1 X126.479 Y74.764 E.18657
G1 X126.479 Y75.413 E.02476
G1 X123.021 Y71.954 E.18657
G1 X123.021 Y72.603 E.02476
G1 X126.479 Y76.062 E.18657
G1 X126.479 Y76.71 E.02472
G1 X123.021 Y73.252 E.18654
G1 X123.021 Y73.9 E.02472
M73 Q11 S5
G1 X126.479 Y77.359 E.18657
G1 X126.479 Y78.008 E.02476
G1 X123.021 Y74.549 E.18657
G1 X123.021 Y75.198 E.02476
M73 P12 R5
M73 Q12 S5
G1 X126.479 Y78.657 E.18657
G1 X126.479 Y79.305 E.02472
G1 X123.021 Y75.847 E.18654
G1 X123.021 Y76.495 E.02472
G1 X126.479 Y79.954 E.18657
G1 X126.479 Y80.603 E.02476
G1 X123.021 Y77.144 E.18657
G1 X123.021 Y77.793 E.02476
G1 X126.479 Y81.252 E.18657
G1 X126.479 Y81.9 E.02472
G1 X123.021 Y78.442 E.18654
G1 X123.021 Y79.09 E.02472
G1 X126.479 Y82.549 E.18657
G1 X126.479 Y83.198 E.02476
G1 X123.021 Y79.739 E.18657
G1 X123.021 Y80.388 E.02476
G1 X126.479 Y83.847 E.18657
G1 X126.479 Y84.496 E.02476
G1 X123.021 Y81.037 E.18657
G1 X123.021 Y81.685 E.02472
G1 X126.479 Y85.144 E.18657
G1 X126.479 Y85.418 E.01045
M73 P13 R5
M73 Q13 S5
G1 X126.104 Y85.418 E.0143
G1 X123.021 Y82.334 E.16634
G1 X123.021 Y82.983 E.02476
G1 X125.456 Y85.419 E.13138
G1 X124.808 Y85.419 E.02472
G1 X123.021 Y83.632 E.0964
G1 X123.021 Y84.28 E.02472
G1 X124.172 Y85.432 E.06212
G1 X123.561 Y85.47 E.02335
G1 X122.815 Y84.724 E.04024
M204 S1000
;WIPE_START
G1 F8640
G1 X123.561 Y85.47 E-.2436
G1 X124.172 Y85.432 E-.14135
G1 X123.021 Y84.28 E-.37602
G1 X123.021 Y83.632 E-.14962
G1 X123.295 Y83.906 E-.08941
;WIPE_END
G1 Z.4 F720
G1 X122.815 Y111.558 F10800
G1 Z.2 F720
G1 E1 F2100
M204 S800
;WIDTH:0.521608
G1 F900
G1 X123.279 Y112.022 E.02612
G1 X123.279 Y112.699 E.02695
G1 X123.02 Y112.44 E.01458
G1 X123.02 Y113.117 E.02695
G1 X123.279 Y113.376 E.01458
G1 X123.279 Y114.053 E.02695
G1 X123.02 Y113.794 E.01458
G1 X123.02 Y114.471 E.02695
G1 X123.279 Y114.73 E.01458
G1 X123.279 Y115.407 E.02695
G1 X123.02 Y115.148 E.01458
G1 X123.02 Y115.825 E.02695
G1 X123.279 Y116.084 E.01458
G1 X123.279 Y116.761 E.02695
G1 X122.815 Y116.296 E.02615
M204 S1000
;WIPE_START
G1 F8640
G1 X123.279 Y116.761 E-.15168
G1 X123.279 Y116.084 E-.15632
G1 X123.02 Y115.825 E-.08458
G1 X123.02 Y115.148 E-.15632
G1 X123.279 Y115.407 E-.08458
G1 X123.279 Y114.73 E-.15632
G1 X123.02 Y114.471 E-.08458
G1 X123.02 Y113.927 E-.12562
;WIPE_END
G1 Z.4 F720
G1 X126.498 Y128.127 F10800
G1 Z.2 F720
G1 E1 F2100
M204 S800
;WIDTH:0.50671
G1 F900
G1 X126.979 Y128.609 E.02626
G1 X126.979 Y129.265 E.0253
G1 X125.842 Y128.127 E.06204
M204 S1000
;WIPE_START
G1 F8640
G1 X126.979 Y129.265 E-.37145
G1 X126.979 Y128.609 E-.15147
G1 X126.498 Y128.127 E-.15723
;WIPE_END
G1 E-.31985 F2100
G1 Z.4 F720
G1 X123.972 Y125.602 F10800
G1 Z.2 F720
G1 E1 F2100
M204 S800
G1 F900
G1 X124.729 Y126.359 E.04129
G1 X124.729 Y127.015 E.0253
G1 X123.497 Y125.783 E.06719
G1 X123.265 Y125.764 E.00898
M73 P14 R5
G1 X123.021 Y125.785 E.00944
G1 X123.021 Y125.962 E.00683
G1 X126.979 Y129.921 E.21589
M73 Q14 S5
G1 X126.979 Y130.577 E.0253
G1 X123.021 Y126.618 E.21589
G1 X123.021 Y127.274 E.0253
G1 X126.979 Y131.232 E.21586
G1 X126.979 Y131.888 E.0253
G1 X123.021 Y127.93 E.21586
G1 X123.021 Y128.585 E.02526
G1 X126.979 Y132.544 E.21589
G1 X126.979 Y133.2 E.0253
G1 X123.021 Y129.241 E.21589
G1 X123.021 Y129.897 E.0253
G1 X126.979 Y133.856 E.21589
G1 X126.979 Y134.512 E.0253
G1 X123.021 Y130.553 E.21589
G1 X123.021 Y131.209 E.0253
G1 X126.979 Y135.168 E.21589
G1 X126.979 Y135.824 E.0253
G1 X123.021 Y131.865 E.21589
G1 X123.021 Y132.521 E.0253
M73 P15 R5
M73 Q15 S5
G1 X126.979 Y136.48 E.21589
G1 X126.979 Y137.136 E.0253
G1 X123.021 Y133.177 E.21589
G1 X123.021 Y133.833 E.0253
G1 X126.979 Y137.791 E.21586
G1 X126.979 Y138.447 E.0253
G1 X123.021 Y134.489 E.21586
G1 X123.021 Y135.144 E.02526
G1 X126.979 Y139.103 E.21589
G1 X126.979 Y139.759 E.0253
G1 X123.021 Y135.8 E.21589
G1 X123.021 Y136.456 E.0253
G1 X126.979 Y140.415 E.21589
G1 X126.979 Y141.042 E.02418
G1 X126.95 Y141.042 E.00112
G1 X123.021 Y137.112 E.21431
G1 X123.021 Y137.768 E.0253
G1 X126.294 Y141.042 E.17853
G1 X125.793 Y141.042 E.01932
M73 P16 R5
G1 X125.657 Y141.06 E.00529
G1 X123.021 Y138.424 E.14376
G1 X123.021 Y139.08 E.0253
M73 Q16 S5
G1 X125.187 Y141.247 E.11816
G1 X125 Y141.4 E.00932
G1 X124.88 Y141.595 E.00883
G1 X123.021 Y139.736 E.10139
G1 X123.021 Y140.392 E.0253
G1 X124.729 Y142.101 E.09318
G1 X124.729 Y142.756 E.02526
G1 X123.021 Y141.048 E.09315
G1 X123.021 Y141.703 E.02526
G1 X124.729 Y143.412 E.09318
G1 X124.729 Y143.542 E.00501
G1 X124.203 Y143.542 E.02028
G1 X123.021 Y142.359 E.06449
G1 X123.021 Y143.015 E.0253
G1 X123.753 Y143.748 E.03995
M204 S1000
;LAYER_CHANGE
;Z:0.35
;HEIGHT:0.15
;BEFORE_LAYER_CHANGE
G92 E0.0
;0.35


;WIPE_START
G1 F8640
G1 X123.021 Y143.015 E-.23919
G1 X123.021 Y142.359 E-.15147
G1 X124.203 Y143.542 E-.38614
G1 X124.729 Y143.542 E-.12145
G1 X124.729 Y143.412 E-.03002
G1 X124.509 Y143.192 E-.07173
;WIPE_END
G1 Z.35 F720
;AFTER_LAYER_CHANGE
;0.35
M104 S230 ; set temperature
M140 S85 ; set bed temperature
; stop printing object HDMI Stubout.stl id:0 copy 0
G1 Z.55
G1 X123.771 Y146.908 F10800
G1 Z.35 F720
G1 E1 F2100
;TYPE:Skirt/Brim
;WIDTH:0.5
G1 F3000
G1 X122.375 Y146.916 E.04073
G1 X121.955 Y146.88 E.0123
G1 X121.272 Y146.679 E.02077
G1 X120.665 Y146.309 E.02074
G1 X120.253 Y145.898 E.01698
G1 X119.837 Y145.18 E.02421
G1 X119.646 Y144.188 E.02947
G1 X119.646 Y65.813 E2.2865
G1 X119.79 Y64.949 E.02555
G1 X120.102 Y64.31 E.02075
G1 X120.609 Y63.738 E.0223
G1 X121.338 Y63.294 E.0249
G1 X121.83 Y63.142 E.01502
G1 X122.364 Y63.085 E.01567
M73 P17 R5
G1 X127.416 Y63.103 E.14739
G1 X128.218 Y63.316 E.02421
G1 X128.766 Y63.638 E.01854
G1 X129.165 Y64.005 E.01582
G1 X129.649 Y64.789 E.02688
G1 X129.853 Y65.794 E.02992
G1 X130.353 Y127.669 E1.80519
G1 X130.354 Y141.688 E.40899
M73 Q17 S5
G1 X130.167 Y142.67 E.02916
G1 X129.826 Y143.294 E.02075
G1 X127.385 Y146.032 E.10701
G1 X126.982 Y146.389 E.01571
G1 X126.357 Y146.729 E.02076
G1 X125.666 Y146.897 E.02075
G1 X123.831 Y146.908 E.05354
;WIPE_START
G1 F8640
G1 X123.771 Y146.908 E-.01385
G1 X122.375 Y146.916 E-.32235
