; generated by PrusaSlicer 2.9.4 on 2026-03-20 at 00:12:28 UTC


;
;
; 

; external perimeters extrusion width = 0.45mm
; perimeters extrusion width = 0.45mm
; infill extrusion width = 0.45mm
; solid infill extrusion width = 0.45mm
; top infill extrusion width = 0.40mm
; first layer extrusion width = 0.50mm

M73 P0 R6
M73 Q0 S6
M201 X1000 Y1000 Z200 E5000 ; sets maximum accelerations, mm/sec^2
M203 X200 Y200 Z12 E120 ; sets maximum feedrates, mm / sec
M204 S1250 T1250 ; sets acceleration (S) and retract acceleration (R), mm/sec^2
M205 X8.00 Y8.00 Z0.40 E4.50 ; sets the jerk limits, mm/sec
M205 S0 T0 ; sets the minimum extruding and travel feed rate, mm/sec

; printing object HDMI Stubout.stl id:0 copy 0
; stop printing object HDMI Stubout.stl id:0 copy 0

;TYPE:Custom
M862.3 P "MK3S" ; printer model check
M862.1 P0.4 ; nozzle diameter check
M115 U3.14.1 ; tell printer latest fw version
G90 ; use absolute coordinates
M83 ; extruder relative mode
M104 S240 ; set extruder temp
M140 S90 ; set bed temp
M190 S90 ; wait for bed temp
M109 S240 ; wait for extruder temp
G28 W ; home all without mesh bed level
G80 X119.418 Y62.8554 W11.1642 H84.2892 ; mesh bed levelling

G1 Z0.2 F720
G1 Y-3 F1000 ; go outside print area
G92 E0
G1 X60 E9 F1000 ; intro line
G1 X100 E12.5 F1000 ; intro line

G92 E0
M221 S95

; Don't change E values below. Excessive value can damage the printer.
M907 E430 ; set extruder motor current
G21 ; set units to millimeters
G90 ; use absolute coordinates
M83 ; use relative distances for extrusion

M900 K0.08 ; Filament gcode LA 1.5
M900 K45 ; Filament gcode LA 1.0




M107
;LAYER_CHANGE
;Z:0.2
;HEIGHT:0.2
G1 E-1 F2100
M73 P1 R6
M73 Q1 S6
G1 Z.4 F720
G1 X120.241 Y64.456 F10800
G1 Z.2 F720
G1 E1 F2100
M204 S800
;TYPE:Skirt/Brim
;WIDTH:0.5
G1 F900
G1 X120.811 Y63.837 E.03198
G1 X121.522 Y63.388 E.03196
G1 X122.325 Y63.137 E.03198
G1 X122.875 Y63.084 E.021
G1 X126.916 Y63.103 E.15359
G1 X127.978 Y63.388 E.04179
G1 X128.689 Y63.837 E.03196
G1 X129.1 Y64.249 E.02212
G1 X129.65 Y65.201 E.04179
G1 X129.853 Y66.294 E.04225
G1 X130.353 Y128.169 E2.35172
M73 Q2 S6
G1 X130.354 Y141.188 E.4948
M73 P3 R6
M73 Q3 S6
G1 X130.15 Y142.299 E.04293
G1 X129.759 Y143.044 E.03198
G1 X127.239 Y145.885 E.14433
G1 X126.732 Y146.322 E.02544
G1 X125.987 Y146.712 E.03196
G1 X125.425 Y146.863 E.02212
G1 X122.875 Y146.916 E.09694
G1 X122.325 Y146.863 E.021
G1 X121.522 Y146.612 E.03198
G1 X121.018 Y146.322 E.0221
G1 X120.4 Y145.751 E.03198
G1 X119.85 Y144.799 E.04179
G1 X119.646 Y143.688 E.04293
G1 X119.646 Y66.313 E2.94074
G1 X119.85 Y65.201 E.04297
M73 P4 R6
M73 Q4 S6
G1 X120.213 Y64.509 E.0297
M204 S1000
;WIPE_START
G1 F8640
G1 X120.241 Y64.456 E-.01384
G1 X120.811 Y63.837 E-.1943
G1 X121.522 Y63.388 E-.19417
G1 X122.325 Y63.137 E-.19426
G1 X122.875 Y63.084 E-.12758
G1 X124.07 Y63.09 E-.27585
;WIPE_END
G1 Z.4 F720
; printing object HDMI Stubout.stl id:0 copy 0
G1 X123.275 Y120.043 F10800
G1 Z.2 F720
M73 P5 R6
M73 Q5 S6
G1 E1 F2100
M204 S800
;TYPE:External perimeter
;WIDTH:0.400004
G1 F900
G1 X123.275 Y124.709 E.13854
;WIDTH:0.401366
G1 X123.275 Y124.724 E.00045
M204 S1000
;WIPE_START
G1 F8640
G1 X123.275 Y124.709 E-.00346
G1 X123.275 Y120.393 E-.99654
;WIPE_END
G1 Z.4 F720
G1 X123.275 Y86.541 F10800
G1 Z.2 F720
G1 E1 F2100
M204 S800
;WIDTH:0.400002
G1 F900
G1 X123.275 Y108.332 E.64701
;WIDTH:0.402702
G1 X123.274 Y108.363 E.00093
M204 S1000
;WIPE_START
G1 F8640
G1 X123.275 Y108.332 E-.00716
G1 X123.275 Y104.032 E-.99284
;WIPE_END
G1 Z.4 F720
G1 X123.575 Y117.244 F10800
G1 Z.2 F720
G1 E1 F2100
M204 S800
;TYPE:Perimeter
;WIDTH:0.499999
G1 F900
G1 X123.259 Y117.332 E.01247
;WIDTH:0.542931
G1 X122.967 Y117.667 E.01848
;WIDTH:0.585862
G1 X122.675 Y118.002 E.02006
G1 X122.653 Y117.414 E.02656
;WIDTH:0.542931
G1 X122.632 Y116.825 E.0245
;WIDTH:0.499999
G1 X122.632 Y111.55 E.20048
;WIDTH:0.548458
G1 X122.656 Y111.025 E.02209
;WIDTH:0.596916
G1 X122.68 Y110.5 E.02421
G1 X122.97 Y110.772 E.01832
;WIDTH:0.548458
G1 X123.259 Y111.043 E.01665
;WIDTH:0.499999
G1 X123.499 Y111.088 E.00928
G1 X123.632 Y111.197 E.00654
M73 Q6 S6
G1 X123.668 Y111.55 E.01349
G1 X123.668 Y117.071 E.20983
G1 X123.603 Y117.191 E.00519
M73 P6 R6
M204 S1000
;WIPE_START
G1 F8640
G1 X123.575 Y117.244 E-.01384
G1 X123.259 Y117.332 E-.07574
G1 X122.967 Y117.667 E-.10261
G1 X122.675 Y118.002 E-.10261
G1 X122.653 Y117.414 E-.13587
G1 X122.632 Y116.825 E-.13609
G1 X122.632 Y114.949 E-.43324
;WIPE_END
G1 Z.4 F720
G1 X122.675 Y118.002 F10800
G1 Z.2 F720
G1 E1 F2100
M204 S800
;WIDTH:0.585962
G1 F900
G1 X122.675 Y118.014 E.00054
;WIDTH:0.6027
G1 X122.683 Y119.021 E.04687
;WIDTH:0.61978
G1 X122.692 Y119.279 E.01238
M204 S1000
;WIPE_START
G1 F8640
G1 X122.683 Y119.021 E-.05961
G1 X122.675 Y118.014 E-.23253
G1 X122.675 Y118.002 E-.00277
;WIPE_END
G1 E-.70509 F2100
G1 Z.4 F720
G1 X122.69 Y109.11 F10800
G1 Z.2 F720
G1 E1 F2100
M204 S800
;WIDTH:0.615254
G1 F900
G1 X122.683 Y109.311 E.00957
;WIDTH:0.602692
G1 X122.675 Y110.361 E.04887
;WIDTH:0.596916
G1 X122.68 Y110.5 E.00641
M204 S1000
;WIPE_START
G1 F8640
G1 X122.675 Y110.361 E-.03212
G1 X122.683 Y109.311 E-.24245
G1 X122.69 Y109.11 E-.04644
;WIPE_END
G1 E-.67899 F2100
G1 Z.4 F720
G1 X123.275 Y120.043 F10800
G1 Z.2 F720
G1 E1 F2100
M204 S800
;TYPE:External perimeter
;WIDTH:0.447343
G1 F900
G1 X123.191 Y119.93 E.00473
;WIDTH:0.494686
G1 X123.106 Y119.817 E.00531
;WIDTH:0.499999
G1 X122.175 Y119.773 E.03542
G1 X122.175 Y108.607 E.42438
G1 X123.115 Y108.552 E.03579
;WIDTH:0.483699
G1 X123.194 Y108.458 E.0045
;WIDTH:0.443201
G1 X123.274 Y108.363 E.00413
;WIDTH:0.451351
G1 X123.249 Y108.588 E.00769
;WIDTH:0.499999
G1 X123.192 Y109.319 E.02787
G1 X123.175 Y110.369 E.03991
G1 X123.355 Y110.596 E.01101
G1 X123.638 Y110.649 E.01094
G1 X123.93 Y110.831 E.01308
G1 X124.1 Y111.137 E.0133
G1 X124.125 Y111.55 E.01573
G1 X124.125 Y117.193 E.21447
G1 X123.93 Y117.544 E.01526
G1 X123.721 Y117.687 E.00962
G1 X123.363 Y117.777 E.01403
G1 X123.175 Y118.006 E.01126
G1 X123.194 Y119.167 E.04413
G1 X123.235 Y119.605 E.01672
;WIDTH:0.45
G1 X123.269 Y119.983 E.01285
M204 S1000
;WIPE_START
G1 F8640
G1 X123.275 Y120.043 E-.01392
G1 X123.191 Y119.93 E-.03251
G1 X123.106 Y119.817 E-.03265
G1 X122.175 Y119.773 E-.21521
G1 X122.175 Y116.717 E-.70571
;WIPE_END
G1 Z.4 F720
G1 X124.801 Y143.93 F10800
G1 Z.2 F720
M73 P7 R6
M73 Q7 S6
G1 E1 F2100
M204 S800
;TYPE:Perimeter
;WIDTH:0.499999
G1 F900
G1 X122.814 Y143.916 E.07552
G1 X122.689 Y143.83 E.00577
G1 X122.632 Y143.638 E.00761
G1 X122.632 Y125.943 E.67252
G1 X122.667 Y125.572 E.01416
G1 X122.857 Y125.413 E.00942
G1 X123.365 Y125.387 E.01933
G1 X124.936 Y125.459 E.05977
G1 X125.061 Y125.545 E.00577
G1 X125.118 Y125.737 E.00761
G1 X125.128 Y127.378 E.06237
G1 X125.292 Y127.716 E.01428
G1 X125.457 Y127.851 E.0081
G1 X125.804 Y127.945 E.01366
G1 X127.165 Y127.945 E.05173
G1 X127.311 Y128.045 E.00673
G1 X127.368 Y128.258 E.00838
G1 X127.368 Y141.227 E.4929
G1 X127.268 Y141.373 E.00673
G1 X127.075 Y141.43 E.00765
G1 X125.804 Y141.43 E.04831
G1 X125.457 Y141.524 E.01366
G1 X125.292 Y141.659 E.0081
G1 X125.166 Y141.863 E.00911
G1 X125.118 Y142.116 E.00979
G1 X125.103 Y143.749 E.06207
G1 X125.018 Y143.873 E.00571
G1 X124.86 Y143.92 E.00627
M204 S1000
G1 X124.915 Y144.372 F10800
M204 S800
;TYPE:External perimeter
G1 F900
G1 X124.855 Y144.388 E.00236
G1 X122.895 Y144.388 E.07449
G1 X122.526 Y144.291 E.0145
G1 X122.271 Y144.036 E.01371
G1 X122.175 Y143.668 E.01445
G1 X122.175 Y126.03 E.67035
G1 X122.201 Y125.506 E.01994
M73 P8 R5
M73 Q8 S6
G1 X122.375 Y125.189 E.01374
G1 X122.701 Y124.966 E.01501
G1 X123.128 Y124.935 E.01627
G1 X123.202 Y124.83 E.00488
;WIDTH:0.450683
G1 X123.275 Y124.724 E.00436
G1 X123.349 Y124.829 E.00436
;WIDTH:0.499999
G1 X123.424 Y124.934 E.0049
G1 X124.888 Y124.992 E.05568
G1 X125.224 Y125.084 E.01324
G1 X125.479 Y125.339 E.01371
G1 X125.575 Y125.707 E.01445
G1 X125.575 Y127.259 E.05899
G1 X125.633 Y127.412 E.00622
G1 X125.804 Y127.488 E.00711
G1 X127.26 Y127.487 E.05534
G1 X127.618 Y127.694 E.01572
G1 X127.764 Y127.923 E.01032
G1 X127.825 Y128.258 E.01294
G1 X127.825 Y141.168 E.49066
G1 X127.729 Y141.536 E.01445
G1 X127.474 Y141.791 E.01371
G1 X127.105 Y141.887 E.01449
G1 X125.804 Y141.887 E.04945
G1 X125.633 Y141.963 E.00711
G1 X125.575 Y142.116 E.00622
G1 X125.575 Y143.668 E.05899
G1 X125.479 Y144.036 E.01445
G1 X125.224 Y144.291 E.01371
G1 X124.973 Y144.357 E.00986
M204 S1000
;WIPE_START
G1 F8640
G1 X124.915 Y144.372 E-.01383
G1 X124.855 Y144.388 E-.01434
G1 X122.895 Y144.388 E-.45257
G1 X122.526 Y144.291 E-.0881
G1 X122.271 Y144.036 E-.08327
G1 X122.175 Y143.668 E-.08782
G1 X122.175 Y142.542 E-.26007
;WIPE_END
G1 Z.4 F720
G1 X123.305 Y85.878 F10800
G1 Z.2 F720
G1 E1 F2100
M204 S800
;TYPE:Perimeter
G1 F900
G1 X123.277 Y85.88 E.00107
G1 X122.857 Y85.837 E.01605
G1 X122.699 Y85.729 E.00727
G1 X122.632 Y85.514 E.00856
G1 X122.632 Y66.273 E.73128
G1 X122.732 Y66.127 E.00673
M73 P9 R5
M73 Q9 S6
G1 X122.924 Y66.07 E.00761
G1 X126.657 Y66.08 E.14188
G1 X126.81 Y66.169 E.00673
G1 X126.868 Y66.362 E.00766
G1 X126.868 Y85.602 E.73124
G1 X126.768 Y85.748 E.00673
G1 X126.555 Y85.806 E.00839
G1 X124.352 Y85.808 E.08373
G1 X123.365 Y85.874 E.0376
M204 S1000
G1 X123.275 Y86.541 F10800
M204 S800
;TYPE:External perimeter
;WIDTH:0.450001
G1 F900
G1 X123.216 Y86.431 E.00423
;WIDTH:0.499999
G1 X123.157 Y86.321 E.00474
G1 X122.701 Y86.284 E.01739
G1 X122.375 Y86.061 E.01501
G1 X122.244 Y85.851 E.00941
G1 X122.175 Y85.543 E.012
G1 X122.175 Y66.332 E.73014
G1 X122.271 Y65.964 E.01445
M73 P10 R5
M73 Q10 S5
G1 X122.526 Y65.709 E.01371
G1 X122.894 Y65.613 E.01445
G1 X126.688 Y65.623 E.1442
G1 X126.974 Y65.709 E.01135
G1 X127.229 Y65.964 E.01371
G1 X127.325 Y66.332 E.01445
G1 X127.325 Y85.697 E.73599
G1 X127.118 Y86.056 E.01575
G1 X126.89 Y86.201 E.01027
G1 X126.555 Y86.263 E.01295
G1 X124.368 Y86.265 E.08312
G1 X123.424 Y86.316 E.03593
G1 X123.349 Y86.428 E.00512
;WIDTH:0.450001
G1 X123.308 Y86.491 E.00254
M204 S1000
;WIPE_START
G1 F8640
G1 X123.275 Y86.541 E-.01383
G1 X123.216 Y86.431 E-.02882
G1 X123.157 Y86.321 E-.02882
G1 X122.701 Y86.284 E-.10564
G1 X122.375 Y86.061 E-.0912
G1 X122.244 Y85.851 E-.05715
G1 X122.175 Y85.543 E-.07288
G1 X122.175 Y82.937 E-.60166
;WIPE_END
G1 Z.4 F720
G1 X125.744 Y66.263 F10800
G1 Z.2 F720
G1 E1 F2100
M204 S800
;TYPE:Solid infill
;WIDTH:0.500961
G1 F900
G1 X126.468 Y66.987 E.039
G1 X126.469 Y67.635 E.02468
G1 X125.3 Y66.467 E.06294
G1 X124.65 Y66.464 E.02476
G1 X126.469 Y68.283 E.09798
G1 X126.469 Y68.932 E.02472
G1 X124 Y66.462 E.13301
G1 X123.35 Y66.46 E.02476
G1 X126.47 Y69.58 E.16805
G1 X126.47 Y70.228 E.02468
G1 X123.021 Y66.778 E.1858
G1 X123.021 Y67.427 E.02472
M73 P11 R5
M73 Q11 S5
G1 X126.471 Y70.876 E.1858
G1 X126.471 Y71.524 E.02468
G1 X123.021 Y68.075 E.1858
G1 X123.022 Y68.723 E.02468
G1 X126.471 Y72.172 E.18577
G1 X126.472 Y72.82 E.02468
G1 X123.022 Y69.371 E.1858
G1 X123.023 Y70.019 E.02468
G1 X126.472 Y73.469 E.1858
G1 X126.473 Y74.117 E.02468
G1 X123.023 Y70.667 E.18582
G1 X123.023 Y71.315 E.02468
G1 X126.473 Y74.765 E.18582
G1 X126.473 Y75.413 E.02468
G1 X123.024 Y71.963 E.1858
G1 X123.024 Y72.611 E.02468
G1 X126.474 Y76.061 E.18582
G1 X126.474 Y76.709 E.02468
G1 X123.024 Y73.26 E.1858
G1 X123.025 Y73.908 E.02468
M73 P12 R5
M73 Q12 S5
G1 X126.475 Y77.358 E.18582
G1 X126.475 Y78.006 E.02468
G1 X123.025 Y74.556 E.18582
G1 X123.025 Y75.204 E.02468
G1 X126.475 Y78.654 E.18582
G1 X126.476 Y79.302 E.02468
G1 X123.026 Y75.852 E.18582
G1 X123.026 Y76.5 E.02468
G1 X126.476 Y79.95 E.18582
G1 X126.476 Y80.598 E.02468
G1 X123.026 Y77.148 E.18582
G1 X123.027 Y77.796 E.02468
G1 X126.477 Y81.247 E.18585
G1 X126.477 Y81.895 E.02468
G1 X123.027 Y78.444 E.18585
G1 X123.027 Y79.093 E.02472
G1 X126.478 Y82.543 E.18585
G1 X126.478 Y83.191 E.02468
G1 X123.028 Y79.741 E.18582
G1 X123.028 Y80.389 E.02468
G1 X126.478 Y83.839 E.18582
G1 X126.479 Y84.487 E.02468
M73 P13 R5
M73 Q13 S5
G1 X123.028 Y81.037 E.18585
G1 X123.029 Y81.685 E.02468
G1 X126.479 Y85.135 E.18582
G1 X126.479 Y85.409 E.01044
G1 X126.107 Y85.411 E.01417
G1 X123.029 Y82.333 E.16579
G1 X123.029 Y82.981 E.02468
G1 X125.462 Y85.414 E.13105
G1 X124.818 Y85.417 E.02453
G1 X123.03 Y83.629 E.09631
G1 X123.03 Y84.278 E.02472
G1 X124.184 Y85.431 E.06213
G1 X123.573 Y85.469 E.02332
G1 X122.825 Y84.72 E.04032
M204 S1000
;WIPE_START
G1 F8640
G1 X123.573 Y85.469 E-.24442
G1 X124.184 Y85.431 E-.14135
G1 X123.03 Y84.278 E-.37667
G1 X123.03 Y83.629 E-.14986
G1 X123.299 Y83.898 E-.0877
;WIPE_END
G1 Z.4 F720
G1 X123.485 Y112.244 F10800
G1 Z.2 F720
G1 E1 F2100
M204 S800
;WIDTH:0.521162
G1 F900
G1 X123.02 Y111.779 E.02615
G1 X123.02 Y112.456 E.02692
G1 X123.279 Y112.715 E.01457
G1 X123.279 Y113.391 E.02688
G1 X123.02 Y113.132 E.01457
G1 X123.02 Y113.808 E.02688
G1 X123.279 Y114.067 E.01457
G1 X123.279 Y114.744 E.02692
G1 X123.02 Y114.485 E.01457
G1 X123.02 Y115.161 E.02688
G1 X123.279 Y115.42 E.01457
G1 X123.279 Y116.096 E.02688
G1 X123.02 Y115.837 E.01457
G1 X123.02 Y116.514 E.02692
G1 X123.485 Y116.978 E.02612
M204 S1000
;WIPE_START
G1 F8640
G1 X123.02 Y116.514 E-.15168
G1 X123.02 Y115.837 E-.15632
G1 X123.279 Y116.096 E-.08458
G1 X123.279 Y115.42 E-.15609
G1 X123.02 Y115.161 E-.08458
G1 X123.02 Y114.485 E-.15609
G1 X123.279 Y114.744 E-.08458
G1 X123.279 Y114.198 E-.12608
;WIPE_END
G1 Z.4 F720
G1 X124.937 Y126.591 F10800
G1 Z.2 F720
M73 P14 R5
G1 E1 F2100
M204 S800
;WIDTH:0.506131
G1 F900
G1 X124.157 Y125.811 E.04249
G1 X123.471 Y125.78 E.02645
M73 Q14 S5
G1 X124.947 Y127.255 E.08037
M204 S1000
;WIPE_START
G1 F8640
G1 X123.471 Y125.78 E-.48182
G1 X124.157 Y125.811 E-.15856
G1 X124.937 Y126.591 E-.25471
;WIPE_END
G1 E-.10491 F2100
G1 Z.4 F720
G1 X126.474 Y128.128 F10800
G1 Z.2 F720
G1 E1 F2100
M204 S800
G1 F900
G1 X126.979 Y128.633 E.02751
G1 X126.979 Y129.287 E.02519
G1 X125.819 Y128.128 E.06316
M204 S1000
;WIPE_START
G1 F8640
G1 X126.979 Y129.287 E-.37863
G1 X126.979 Y128.633 E-.15101
G1 X126.474 Y128.128 E-.16491
;WIPE_END
G1 E-.30545 F2100
G1 Z.4 F720
G1 X127.184 Y130.148 F10800
G1 Z.2 F720
G1 E1 F2100
M204 S800
G1 F900
G1 X123.02 Y125.984 E.22681
G1 X123.02 Y126.639 E.02523
G1 X126.978 Y130.597 E.21559
G1 X126.977 Y131.251 E.02519
G1 X123.021 Y127.294 E.21551
G1 X123.021 Y127.95 E.02527
G1 X126.977 Y131.906 E.21548
G1 X126.977 Y132.561 E.02523
G1 X123.021 Y128.605 E.21548
G1 X123.021 Y129.26 E.02523
G1 X126.976 Y133.215 E.21543
G1 X126.976 Y133.87 E.02523
M73 P15 R5
G1 X123.021 Y129.915 E.21543
G1 X123.021 Y130.57 E.02523
M73 Q15 S5
G1 X126.975 Y134.525 E.2154
G1 X126.975 Y135.179 E.02519
G1 X123.021 Y131.225 E.21537
G1 X123.021 Y131.88 E.02523
G1 X126.974 Y135.834 E.21535
G1 X126.974 Y136.488 E.02519
G1 X123.021 Y132.535 E.21532
G1 X123.021 Y133.19 E.02523
G1 X126.973 Y137.143 E.21529
G1 X126.973 Y137.798 E.02523
G1 X123.021 Y133.845 E.21529
G1 X123.021 Y134.5 E.02523
G1 X126.973 Y138.452 E.21527
G1 X126.972 Y139.107 E.02523
G1 X123.021 Y135.155 E.21524
G1 X123.021 Y135.81 E.02523
G1 X126.972 Y139.762 E.21524
G1 X126.971 Y140.416 E.02519
M73 P16 R5
M73 Q16 S5
G1 X123.021 Y136.466 E.21516
G1 X123.021 Y137.121 E.02523
G1 X126.931 Y141.031 E.21298
G1 X126.282 Y141.037 E.025
G1 X123.021 Y137.776 E.17763
G1 X123.021 Y138.431 E.02523
G1 X125.651 Y141.061 E.14326
G1 X125.521 Y141.078 E.00505
G1 X125.258 Y141.189 E.01099
G1 X125.184 Y141.249 E.00367
G1 X123.021 Y139.086 E.11782
G1 X123.021 Y139.741 E.02523
G1 X124.878 Y141.598 E.10115
G1 X124.802 Y141.72 E.00554
G1 X124.729 Y142.105 E.01509
G1 X123.021 Y140.396 E.09306
G1 X123.021 Y141.051 E.02523
G1 X124.729 Y142.76 E.09306
G1 X124.729 Y143.415 E.02523
G1 X123.021 Y141.706 E.09306
G1 X123.021 Y142.361 E.02523
G1 X124.201 Y143.542 E.0643
G1 X123.546 Y143.542 E.02523
G1 X122.815 Y142.811 E.03982
M204 S1000
;LAYER_CHANGE
;Z:0.35
;HEIGHT:0.15
;BEFORE_LAYER_CHANGE
G92 E0.0
;0.35


;WIPE_START
G1 F8640
G1 X123.546 Y143.542 E-.23871
G1 X124.201 Y143.542 E-.15124
G1 X123.021 Y142.361 E-.38549
G1 X123.021 Y141.706 E-.15124
G1 X123.246 Y141.931 E-.07332
;WIPE_END
G1 Z.35 F720
;AFTER_LAYER_CHANGE
;0.35
M104 S230 ; set temperature
M140 S85 ; set bed temperature
