; generated by PrusaSlicer 2.9.4 on 2026-03-31 at 18:06:27 UTC


;
;
; 

; external perimeters extrusion width = 0.45mm
; perimeters extrusion width = 0.45mm
; infill extrusion width = 0.45mm
; solid infill extrusion width = 0.45mm
; top infill extrusion width = 0.40mm
; first layer extrusion width = 0.50mm

; external perimeters extrusion width = 0.45mm
; perimeters extrusion width = 0.45mm
; infill extrusion width = 0.45mm
; solid infill extrusion width = 0.45mm
; top infill extrusion width = 0.40mm
; first layer extrusion width = 0.50mm

; external perimeters extrusion width = 0.45mm
; perimeters extrusion width = 0.45mm
; infill extrusion width = 0.45mm
; solid infill extrusion width = 0.45mm
; top infill extrusion width = 0.40mm
; first layer extrusion width = 0.50mm

M73 P0 R12
M73 Q0 S12
M201 X1000 Y1000 Z200 E5000 ; sets maximum accelerations, mm/sec^2
M203 X200 Y200 Z12 E120 ; sets maximum feedrates, mm / sec
M204 S1250 T1250 ; sets acceleration (S) and retract acceleration (R), mm/sec^2
M205 X8.00 Y8.00 Z0.40 E4.50 ; sets the jerk limits, mm/sec
M205 S0 T0 ; sets the minimum extruding and travel feed rate, mm/sec

; printing object HDMI Part 1 Test.stl id:1 copy 0
; stop printing object HDMI Part 1 Test.stl id:1 copy 0
; printing object HDMI Part 2 Test.stl id:2 copy 0
; stop printing object HDMI Part 2 Test.stl id:2 copy 0
; printing object HDMI Stubout.stl id:0 copy 0
; stop printing object HDMI Stubout.stl id:0 copy 0

;TYPE:Custom
M862.3 P "MK3S" ; printer model check
M862.1 P0.4 ; nozzle diameter check
M115 U3.14.1 ; tell printer latest fw version
G90 ; use absolute coordinates
M83 ; extruder relative mode
M104 S240 ; set extruder temp
M140 S90 ; set bed temp
M190 S90 ; wait for bed temp
M109 S240 ; wait for extruder temp
G28 W ; home all without mesh bed level
G80 X81.4447 Y104.603 W84.2892 H28.4022 ; mesh bed levelling

G1 Z0.2 F720
G1 Y-3 F1000 ; go outside print area
G92 E0
G1 X60 E9 F1000 ; intro line
G1 X100 E12.5 F1000 ; intro line

G92 E0
M221 S95

; Don't change E values below. Excessive value can damage the printer.
M907 E430 ; set extruder motor current
G21 ; set units to millimeters
G90 ; use absolute coordinates
M83 ; use relative distances for extrusion

M900 K0.08 ; Filament gcode LA 1.5
M900 K45 ; Filament gcode LA 1.0




M107
;LAYER_CHANGE
;Z:0.2
;HEIGHT:0.2
G1 E-1 F2100
G1 Z.4 F720
G1 X84.333 Y105.601 F10800
G1 Z.2 F720
G1 E1 F2100
M204 S800
;TYPE:Skirt/Brim
;WIDTH:0.5
G1 F900
G1 X86.018 Y104.831 E.07041
G1 X110.124 Y104.834 E.91618
G1 X150.896 Y106.782 E1.55136
M73 P1 R12
M73 Q1 S12
G1 X152.137 Y107.233 E.05018
G1 X152.629 Y107.749 E.0271
G1 X164.982 Y125.789 E.83097
G1 X165.302 Y126.436 E.02743
G1 X165.505 Y127.548 E.04296
G1 X165.486 Y129.839 E.08708
G1 X165.202 Y130.901 E.04178
G1 X164.752 Y131.612 E.03198
G1 X164.133 Y132.182 E.03198
G1 X163.388 Y132.573 E.03198
G1 X162.277 Y132.777 E.04293
G1 X84.902 Y132.777 E2.94074
G1 X84.352 Y132.723 E.021
M73 P2 R12
M73 Q2 S12
G1 X83.549 Y132.473 E.03196
G1 X82.838 Y132.023 E.03198
G1 X82.427 Y131.612 E.02209
G1 X81.877 Y130.66 E.04179
G1 X81.692 Y129.839 E.03199
G1 X81.687 Y125.548 E.16309
G1 X83.803 Y106.81 E.71669
G1 X84.309 Y105.656 E.04789
M204 S1000
;WIPE_START
G1 F8640
G1 X84.333 Y105.601 E-.01386
G1 X86.018 Y104.831 E-.42777
G1 X88.436 Y104.831 E-.55837
;WIPE_END
G1 Z.4 F720
; printing object HDMI Part 1 Test.stl id:1 copy 0
G1 X98.018 Y115.153 F10800
G1 Z.2 F720
G1 E1 F2100
M204 S800
;TYPE:Perimeter
;WIDTH:0.499999
G1 F900
G1 X86.775 Y115.153 E.4273
G1 X86.775 Y107.817 E.27881
G1 X89.76 Y107.817 E.11345
G1 X89.76 Y109.054 E.04701
G1 X89.831 Y109.624 E.02183
M73 Q3 S12
G1 X90.042 Y110.216 E.02389
G1 X90.403 Y110.773 E.02523
G1 X90.886 Y111.228 E.02522
G1 X91.464 Y111.554 E.02522
G1 X92.104 Y111.732 E.02525
M73 P3 R12
G1 X92.515 Y111.767 E.01568
G1 X103.57 Y111.767 E.42016
G1 X104.256 Y111.662 E.02638
G1 X104.87 Y111.409 E.02524
G1 X105.35 Y111.07 E.02233
G1 X105.736 Y110.641 E.02193
G1 X106.062 Y110.063 E.02522
G1 X106.24 Y109.424 E.02521
G1 X106.275 Y109.012 E.01571
G1 X106.275 Y107.817 E.04542
G1 X109.26 Y107.817 E.11345
G1 X109.26 Y115.153 E.27881
G1 X98.078 Y115.153 E.42499
M204 S1000
G1 X98.018 Y115.61 F10800
M204 S800
;TYPE:External perimeter
G1 F900
G1 X86.318 Y115.61 E.44467
G1 X86.318 Y107.36 E.31355
G1 X90.218 Y107.36 E.14822
G1 X90.218 Y109.026 E.06332
G1 X90.281 Y109.545 E.01987
G1 X90.47 Y110.054 E.02064
G1 X90.779 Y110.514 E.02106
G1 X91.189 Y110.886 E.02104
G1 X91.677 Y111.149 E.02107
G1 X92.213 Y111.288 E.02105
G1 X92.515 Y111.31 E.01151
G1 X103.535 Y111.31 E.41883
G1 X104.094 Y111.235 E.02144
G1 X104.61 Y111.032 E.02107
G1 X105.044 Y110.73 E.0201
G1 X105.394 Y110.338 E.01997
G1 X105.657 Y109.851 E.02104
G1 X105.796 Y109.314 E.02108
G1 X105.818 Y109.012 E.01151
G1 X105.818 Y107.36 E.06279
G1 X109.718 Y107.36 E.14822
G1 X109.718 Y115.61 E.31355
G1 X98.078 Y115.61 E.44239
M204 S1000
;WIPE_START
G1 F8640
G1 X98.018 Y115.61 E-.01385
G1 X93.747 Y115.61 E-.98615
;WIPE_END
G1 Z.4 F720
G1 X108.151 Y108 F10800
G1 Z.2 F720
M73 Q4 S12
G1 E1 F2100
M73 P4 R12
M204 S800
;TYPE:Solid infill
;WIDTH:0.501467
G1 F900
G1 X108.872 Y108.721 E.03888
G1 X108.872 Y109.37 E.02475
G1 X107.708 Y108.206 E.06276
G1 X107.059 Y108.206 E.02475
G1 X108.872 Y110.018 E.09773
G1 X108.872 Y110.667 E.02475
G1 X106.663 Y108.458 E.11911
G1 X106.656 Y109.099 E.02444
G1 X108.872 Y111.315 E.11949
G1 X108.872 Y111.964 E.02475
G1 X106.579 Y109.671 E.12364
G1 X106.495 Y110.011 E.01335
G1 X106.433 Y110.174 E.00665
G1 X108.872 Y112.612 E.13149
G1 X108.872 Y113.261 E.02475
G1 X106.216 Y110.605 E.14322
G1 X106.032 Y110.892 E.013
G1 X105.948 Y110.986 E.00481
G1 X108.872 Y113.909 E.15764
G1 X108.872 Y114.558 E.02475
G1 X105.641 Y111.326 E.17425
G1 X105.268 Y111.602 E.01769
G1 X108.43 Y114.764 E.1705
G1 X107.782 Y114.764 E.02471
G1 X104.865 Y111.847 E.15729
G1 X104.385 Y112.016 E.0194
G1 X107.133 Y114.764 E.14818
G1 X106.485 Y114.764 E.02471
G1 X103.841 Y112.12 E.14257
G1 X103.529 Y112.156 E.01197
G1 X103.227 Y112.156 E.01151
G1 X105.836 Y114.764 E.14065
G1 X105.188 Y114.764 E.02471
G1 X102.579 Y112.156 E.14065
G1 X101.931 Y112.156 E.02471
G1 X104.539 Y114.764 E.14063
G1 X103.891 Y114.764 E.02471
G1 X101.282 Y112.156 E.14065
G1 X100.634 Y112.156 E.02471
G1 X103.242 Y114.764 E.14063
G1 X102.594 Y114.764 E.02471
G1 X99.985 Y112.156 E.14065
G1 X99.337 Y112.156 E.02471
G1 X101.945 Y114.764 E.14063
G1 X101.297 Y114.764 E.02471
G1 X98.688 Y112.156 E.14065
G1 X98.04 Y112.156 E.02471
G1 X100.648 Y114.764 E.14063
G1 X100 Y114.764 E.02471
G1 X97.391 Y112.156 E.14065
G1 X96.743 Y112.156 E.02471
G1 X99.351 Y114.764 E.14063
G1 X98.703 Y114.764 E.02471
G1 X96.094 Y112.156 E.14065
G1 X95.446 Y112.156 E.02471
G1 X98.054 Y114.764 E.14063
G1 X97.406 Y114.764 E.02471
M73 Q5 S12
G1 X94.797 Y112.156 E.14065
G1 X94.149 Y112.156 E.02471
M73 P5 R12
G1 X96.758 Y114.764 E.14065
G1 X96.109 Y114.764 E.02475
G1 X93.5 Y112.156 E.14065
G1 X92.852 Y112.156 E.02471
G1 X95.461 Y114.764 E.14065
G1 X94.812 Y114.764 E.02475
G1 X91.924 Y111.876 E.15573
M204 S1000
;WIPE_START
G1 F8640
G1 X94.812 Y114.764 E-.94306
G1 X95.058 Y114.764 E-.05694
;WIPE_END
G1 Z.4 F720
G1 X89.578 Y108.881 F10800
G1 Z.2 F720
G1 E1 F2100
M204 S800
G1 F900
G1 X88.902 Y108.206 E.03642
G1 X88.253 Y108.206 E.02475
G1 X89.642 Y109.595 E.0749
M204 S1000
;WIPE_START
G1 F8640
G1 X88.253 Y108.206 E-.45357
G1 X88.902 Y108.206 E-.14986
G1 X89.578 Y108.881 E-.22058
;WIPE_END
G1 E-.17599 F2100
G1 Z.4 F720
G1 X87.399 Y108 F10800
G1 Z.2 F720
G1 E1 F2100
M204 S800
G1 F900
G1 X89.634 Y110.235 E.12051
G1 X89.794 Y110.575 E.01433
G1 X90.088 Y111.002 E.01977
G1 X90.247 Y111.181 E.00913
G1 X90.636 Y111.525 E.0198
G1 X90.833 Y111.661 E.00913
G1 X91.307 Y111.908 E.02038
G1 X94.164 Y114.764 E.15403
G1 X93.515 Y114.764 E.02475
G1 X87.163 Y108.412 E.34251
G1 X87.163 Y109.061 E.02475
G1 X92.867 Y114.764 E.30754
G1 X92.218 Y114.764 E.02475
G1 X87.163 Y109.709 E.27257
G1 X87.163 Y110.358 E.02475
G1 X91.57 Y114.764 E.23761
G1 X90.921 Y114.764 E.02475
G1 X87.163 Y111.006 E.20264
G1 X87.163 Y111.655 E.02475
G1 X90.273 Y114.764 E.16767
G1 X89.624 Y114.764 E.02475
G1 X87.163 Y112.303 E.1327
G1 X87.163 Y112.952 E.02475
G1 X88.976 Y114.764 E.09773
G1 X88.327 Y114.764 E.02475
G1 X87.163 Y113.6 E.06276
G1 X87.163 Y114.249 E.02475
G1 X87.884 Y114.97 E.03888
M204 S1000
;WIPE_START
G1 F8640
G1 X87.163 Y114.249 E-.23544
G1 X87.163 Y113.6 E-.14986
G1 X88.327 Y114.764 E-.3801
G1 X88.976 Y114.764 E-.14986
G1 X88.716 Y114.505 E-.08474
;WIPE_END
G1 Z.4 F720
; stop printing object HDMI Part 1 Test.stl id:1 copy 0
; printing object HDMI Stubout.stl id:0 copy 0
G1 X138.601 Y129.149 F10800
G1 Z.2 F720
M73 Q6 S12
G1 E1 F2100
M204 S800
;TYPE:External perimeter
;WIDTH:0.402706
G1 F900
G1 X138.632 Y129.148 E.00093
;WIDTH:0.400006
G1 X143.298 Y129.148 E.13854
M204 S1000
;WIPE_START
G1 F8640
M73 P6 R12
G1 X138.967 Y129.148 E-1
;WIPE_END
G1 Z.4 F720
G1 X105.13 Y129.148 F10800
G1 Z.2 F720
G1 E1 F2100
M204 S800
;WIDTH:0.400002
G1 F900
G1 X126.922 Y129.148 E.64704
M204 S1000
;WIPE_START
G1 F8640
G1 X122.591 Y129.148 E-1
;WIPE_END
G1 Z.4 F720
G1 X132.761 Y129.791 F10800
G1 Z.2 F720
G1 E1 F2100
M204 S800
;TYPE:Perimeter
;WIDTH:0.499999
G1 F900
G1 X130.139 Y129.791 E.09965
;WIDTH:0.548458
G1 X129.614 Y129.767 E.02209
;WIDTH:0.596916
G1 X129.089 Y129.743 E.02421
G1 X129.361 Y129.453 E.01832
;WIDTH:0.548458
G1 X129.633 Y129.164 E.01668
;WIDTH:0.499999
G1 X129.675 Y128.93 E.00904
G1 X129.787 Y128.791 E.00678
G1 X130.139 Y128.755 E.01345
G1 X135.664 Y128.755 E.20998
G1 X135.834 Y128.849 E.00738
G1 X135.921 Y129.164 E.01242
;WIDTH:0.543038
G1 X136.256 Y129.456 E.01848
;WIDTH:0.586076
G1 X136.591 Y129.748 E.02007
G1 X136.003 Y129.77 E.02657
;WIDTH:0.543038
G1 X135.415 Y129.791 E.02447
;WIDTH:0.499999
G1 X132.821 Y129.791 E.09859
M204 S1000
;WIPE_START
G1 F8640
G1 X132.761 Y129.791 E-.01385
G1 X130.139 Y129.791 E-.60543
G1 X129.614 Y129.767 E-.12135
G1 X129.089 Y129.743 E-.12135
G1 X129.361 Y129.453 E-.09181
G1 X129.498 Y129.307 E-.04621
;WIPE_END
G1 Z.4 F720
G1 X136.591 Y129.748 F10800
G1 Z.2 F720
G1 E1 F2100
M204 S800
;WIDTH:0.588704
G1 F900
G1 X137.128 Y129.747 E.02437
;WIDTH:0.624784
G1 X137.866 Y129.729 E.03572
M204 S1000
;WIPE_START
G1 F8640
G1 X137.128 Y129.747 E-.17046
G1 X136.591 Y129.748 E-.124
;WIPE_END
G1 E-.70554 F2100
G1 Z.4 F720
G1 X127.7 Y129.733 F10800
G1 Z.2 F720
G1 E1 F2100
M204 S800
;WIDTH:0.615254
G1 F900
G1 X127.901 Y129.74 E.00957
;WIDTH:0.602694
G1 X128.951 Y129.748 E.04887
;WIDTH:0.596916
G1 X129.089 Y129.743 E.00636
M204 S1000
;WIPE_START
G1 F8640
G1 X128.951 Y129.748 E-.03189
G1 X127.901 Y129.74 E-.24245
G1 X127.7 Y129.733 E-.04644
;WIPE_END
G1 E-.67922 F2100
G1 Z.4 F720
G1 X132.761 Y130.248 F10800
G1 Z.2 F720
G1 E1 F2100
M204 S800
;TYPE:External perimeter
;WIDTH:0.499999
G1 F900
G1 X127.196 Y130.248 E.2115
G1 X127.145 Y129.308 E.03578
;WIDTH:0.490395
G1 X127.033 Y129.228 E.00512
;WIDTH:0.445197
G1 X126.922 Y129.148 E.00458
;WIDTH:0.433332
G1 X127.082 Y129.165 E.00522
;WIDTH:0.466666
G1 X127.242 Y129.181 E.00567
;WIDTH:0.499999
G1 X127.909 Y129.231 E.02542
G1 X128.959 Y129.248 E.03991
G1 X129.186 Y129.068 E.01101
G1 X129.236 Y128.791 E.0107
G1 X129.421 Y128.493 E.01333
G1 X129.727 Y128.323 E.0133
G1 X130.139 Y128.298 E.01569
G1 X135.782 Y128.298 E.21447
G1 X136.133 Y128.493 E.01526
G1 X136.28 Y128.708 E.0099
G1 X136.366 Y129.061 E.01381
G1 X136.592 Y129.248 E.01115
G1 X137.136 Y129.245 E.02068
G1 X138.343 Y129.174 E.04595
;WIDTH:0.451353
G1 X138.601 Y129.149 E.0088
;WIDTH:0.445313
G1 X138.505 Y129.233 E.00427
;WIDTH:0.48792
G1 X138.41 Y129.317 E.00469
;WIDTH:0.499999
G1 X138.363 Y130.248 E.03543
G1 X132.821 Y130.248 E.21063
M204 S1000
;WIPE_START
G1 F8640
G1 X132.761 Y130.248 E-.01385
G1 X128.49 Y130.248 E-.98615
;WIPE_END
G1 Z.4 F720
G1 X153.014 Y129.791 F10800
G1 Z.2 F720
M73 Q7 S12
G1 E1 F2100
M204 S800
;TYPE:Perimeter
G1 F900
G1 X144.532 Y129.791 E.32237
G1 X144.161 Y129.756 E.01416
M73 P7 R11
G1 X144.002 Y129.566 E.00942
G1 X143.977 Y129.058 E.01933
G1 X144.048 Y127.487 E.05977
G1 X144.134 Y127.362 E.00577
G1 X144.326 Y127.305 E.00761
G1 X145.967 Y127.295 E.06237
G1 X146.305 Y127.131 E.01428
G1 X146.44 Y126.966 E.0081
G1 X146.534 Y126.619 E.01366
G1 X146.534 Y125.258 E.05173
G1 X146.634 Y125.112 E.00673
G1 X146.826 Y125.055 E.00761
G1 X159.819 Y125.056 E.49382
G1 X159.963 Y125.155 E.00664
G1 X160.02 Y125.348 E.00765
G1 X160.02 Y126.619 E.04831
G1 X160.114 Y126.966 E.01366
G1 X160.248 Y127.131 E.00808
G1 X160.453 Y127.257 E.00915
G1 X160.705 Y127.305 E.00975
G1 X162.338 Y127.32 E.06207
G1 X162.463 Y127.405 E.00575
G1 X162.52 Y127.618 E.00838
G1 X162.505 Y129.609 E.07567
G1 X162.42 Y129.734 E.00575
G1 X162.227 Y129.791 E.00765
G1 X153.074 Y129.791 E.34787
M204 S1000
G1 X153.014 Y130.248 F10800
M204 S800
;TYPE:External perimeter
G1 F900
G1 X144.62 Y130.248 E.31902
G1 X144.095 Y130.222 E.01998
G1 X143.778 Y130.048 E.01374
G1 X143.555 Y129.722 E.01501
G1 X143.525 Y129.295 E.01627
G1 X143.411 Y129.222 E.00514
;WIDTH:0.450003
G1 X143.298 Y129.148 E.00457
G1 X143.411 Y129.074 E.00457
;WIDTH:0.499999
G1 X143.523 Y128.999 E.00512
G1 X143.581 Y127.535 E.05568
G1 X143.673 Y127.199 E.01324
G1 X143.928 Y126.944 E.01371
G1 X144.296 Y126.848 E.01445
G1 X145.848 Y126.848 E.05899
G1 X146.001 Y126.79 E.00622
G1 X146.077 Y126.619 E.00711
G1 X146.077 Y125.318 E.04945
G1 X146.173 Y124.949 E.01449
G1 X146.428 Y124.694 E.01371
G1 X146.796 Y124.598 E.01445
G1 X159.767 Y124.599 E.49298
G1 X160.126 Y124.694 E.01411
M73 Q7 S11
G1 X160.381 Y124.949 E.01371
G1 X160.477 Y125.318 E.01449
G1 X160.477 Y126.619 E.04945
G1 X160.553 Y126.79 E.00711
G1 X160.705 Y126.848 E.00618
G1 X162.457 Y126.874 E.06659
G1 X162.77 Y127.055 E.01374
G1 X162.916 Y127.283 E.01029
G1 X162.977 Y127.618 E.01294
G1 X162.977 Y129.528 E.07259
G1 X162.881 Y129.897 E.01449
G1 X162.626 Y130.152 E.01371
G1 X162.257 Y130.248 E.01449
G1 X153.074 Y130.248 E.34901
M204 S1000
;WIPE_START
G1 F8640
G1 X153.014 Y130.248 E-.01385
G1 X148.743 Y130.248 E-.98615
;WIPE_END
G1 Z.4 F720
G1 X94.809 Y129.791 F10800
G1 Z.2 F720
G1 E1 F2100
M204 S800
;TYPE:Perimeter
G1 F900
G1 X84.862 Y129.791 E.37805
G1 X84.716 Y129.691 E.00673
M73 Q8 S11
G1 X84.659 Y129.498 E.00765
G1 X84.659 Y125.758 E.14214
G1 X84.759 Y125.612 E.00673
M73 P8 R11
G1 X84.951 Y125.555 E.00761
G1 X104.192 Y125.555 E.73128
G1 X104.338 Y125.655 E.00673
G1 X104.395 Y125.868 E.00838
G1 X104.397 Y128.071 E.08373
G1 X104.469 Y129.146 E.04095
G1 X104.426 Y129.566 E.01605
G1 X104.318 Y129.724 E.00727
G1 X104.103 Y129.791 E.00856
G1 X94.869 Y129.791 E.35095
M204 S1000
G1 X94.809 Y130.248 F10800
M204 S800
;TYPE:External perimeter
G1 F900
G1 X84.921 Y130.248 E.37581
G1 X84.553 Y130.152 E.01445
G1 X84.298 Y129.897 E.01371
G1 X84.202 Y129.528 E.01449
G1 X84.202 Y125.818 E.141
G1 X84.298 Y125.449 E.01449
G1 X84.553 Y125.194 E.01371
G1 X84.921 Y125.098 E.01445
G1 X104.287 Y125.098 E.73603
G1 X104.645 Y125.305 E.01572
G1 X104.791 Y125.533 E.01029
G1 X104.852 Y125.868 E.01294
G1 X104.855 Y128.055 E.08312
G1 X104.905 Y128.999 E.03593
G1 X105.018 Y129.074 E.00515
;WIDTH:0.450001
G1 X105.13 Y129.148 E.00454
G1 X105.02 Y129.207 E.00423
;WIDTH:0.499999
G1 X104.91 Y129.266 E.00474
G1 X104.873 Y129.722 E.01739
G1 X104.65 Y130.048 E.01501
G1 X104.44 Y130.179 E.00941
G1 X104.133 Y130.248 E.01196
G1 X94.869 Y130.248 E.35209
M204 S1000
;WIPE_START
G1 F8640
G1 X94.809 Y130.248 E-.01385
G1 X90.538 Y130.248 E-.98615
;WIPE_END
G1 Z.4 F720
G1 X103.273 Y125.746 F10800
G1 Z.2 F720
G1 E1 F2100
M204 S800
;TYPE:Solid infill
;WIDTH:0.500358
G1 F900
G1 X103.998 Y126.471 E.039
G1 X104.003 Y127.122 E.02476
G1 X102.832 Y125.952 E.06296
G1 X102.185 Y125.951 E.02461
G1 X104.007 Y127.774 E.09803
G1 X104.033 Y128.447 E.02562
G1 X101.537 Y125.951 E.13426
G1 X100.89 Y125.951 E.02461
G1 X104.075 Y129.136 E.17132
G1 X104.05 Y129.403 E.0102
M73 Q9 S11
G1 X103.695 Y129.402 E.0135
G1 X100.243 Y125.95 E.18569
G1 X99.596 Y125.95 E.02461
M73 P9 R11
G1 X103.048 Y129.402 E.18569
G1 X102.401 Y129.402 E.02461
G1 X98.949 Y125.95 E.18569
G1 X98.301 Y125.949 E.02465
G1 X101.753 Y129.401 E.18569
G1 X101.106 Y129.401 E.02461
