; generated by PrusaSlicer 2.9.4 on 2026-04-07 at 16:11:24 UTC


;
;
; 

; external perimeters extrusion width = 0.45mm
; perimeters extrusion width = 0.45mm
; infill extrusion width = 0.45mm
; solid infill extrusion width = 0.45mm
; top infill extrusion width = 0.40mm
; first layer extrusion width = 0.50mm

; external perimeters extrusion width = 0.45mm
; perimeters extrusion width = 0.45mm
; infill extrusion width = 0.45mm
; solid infill extrusion width = 0.45mm
; top infill extrusion width = 0.40mm
; first layer extrusion width = 0.50mm

; external perimeters extrusion width = 0.45mm
; perimeters extrusion width = 0.45mm
; infill extrusion width = 0.45mm
; solid infill extrusion width = 0.45mm
; top infill extrusion width = 0.40mm
; first layer extrusion width = 0.50mm

M73 P0 R12
M73 Q0 S12
M201 X1000 Y1000 Z200 E5000 ; sets maximum accelerations, mm/sec^2
M203 X200 Y200 Z12 E120 ; sets maximum feedrates, mm / sec
M204 S1250 T1250 ; sets acceleration (S) and retract acceleration (R), mm/sec^2
M205 X8.00 Y8.00 Z0.40 E4.50 ; sets the jerk limits, mm/sec
M205 S0 T0 ; sets the minimum extruding and travel feed rate, mm/sec

; printing object HDMI Stubout.stl id:2 copy 0
; stop printing object HDMI Stubout.stl id:2 copy 0
; printing object HDMI Part 2 Test.stl id:1 copy 0
; stop printing object HDMI Part 2 Test.stl id:1 copy 0
; printing object HDMI Part 1 Test.stl id:0 copy 0
; stop printing object HDMI Part 1 Test.stl id:0 copy 0

;TYPE:Custom
M862.3 P "MK3S" ; printer model check
M862.1 P0.4 ; nozzle diameter check
M115 U3.14.1 ; tell printer latest fw version
G90 ; use absolute coordinates
M83 ; extruder relative mode
M104 S240 ; set extruder temp
M140 S90 ; set bed temp
M190 S90 ; wait for bed temp
M109 S240 ; wait for extruder temp
G28 W ; home all without mesh bed level
G80 X86.0152 Y91.0691 W84.2892 H31.8111 ; mesh bed levelling

G1 Z0.2 F720
G1 Y-3 F1000 ; go outside print area
G92 E0
G1 X60 E9 F1000 ; intro line
G1 X100 E12.5 F1000 ; intro line

G92 E0
M221 S95

; Don't change E values below. Excessive value can damage the printer.
M907 E430 ; set extruder motor current
G21 ; set units to millimeters
G90 ; use absolute coordinates
M83 ; use relative distances for extrusion

M900 K0.08 ; Filament gcode LA 1.5
M900 K45 ; Filament gcode LA 1.0




M107
;LAYER_CHANGE
;Z:0.2
;HEIGHT:0.2
G1 E-1 F2100
G1 Z.4 F720
G1 X98.234 Y92.46 F10800
G1 Z.2 F720
G1 E1 F2100
M204 S800
;TYPE:Skirt/Brim
;WIDTH:0.5
G1 F900
G1 X99.18 Y91.54 E.05015
G1 X100.191 Y91.298 E.03951
G1 X124.321 Y91.301 E.91709
G1 X153.886 Y93.03 E1.12558
M73 P1 R12
M73 Q1 S12
G1 X155.122 Y93.494 E.05018
G1 X155.62 Y94.034 E.02792
G1 X169.839 Y115.82 E.98876
G1 X170.04 Y116.503 E.02706
G1 X170.076 Y116.923 E.01602
G1 X170.076 Y119.923 E.11402
G1 X169.889 Y120.905 E.03799
G1 X169.548 Y121.53 E.02706
G1 X169.057 Y122.045 E.02704
G1 X168.45 Y122.415 E.02702
G1 X167.768 Y122.615 E.02701
G1 X167.358 Y122.65 E.01564
G1 X88.972 Y122.652 E2.97916
G1 X88.552 Y122.615 E.01602
M73 P2 R12
M73 Q2 S12
G1 X87.879 Y122.419 E.02664
G1 X87.331 Y122.098 E.02414
G1 X86.897 Y121.689 E.02267
G1 X86.453 Y120.96 E.03244
G1 X86.302 Y120.468 E.01956
G1 X86.245 Y119.934 E.02041
G1 X86.244 Y115.174 E.18091
G1 X86.43 Y114.191 E.03802
G1 X98.205 Y92.513 E.9376
M204 S1000
;WIPE_START
G1 F8640
G1 X98.234 Y92.46 E-.01395
G1 X99.18 Y91.54 E-.3047
G1 X100.191 Y91.298 E-.24004
G1 X102.102 Y91.298 E-.44131
;WIPE_END
G1 Z.4 F720
; printing object HDMI Part 1 Test.stl id:0 copy 0
G1 X120.448 Y101.305 F10800
G1 Z.2 F720
G1 E1 F2100
M204 S800
;TYPE:Perimeter
;WIDTH:0.499999
G1 F900
G1 X120.448 Y100.424 E.03348
G1 X120.383 Y99.848 E.02203
G1 X120.166 Y99.22 E.02525
G1 X119.806 Y98.663 E.02521
G1 X119.323 Y98.208 E.02522
G1 X118.744 Y97.882 E.02525
G1 X118.105 Y97.704 E.02521
G1 X117.693 Y97.669 E.01571
G1 X106.639 Y97.669 E.42012
G1 X105.952 Y97.774 E.02641
G1 X105.339 Y98.028 E.02522
G1 X104.858 Y98.366 E.02234
G1 X104.473 Y98.795 E.02191
G1 X104.147 Y99.373 E.02522
G1 X103.969 Y100.012 E.02521
G1 X103.934 Y100.424 E.01571
G1 X103.934 Y101.619 E.04542
G1 X100.948 Y101.619 E.11349
M73 Q3 S12
G1 X100.948 Y94.283 E.27881
M73 P3 R12
G1 X123.434 Y94.283 E.85461
G1 X123.434 Y101.619 E.27881
G1 X120.448 Y101.619 E.11349
G1 X120.448 Y101.365 E.00965
M204 S1000
G1 X119.991 Y101.952 F10800
M204 S800
;TYPE:External perimeter
G1 F900
G1 X119.991 Y100.424 E.05807
G1 X119.929 Y99.903 E.01994
G1 X119.739 Y99.382 E.02108
G1 X119.43 Y98.923 E.02103
G1 X119.019 Y98.55 E.02109
G1 X118.532 Y98.287 E.02104
G1 X117.995 Y98.148 E.02108
G1 X117.693 Y98.126 E.01151
G1 X106.674 Y98.126 E.41879
G1 X106.114 Y98.201 E.02147
G1 X105.599 Y98.404 E.02104
G1 X105.164 Y98.706 E.02013
G1 X104.815 Y99.098 E.01995
G1 X104.552 Y99.585 E.02104
G1 X104.413 Y100.122 E.02108
G1 X104.391 Y100.424 E.01151
G1 X104.391 Y102.076 E.06279
G1 X100.491 Y102.076 E.14822
G1 X100.491 Y93.826 E.31355
G1 X123.891 Y93.826 E.88935
G1 X123.891 Y102.076 E.31355
G1 X119.991 Y102.076 E.14822
G1 X119.991 Y102.012 E.00243
M204 S1000
;WIPE_START
G1 F8640
G1 X119.991 Y101.952 E-.01385
G1 X119.991 Y100.424 E-.35282
G1 X119.929 Y99.903 E-.12115
G1 X119.739 Y99.382 E-.12805
G1 X119.43 Y98.923 E-.12776
M73 Q4 S12
G1 X119.019 Y98.55 E-.12816
G1 X118.532 Y98.287 E-.1278
G1 X118.53 Y98.287 E-.00041
;WIPE_END
G1 Z.4 F720
G1 X122.324 Y94.466 F10800
G1 Z.2 F720
M73 P4 R12
G1 E1 F2100
M204 S800
;TYPE:Solid infill
;WIDTH:0.501467
G1 F900
G1 X123.045 Y95.187 E.03888
G1 X123.045 Y95.836 E.02475
G1 X121.881 Y94.672 E.06276
G1 X121.233 Y94.672 E.02471
G1 X123.045 Y96.484 E.09771
G1 X123.045 Y97.133 E.02475
G1 X120.584 Y94.672 E.1327
G1 X119.936 Y94.672 E.02471
G1 X123.045 Y97.781 E.16764
G1 X123.045 Y98.43 E.02475
G1 X119.287 Y94.672 E.20264
G1 X118.639 Y94.672 E.02471
G1 X123.045 Y99.078 E.23758
G1 X123.045 Y99.727 E.02475
G1 X117.99 Y94.672 E.27257
G1 X117.342 Y94.672 E.02471
G1 X123.045 Y100.375 E.30751
G1 X123.045 Y101.024 E.02475
G1 X116.693 Y94.672 E.34251
G1 X116.045 Y94.672 E.02471
G1 X118.901 Y97.528 E.154
G1 X119.376 Y97.775 E.02041
G1 X119.573 Y97.911 E.00913
G1 X119.961 Y98.255 E.01977
G1 X120.12 Y98.434 E.00913
G1 X120.415 Y98.861 E.01979
G1 X120.575 Y99.202 E.01436
G1 X122.604 Y101.231 E.10941
G1 X121.955 Y101.231 E.02475
G1 X120.799 Y100.074 E.06236
G1 X120.837 Y100.415 E.01308
G1 X120.837 Y100.76 E.01315
G1 X121.512 Y101.436 E.03642
M204 S1000
;WIPE_START
G1 F8640
G1 X120.837 Y100.76 E-.22058
G1 X120.837 Y100.415 E-.07966
G1 X120.799 Y100.074 E-.07923
G1 X121.955 Y101.231 E-.37765
G1 X122.604 Y101.231 E-.14986
G1 X122.319 Y100.946 E-.09302
;WIPE_END
G1 Z.4 F720
G1 X118.285 Y97.56 F10800
G1 Z.2 F720
G1 E1 F2100
M204 S800
G1 F900
G1 X115.396 Y94.672 E.15575
G1 X114.748 Y94.672 E.02471
G1 X117.357 Y97.281 E.14068
G1 X116.708 Y97.281 E.02475
G1 X114.099 Y94.672 E.14068
G1 X113.451 Y94.672 E.02471
G1 X116.06 Y97.281 E.14068
G1 X115.411 Y97.281 E.02475
G1 X112.803 Y94.672 E.14065
G1 X112.154 Y94.672 E.02475
G1 X114.763 Y97.281 E.14068
G1 X114.114 Y97.281 E.02475
G1 X111.506 Y94.672 E.14065
G1 X110.857 Y94.672 E.02475
G1 X113.466 Y97.281 E.14068
G1 X112.817 Y97.281 E.02475
M73 Q5 S12
G1 X110.209 Y94.672 E.14065
M73 P5 R12
G1 X109.56 Y94.672 E.02475
G1 X112.169 Y97.281 E.14068
G1 X111.52 Y97.281 E.02475
G1 X108.912 Y94.672 E.14065
G1 X108.263 Y94.672 E.02475
G1 X110.872 Y97.281 E.14068
G1 X110.223 Y97.281 E.02475
G1 X107.615 Y94.672 E.14065
G1 X106.966 Y94.672 E.02475
G1 X109.575 Y97.281 E.14068
G1 X108.926 Y97.281 E.02475
G1 X106.318 Y94.672 E.14065
G1 X105.669 Y94.672 E.02475
G1 X108.278 Y97.281 E.14068
G1 X107.63 Y97.281 E.02471
G1 X105.021 Y94.672 E.14068
G1 X104.372 Y94.672 E.02475
G1 X106.981 Y97.281 E.14068
G1 X106.68 Y97.281 E.01148
G1 X106.368 Y97.316 E.01197
G1 X103.724 Y94.672 E.14257
G1 X103.075 Y94.672 E.02475
G1 X105.824 Y97.42 E.1482
G1 X105.344 Y97.589 E.0194
G1 X102.427 Y94.672 E.15729
G1 X101.778 Y94.672 E.02475
G1 X104.938 Y97.832 E.17039
G1 X104.699 Y97.997 E.01107
G1 X104.57 Y98.112 E.00659
G1 X101.337 Y94.879 E.17433
G1 X101.337 Y95.527 E.02471
G1 X104.259 Y98.45 E.15759
G1 X104.176 Y98.544 E.00478
G1 X103.992 Y98.831 E.013
G1 X101.337 Y96.176 E.14316
G1 X101.337 Y96.824 E.02471
G1 X103.775 Y99.263 E.13149
G1 X103.713 Y99.425 E.00661
G1 X103.63 Y99.765 E.01334
G1 X101.337 Y97.473 E.12362
G1 X101.337 Y98.121 E.02471
G1 X103.553 Y100.337 E.11949
G1 X103.545 Y100.978 E.02444
G1 X101.337 Y98.77 E.11906
G1 X101.337 Y99.418 E.02471
G1 X103.149 Y101.231 E.09773
G1 X102.501 Y101.231 E.02471
G1 X101.337 Y100.066 E.06279
G1 X101.337 Y100.715 E.02475
G1 X102.058 Y101.436 E.03888
M204 S1000
;WIPE_START
G1 F8640
G1 X101.337 Y100.715 E-.23544
G1 X101.337 Y100.066 E-.14986
G1 X102.501 Y101.231 E-.38026
G1 X103.149 Y101.231 E-.14962
G1 X102.889 Y100.971 E-.08482
;WIPE_END
G1 Z.4 F720
; stop printing object HDMI Part 1 Test.stl id:0 copy 0
; printing object HDMI Stubout.stl id:2 copy 0
G1 X143.171 Y119.024 F10800
G1 Z.2 F720
G1 E1 F2100
M204 S800
;TYPE:External perimeter
;WIDTH:0.402706
G1 F900
G1 X143.203 Y119.023 E.00096
;WIDTH:0.40136
G1 X147.883 Y119.023 E.13948
M204 S1000
;WIPE_START
G1 F8640
M73 P6 R12
M73 Q6 S12
G1 X143.552 Y119.023 E-1
;WIPE_END
G1 Z.4 F720
G1 X109.686 Y119.023 F10800
G1 Z.2 F720
G1 E1 F2100
M204 S800
;WIDTH:0.401364
G1 F900
G1 X109.702 Y119.023 E.00048
;WIDTH:0.399998
G1 X131.492 Y119.023 E.64697
M204 S1000
;WIPE_START
G1 F8640
M73 P6 R11
G1 X127.161 Y119.023 E-1
;WIPE_END
G1 Z.4 F720
G1 X137.331 Y119.666 F10800
G1 Z.2 F720
G1 E1 F2100
M204 S800
;TYPE:Perimeter
;WIDTH:0.499999
G1 F900
G1 X134.72 Y119.666 E.09923
;WIDTH:0.548431
G1 X134.195 Y119.642 E.02209
;WIDTH:0.596862
G1 X133.67 Y119.618 E.02421
G1 X133.942 Y119.328 E.01831
;WIDTH:0.548431
G1 X134.214 Y119.039 E.01668
;WIDTH:0.499999
G1 X134.229 Y118.63 E.01556
G1 X140.465 Y118.63 E.23701
G1 X140.481 Y119.039 E.01556
;WIDTH:0.543029
G1 X140.816 Y119.331 E.01848
;WIDTH:0.586058
G1 X141.151 Y119.623 E.02007
G1 X140.563 Y119.645 E.02657
;WIDTH:0.543029
G1 X139.974 Y119.666 E.02451
;WIDTH:0.499999
G1 X137.391 Y119.666 E.09817
M204 S1000
;WIPE_START
G1 F8640
G1 X137.331 Y119.666 E-.01385
G1 X134.72 Y119.666 E-.60289
G1 X134.195 Y119.642 E-.12135
G1 X133.67 Y119.618 E-.12135
G1 X133.942 Y119.328 E-.09181
G1 X134.087 Y119.174 E-.04875
;WIPE_END
G1 Z.4 F720
G1 X141.151 Y119.623 F10800
G1 Z.2 F720
G1 E1 F2100
M204 S800
;WIDTH:0.588704
G1 F900
G1 X141.7 Y119.622 E.02491
;WIDTH:0.624744
G1 X142.436 Y119.604 E.03562
M204 S1000
;WIPE_START
G1 F8640
G1 X141.7 Y119.622 E-.17
G1 X141.151 Y119.623 E-.12677
;WIPE_END
G1 E-.70323 F2100
G1 Z.4 F720
G1 X132.27 Y119.609 F10800
G1 Z.2 F720
G1 E1 F2100
M204 S800
;WIDTH:0.61519
G1 F900
G1 X132.47 Y119.615 E.00952
;WIDTH:0.602692
G1 X133.532 Y119.623 E.04943
;WIDTH:0.596862
G1 X133.67 Y119.618 E.00636
M204 S1000
;WIPE_START
G1 F8640
G1 X133.532 Y119.623 E-.03189
G1 X132.47 Y119.615 E-.24523
G1 X132.27 Y119.609 E-.0462
;WIPE_END
G1 E-.67668 F2100
G1 Z.4 F720
G1 X137.331 Y120.123 F10800
G1 Z.2 F720
G1 E1 F2100
M204 S800
;TYPE:External perimeter
;WIDTH:0.499999
G1 F900
G1 X131.766 Y120.123 E.2115
G1 X131.715 Y119.183 E.03578
;WIDTH:0.490395
G1 X131.603 Y119.103 E.00512
;WIDTH:0.445197
G1 X131.492 Y119.023 E.00458
;WIDTH:0.433332
G1 X131.652 Y119.04 E.00522
;WIDTH:0.466666
G1 X131.812 Y119.056 E.00567
;WIDTH:0.499999
G1 X132.478 Y119.106 E.02538
G1 X133.54 Y119.123 E.04037
G1 X133.767 Y118.943 E.01101
G1 X133.772 Y118.408 E.02033
G1 X133.842 Y118.242 E.00685
G1 X134.007 Y118.173 E.0068
G1 X140.688 Y118.173 E.25392
G1 X140.853 Y118.242 E.0068
G1 X140.922 Y118.408 E.00683
G1 X140.928 Y118.943 E.02033
G1 X141.152 Y119.123 E.01092
G1 X141.707 Y119.12 E.02109
G1 X142.914 Y119.049 E.04595
;WIDTH:0.451353
G1 X143.171 Y119.024 E.00877
;WIDTH:0.445313
G1 X143.076 Y119.108 E.00424
;WIDTH:0.48792
G1 X142.98 Y119.192 E.00472
;WIDTH:0.499999
G1 X142.933 Y120.123 E.03543
G1 X137.391 Y120.123 E.21063
M204 S1000
;WIPE_START
G1 F8640
M73 Q6 S11
G1 X137.331 Y120.123 E-.01385
G1 X133.06 Y120.123 E-.98615
;WIPE_END
G1 Z.4 F720
G1 X157.587 Y119.666 F10800
G1 Z.2 F720
M73 Q7 S11
G1 E1 F2100
M204 S800
;TYPE:Perimeter
G1 F900
G1 X148.585 Y119.666 E.34213
G1 X148.552 Y118.879 E.02994
M73 P7 R11
G1 X148.602 Y117.876 E.03817
G1 X148.604 Y117.18 E.02645
G1 X150.537 Y117.17 E.07347
G1 X150.876 Y117.006 E.01431
G1 X151.01 Y116.841 E.00808
G1 X151.104 Y116.495 E.01363
G1 X151.104 Y114.93 E.05948
G1 X164.59 Y114.931 E.51255
G1 X164.59 Y116.495 E.05944
G1 X164.684 Y116.841 E.01363
G1 X164.819 Y117.006 E.0081
G1 X165.023 Y117.132 E.00911
G1 X165.276 Y117.18 E.00979
G1 X167.09 Y117.18 E.06894
G1 X167.09 Y119.666 E.09448
G1 X157.647 Y119.666 E.35889
M204 S1000
G1 X157.587 Y120.123 F10800
M204 S800
;TYPE:External perimeter
G1 F900
G1 X149.094 Y120.123 E.32279
G1 X148.299 Y120.101 E.03023
G1 X148.179 Y120.018 E.00555
G1 X148.138 Y119.847 E.00668
G1 X148.094 Y119.171 E.02575
G1 X147.988 Y119.097 E.00491
;WIDTH:0.45068
G1 X147.883 Y119.023 E.00436
G1 X147.986 Y118.964 E.00402
;WIDTH:0.499999
G1 X148.088 Y118.905 E.00448
G1 X148.096 Y118.856 E.00189
G1 X148.145 Y117.874 E.03737
G1 X148.147 Y116.958 E.03481
G1 X148.217 Y116.792 E.00685
G1 X148.382 Y116.723 E.0068
G1 X150.419 Y116.723 E.07742
G1 X150.571 Y116.665 E.00618
G1 X150.647 Y116.495 E.00708
G1 X150.647 Y114.708 E.06792
G1 X150.717 Y114.542 E.00685
G1 X150.882 Y114.473 E.0068
G1 X164.816 Y114.473 E.52958
G1 X164.978 Y114.542 E.00669
G1 X165.047 Y114.708 E.00683
G1 X165.047 Y116.495 E.06792
G1 X165.123 Y116.665 E.00708
G1 X165.276 Y116.723 E.00622
G1 X167.364 Y116.723 E.07936
G1 X167.513 Y116.827 E.00691
G1 X167.547 Y116.993 E.00644
G1 X167.547 Y119.889 E.11007
G1 X167.478 Y120.054 E.0068
G1 X167.313 Y120.123 E.0068
G1 X157.647 Y120.123 E.36737
M204 S1000
;WIPE_START
G1 F8640
G1 X157.587 Y120.123 E-.01385
G1 X153.316 Y120.123 E-.98615
;WIPE_END
G1 Z.4 F720
G1 X99.358 Y119.666 F10800
G1 Z.2 F720
G1 E1 F2100
M204 S800
;TYPE:Perimeter
G1 F900
G1 X89.229 Y119.666 E.38497
G1 X89.229 Y115.43 E.16099
M73 P8 R11
M73 Q8 S11
G1 X108.965 Y115.43 E.75009
G1 X108.968 Y117.933 E.09513
G1 X109.04 Y119.024 E.04156
G1 X108.985 Y119.666 E.02449
G1 X99.418 Y119.666 E.36361
M204 S1000
G1 X99.358 Y120.123 F10800
M204 S800
;TYPE:External perimeter
G1 F900
G1 X89.007 Y120.123 E.3934
G1 X88.842 Y120.054 E.0068
G1 X88.772 Y119.889 E.00681
G1 X88.772 Y115.208 E.17791
G1 X88.842 Y115.042 E.00685
G1 X89.007 Y114.973 E.0068
G1 X109.239 Y114.973 E.76894
G1 X109.388 Y115.077 E.00691
G1 X109.422 Y115.243 E.00644
G1 X109.425 Y117.917 E.10163
G1 X109.475 Y118.875 E.03646
G1 X109.581 Y118.949 E.00491
;WIDTH:0.450682
G1 X109.686 Y119.023 E.00436
G1 X109.584 Y119.082 E.004
;WIDTH:0.499999
G1 X109.482 Y119.142 E.0045
G1 X109.429 Y119.878 E.02805
G1 X109.355 Y120.053 E.00722
G1 X109.188 Y120.123 E.00688
G1 X99.418 Y120.123 E.37132
M204 S1000
;WIPE_START
G1 F8640
G1 X99.358 Y120.123 E-.01385
G1 X95.087 Y120.123 E-.98615
;WIPE_END
G1 Z.4 F720
G1 X107.856 Y115.613 F10800
G1 Z.2 F720
G1 E1 F2100
M204 S800
;TYPE:Solid infill
;WIDTH:0.501208
G1 F900
G1 X108.578 Y116.335 E.03891
G1 X108.578 Y116.983 E.02469
G1 X107.414 Y115.819 E.06273
G1 X106.766 Y115.819 E.02469
G1 X108.579 Y117.632 E.0977
G1 X108.602 Y118.303 E.02558
G1 X106.118 Y115.819 E.13387
G1 X105.469 Y115.819 E.02473
G1 X108.645 Y118.995 E.17116
G1 X108.624 Y119.277 E.01078
M73 Q9 S11
G1 X108.28 Y119.277 E.01311
G1 X104.821 Y115.819 E.18638
M73 P9 R11
G1 X104.173 Y115.819 E.02469
G1 X107.632 Y119.277 E.18638
G1 X106.984 Y119.277 E.02469
G1 X103.525 Y115.819 E.18638
G1 X102.877 Y115.819 E.02469
G1 X106.336 Y119.277 E.18638
G1 X105.688 Y119.277 E.02469
G1 X102.229 Y115.819 E.18638
G1 X101.581 Y115.819 E.02469
G1 X105.04 Y119.277 E.18638
G1 X104.391 Y119.277 E.02473
G1 X100.933 Y115.819 E.18636
G1 X100.285 Y115.819 E.02469
G1 X103.743 Y119.277 E.18636
G1 X103.095 Y119.277 E.02469
G1 X99.636 Y115.819 E.18638
G1 X98.988 Y115.819 E.02469
G1 X102.447 Y119.277 E.18638
G1 X101.799 Y119.277 E.02469
G1 X98.34 Y115.819 E.18638
G1 X97.692 Y115.819 E.02469
G1 X101.151 Y119.277 E.18638
G1 X100.503 Y119.277 E.02469
G1 X97.044 Y115.819 E.18638
G1 X96.396 Y115.819 E.02469
G1 X99.855 Y119.277 E.18638
G1 X99.207 Y119.277 E.02469
