; generated by PrusaSlicer 2.9.4 on 2026-03-20 at 00:12:56 UTC


;
;
; 

; external perimeters extrusion width = 0.45mm
; perimeters extrusion width = 0.45mm
; infill extrusion width = 0.45mm
; solid infill extrusion width = 0.45mm
; top infill extrusion width = 0.40mm
; first layer extrusion width = 0.50mm

M73 P0 R7
M73 Q0 S7
M201 X1000 Y1000 Z200 E5000 ; sets maximum accelerations, mm/sec^2
M203 X200 Y200 Z12 E120 ; sets maximum feedrates, mm / sec
M204 S1250 T1250 ; sets acceleration (S) and retract acceleration (R), mm/sec^2
M205 X8.00 Y8.00 Z0.40 E4.50 ; sets the jerk limits, mm/sec
M205 S0 T0 ; sets the minimum extruding and travel feed rate, mm/sec

; printing object J1 Cover.stl id:0 copy 0
; stop printing object J1 Cover.stl id:0 copy 0

;TYPE:Custom
M862.3 P "MK3S" ; printer model check
M862.1 P0.4 ; nozzle diameter check
M115 U3.14.1 ; tell printer latest fw version
G90 ; use absolute coordinates
M83 ; extruder relative mode
M104 S240 ; set extruder temp
M140 S90 ; set bed temp
M190 S90 ; wait for bed temp
M109 S240 ; wait for extruder temp
G28 W ; home all without mesh bed level
G80 X118.079 Y74.854 W13.8419 H60.2919 ; mesh bed levelling

G1 Z0.2 F720
G1 Y-3 F1000 ; go outside print area
G92 E0
G1 X60 E9 F1000 ; intro line
G1 X100 E12.5 F1000 ; intro line

G92 E0
M221 S95

; Don't change E values below. Excessive value can damage the printer.
M907 E430 ; set extruder motor current
G21 ; set units to millimeters
G90 ; use absolute coordinates
M83 ; use relative distances for extrusion

M900 K0.08 ; Filament gcode LA 1.5
M900 K45 ; Filament gcode LA 1.0




M107
;LAYER_CHANGE
;Z:0.2
;HEIGHT:0.2
G1 E-1 F2100
M73 P1 R7
M73 Q1 S7
G1 Z.4 F720
G1 X118.702 Y76.051 F10800
G1 Z.2 F720
G1 E1 F2100
M204 S800
;TYPE:Skirt/Brim
;WIDTH:0.5
G1 F900
G1 X119.738 Y75.233 E.05017
G1 X120.536 Y75.085 E.03085
G1 X129.464 Y75.085 E.33932
G1 X130.724 Y75.477 E.05015
G1 X131.542 Y76.514 E.0502
G1 X131.69 Y77.311 E.03081
G1 X131.69 Y132.689 E2.10471
G1 X131.298 Y133.949 E.05015
M73 P2 R7
M73 Q2 S7
G1 X130.262 Y134.767 E.05017
G1 X129.464 Y134.915 E.03085
G1 X120.536 Y134.915 E.33932
G1 X119.276 Y134.523 E.05015
G1 X118.458 Y133.486 E.0502
G1 X118.31 Y132.689 E.03081
G1 X118.31 Y77.311 E2.10471
G1 X118.684 Y76.108 E.04788
M73 P3 R7
M73 Q3 S7
M204 S1000
;WIPE_START
G1 F8640
G1 X118.702 Y76.051 E-.0138
G1 X119.738 Y75.233 E-.30479
G1 X120.536 Y75.085 E-.1874
G1 X122.675 Y75.085 E-.49401
;WIPE_END
G1 Z.4 F720
; printing object J1 Cover.stl id:0 copy 0
G1 X125.004 Y131.571 F10800
G1 Z.2 F720
G1 E1 F2100
M204 S800
;TYPE:Perimeter
;WIDTH:0.499999
G1 F900
G1 X121.654 Y131.571 E.12732
G1 X121.654 Y78.429 E2.01973
G1 X128.346 Y78.429 E.25434
M73 P4 R7
M73 Q4 S7
G1 X128.346 Y131.571 E2.01973
M73 P4 R6
G1 X125.064 Y131.571 E.12474
M73 P5 R6
M73 Q5 S7
M204 S1000
G1 X125.002 Y132.028 F10800
M204 S800
;TYPE:External perimeter
G1 F900
G1 X121.197 Y132.028 E.14461
G1 X121.197 Y77.972 E2.05447
G1 X128.803 Y77.972 E.28908
M73 P6 R6
M73 Q6 S7
G1 X128.803 Y132.028 E2.05447
G1 X125.062 Y132.028 E.14218
M73 P7 R6
M73 Q7 S6
M204 S1000
;WIPE_START
G1 F8640
G1 X125.002 Y132.028 E-.01385
G1 X121.197 Y132.028 E-.87859
G1 X121.197 Y131.562 E-.10756
;WIPE_END
G1 Z.4 F720
G1 X128.164 Y79.542 F10800
G1 Z.2 F720
G1 E1 F2100
M204 S800
;TYPE:Solid infill
;WIDTH:0.502893
G1 F900
G1 X127.439 Y78.817 E.03921
G1 X126.789 Y78.817 E.02486
G1 X127.958 Y79.986 E.06323
G1 X127.958 Y80.637 E.0249
G1 X126.138 Y78.817 E.09844
G1 X125.488 Y78.817 E.02486
G1 X127.958 Y81.287 E.1336
G1 X127.958 Y81.938 E.0249
G1 X124.837 Y78.817 E.16881
G1 X124.187 Y78.817 E.02486
M73 P8 R6
G1 X127.958 Y82.588 E.20397
M73 Q8 S6
G1 X127.958 Y83.239 E.0249
G1 X123.536 Y78.817 E.23918
G1 X122.886 Y78.817 E.02486
G1 X127.958 Y83.889 E.27434
G1 X127.958 Y84.54 E.0249
G1 X122.235 Y78.817 E.30955
G1 X122.042 Y78.817 E.00738
G1 X122.042 Y79.275 E.01752
G1 X127.958 Y85.19 E.31997
G1 X127.958 Y85.841 E.0249
G1 X122.042 Y79.925 E.31999
G1 X122.042 Y80.576 E.0249
G1 X127.958 Y86.491 E.31997
G1 X127.958 Y87.142 E.0249
G1 X122.042 Y81.226 E.31999
G1 X122.042 Y81.877 E.0249
M73 P9 R6
G1 X127.958 Y87.792 E.31997
G1 X127.958 Y88.443 E.0249
M73 Q9 S6
G1 X122.042 Y82.527 E.31999
G1 X122.042 Y83.178 E.0249
G1 X127.958 Y89.093 E.31997
G1 X127.958 Y89.744 E.0249
G1 X122.042 Y83.828 E.31999
G1 X122.042 Y84.479 E.0249
G1 X127.958 Y90.394 E.31997
G1 X127.958 Y91.045 E.0249
G1 X122.042 Y85.129 E.31999
G1 X122.042 Y85.78 E.0249
G1 X127.958 Y91.695 E.31997
G1 X127.958 Y92.346 E.0249
G1 X122.042 Y86.43 E.31999
M73 P10 R6
G1 X122.042 Y87.081 E.0249
M73 Q10 S6
G1 X127.958 Y92.996 E.31997
G1 X127.958 Y93.647 E.0249
G1 X122.042 Y87.731 E.31999
G1 X122.042 Y88.382 E.0249
G1 X127.958 Y94.297 E.31997
G1 X127.958 Y94.948 E.0249
G1 X122.042 Y89.032 E.31999
G1 X122.042 Y89.683 E.0249
G1 X127.958 Y95.598 E.31997
G1 X127.958 Y96.249 E.0249
G1 X122.042 Y90.333 E.31999
G1 X122.042 Y90.984 E.0249
G1 X127.958 Y96.899 E.31997
G1 X127.958 Y97.55 E.0249
M73 P11 R6
G1 X122.042 Y91.634 E.31999
M73 Q11 S6
G1 X122.042 Y92.285 E.0249
G1 X127.958 Y98.2 E.31997
G1 X127.958 Y98.851 E.0249
G1 X122.042 Y92.935 E.31999
G1 X122.042 Y93.586 E.0249
G1 X127.958 Y99.501 E.31997
G1 X127.958 Y100.152 E.0249
G1 X122.042 Y94.236 E.31999
G1 X122.042 Y94.887 E.0249
G1 X127.958 Y100.802 E.31997
G1 X127.958 Y101.453 E.0249
G1 X122.042 Y95.537 E.31999
G1 X122.042 Y96.188 E.0249
M73 P12 R6
G1 X127.958 Y102.103 E.31997
G1 X127.958 Y102.754 E.0249
M73 Q12 S6
G1 X122.042 Y96.838 E.31999
G1 X122.042 Y97.489 E.0249
G1 X127.958 Y103.404 E.31997
G1 X127.958 Y104.055 E.0249
G1 X122.042 Y98.139 E.31999
G1 X122.042 Y98.79 E.0249
G1 X127.958 Y104.705 E.31997
G1 X127.958 Y105.356 E.0249
G1 X122.042 Y99.44 E.31999
G1 X122.042 Y100.091 E.0249
G1 X127.958 Y106.006 E.31997
G1 X127.958 Y106.657 E.0249
M73 P13 R6
G1 X122.042 Y100.741 E.31999
G1 X122.042 Y101.392 E.0249
M73 Q13 S6
G1 X127.958 Y107.307 E.31997
G1 X127.958 Y107.958 E.0249
G1 X122.042 Y102.042 E.31999
G1 X122.042 Y102.693 E.0249
G1 X127.958 Y108.608 E.31997
G1 X127.958 Y109.259 E.0249
G1 X122.042 Y103.343 E.31999
G1 X122.042 Y103.994 E.0249
G1 X127.958 Y109.909 E.31997
G1 X127.958 Y110.56 E.0249
G1 X122.042 Y104.644 E.31999
G1 X122.042 Y105.295 E.0249
G1 X127.958 Y111.21 E.31997
G1 X127.958 Y111.861 E.0249
M73 P14 R6
G1 X122.042 Y105.945 E.31999
G1 X122.042 Y106.596 E.0249
M73 Q14 S6
G1 X127.958 Y112.511 E.31997
G1 X127.958 Y113.162 E.0249
G1 X122.042 Y107.246 E.31999
G1 X122.042 Y107.897 E.0249
G1 X127.958 Y113.812 E.31997
G1 X127.958 Y114.463 E.0249
G1 X122.042 Y108.547 E.31999
G1 X122.042 Y109.198 E.0249
G1 X127.958 Y115.113 E.31997
G1 X127.958 Y115.764 E.0249
G1 X122.042 Y109.848 E.31999
G1 X122.042 Y110.499 E.0249
M73 P15 R6
G1 X127.958 Y116.414 E.31997
G1 X127.958 Y117.065 E.0249
M73 Q15 S6
G1 X122.042 Y111.149 E.31999
G1 X122.042 Y111.8 E.0249
G1 X127.958 Y117.715 E.31997
G1 X127.958 Y118.366 E.0249
G1 X122.042 Y112.45 E.31999
G1 X122.042 Y113.101 E.0249
G1 X127.958 Y119.016 E.31997
G1 X127.958 Y119.667 E.0249
G1 X122.042 Y113.751 E.31999
G1 X122.042 Y114.402 E.0249
G1 X127.958 Y120.317 E.31997
G1 X127.958 Y120.968 E.0249
M73 P16 R6
G1 X122.042 Y115.052 E.31999
G1 X122.042 Y115.703 E.0249
G1 X127.958 Y121.618 E.31997
G1 X127.958 Y122.269 E.0249
M73 Q16 S6
G1 X122.042 Y116.353 E.31999
G1 X122.042 Y117.004 E.0249
G1 X127.958 Y122.919 E.31997
G1 X127.958 Y123.57 E.0249
G1 X122.042 Y117.654 E.31999
G1 X122.042 Y118.305 E.0249
G1 X127.958 Y124.22 E.31997
G1 X127.958 Y124.871 E.0249
G1 X122.042 Y118.955 E.31999
G1 X122.042 Y119.606 E.0249
M73 P17 R6
G1 X127.958 Y125.521 E.31997
G1 X127.958 Y126.172 E.0249
G1 X122.042 Y120.256 E.31999
G1 X122.042 Y120.907 E.0249
M73 Q17 S6
G1 X127.958 Y126.822 E.31997
G1 X127.958 Y127.473 E.0249
G1 X122.042 Y121.557 E.31999
G1 X122.042 Y122.208 E.0249
G1 X127.958 Y128.123 E.31997
G1 X127.958 Y128.774 E.0249
G1 X122.042 Y122.858 E.31999
G1 X122.042 Y123.509 E.0249
G1 X127.958 Y129.424 E.31997
G1 X127.958 Y130.075 E.0249
G1 X122.042 Y124.159 E.31999
G1 X122.042 Y124.81 E.0249
M73 P18 R6
G1 X127.958 Y130.725 E.31997
G1 X127.958 Y131.183 E.01752
M73 Q18 S6
G1 X127.765 Y131.183 E.00738
G1 X122.042 Y125.46 E.30955
G1 X122.042 Y126.111 E.0249
G1 X127.114 Y131.183 E.27434
G1 X126.464 Y131.183 E.02486
M73 P18 R5
G1 X122.042 Y126.761 E.23918
G1 X122.042 Y127.412 E.0249
G1 X125.813 Y131.183 E.20397
G1 X125.163 Y131.183 E.02486
G1 X122.042 Y128.062 E.16881
G1 X122.042 Y128.713 E.0249
G1 X124.512 Y131.183 E.1336
G1 X123.862 Y131.183 E.02486
G1 X122.042 Y129.363 E.09844
G1 X122.042 Y130.014 E.0249
G1 X123.211 Y131.183 E.06323
G1 X122.561 Y131.183 E.02486
G1 X121.836 Y130.459 E.03919
M204 S1000
;LAYER_CHANGE
;Z:0.35
;HEIGHT:0.15
;BEFORE_LAYER_CHANGE
G92 E0.0
;0.35


;WIPE_START
G1 F8640
G1 X122.561 Y131.183 E-.23658
G1 X123.211 Y131.183 E-.15009
G1 X122.042 Y130.014 E-.38173
G1 X122.042 Y129.363 E-.15032
G1 X122.291 Y129.612 E-.08128
;WIPE_END
G1 Z.35 F720
;AFTER_LAYER_CHANGE
;0.35
M104 S230 ; set temperature
M140 S85 ; set bed temperature
; stop printing object J1 Cover.stl id:0 copy 0
G1 Z.55
M73 P19 R5
G1 X118.31 Y130.459 F10800
G1 Z.35 F720
G1 E1 F2100
;TYPE:Skirt/Brim
;WIDTH:0.5
G1 F3000
G1 X118.31 Y77.311 E1.55053
G1 X118.702 Y76.051 E.0385
M73 Q19 S6
G1 X119.738 Y75.233 E.03851
G1 X120.536 Y75.085 E.02368
G1 X129.464 Y75.085 E.26046
G1 X130.724 Y75.477 E.0385
G1 X131.542 Y76.514 E.03853
G1 X131.69 Y77.311 E.02365
G1 X131.69 Y132.689 E1.61559
G1 X131.298 Y133.949 E.0385
G1 X130.262 Y134.767 E.03851
G1 X129.464 Y134.915 E.02368
G1 X120.536 Y134.915 E.26046
G1 X119.276 Y134.523 E.0385
G1 X118.458 Y133.486 E.03853
G1 X118.31 Y132.689 E.02365
G1 X118.31 Y130.519 E.06331
;WIPE_START
G1 F8640
G1 X118.31 Y130.459 E-.01385
G1 X118.31 Y126.188 E-.98615
;WIPE_END
G1 Z.55 F720
; printing object J1 Cover.stl id:0 copy 0
G1 X125 Y131.928 F10800
G1 Z.35 F720
G1 E1 F2100
M204 S800
;TYPE:Perimeter
;WIDTH:0.449999
G1 F1791.268
G1 X121.796 Y131.928 E.08348
G1 F1762.846
G1 X121.297 Y131.928 E.013
G1 F1753.531
G1 X121.297 Y131.429 E.013
G1 F2700
G1 X121.297 Y78.571 E1.37725
G1 F1761.935
M73 P20 R5
G1 X121.297 Y78.072 E.013
G1 F1753.606
G1 X121.796 Y78.072 E.013
G1 F1791.375
G1 X128.204 Y78.072 E.16697
G1 F1762.983
G1 X128.703 Y78.072 E.013
G1 F1753.565
G1 X128.703 Y78.571 E.013
G1 F2700
G1 X128.703 Y131.429 E1.37725
G1 F1569.176
M73 Q20 S5
G1 X128.703 Y131.928 E.013
G1 X128.204 Y131.928 E.013
G1 F1791.268
G1 X125.06 Y131.928 E.08192
M204 S1000
G1 X125 Y132.346 F10800
M204 S800
;TYPE:External perimeter
G1 F1158.302
G1 X121.804 Y132.346 E.08327
G1 F1134.28
G1 X120.879 Y132.346 E.0241
G1 X120.879 Y131.421 E.0241
G1 F1157.828
G1 X120.879 Y78.579 E1.37684
G1 F1134.288
M73 P21 R5
G1 X120.879 Y77.654 E.0241
G1 X121.804 Y77.654 E.0241
G1 F1158.311
G1 X128.196 Y77.654 E.16655
G1 F1134.286
M73 Q21 S5
G1 X129.121 Y77.654 E.0241
G1 X129.121 Y78.579 E.0241
G1 F1157.825
G1 X129.121 Y131.421 E1.37684
G1 F1134.279
G1 X129.121 Y132.346 E.0241
G1 X128.196 Y132.346 E.0241
M73 P22 R5
G1 F1158.302
G1 X125.06 Y132.346 E.08171
M204 S1000
;WIPE_START
G1 F8640
G1 X125 Y132.346 E-.01385
G1 X121.804 Y132.346 E-.73797
G1 X120.879 Y132.346 E-.21359
G1 X120.879 Y132.196 E-.03459
;WIPE_END
G1 Z.55 F720
G1 X121.766 Y78.461 F10800
G1 Z.35 F720
G1 E1 F2100
;TYPE:Solid infill
;WIDTH:0.55137
G1 F4800
G1 X121.72 Y78.415 E.00211
G1 X121.657 Y78.432 E.00211
G1 X121.64 Y78.495 E.00211
G1 X121.686 Y78.541 E.00211
G1 X121.749 Y78.524 E.00211
;WIDTH:0.449999
G1 X122.416 Y78.427 E.01756
G1 X121.652 Y79.191 E.02815
G1 X121.652 Y79.782 E.0154
G1 X123.007 Y78.427 E.04993
G1 X123.598 Y78.427 E.0154
G1 X121.652 Y80.373 E.07171
G1 X121.652 Y80.964 E.0154
M73 Q22 S5
G1 X124.189 Y78.427 E.09348
G1 X124.78 Y78.427 E.0154
G1 X121.652 Y81.555 E.11526
G1 X121.652 Y82.145 E.01537
G1 X125.37 Y78.427 E.137
G1 X125.961 Y78.427 E.0154
G1 X121.652 Y82.736 E.15878
G1 X121.652 Y83.327 E.0154
G1 X126.552 Y78.427 E.18056
G1 X127.143 Y78.427 E.0154
G1 X121.652 Y83.918 E.20233
G1 X121.652 Y84.509 E.0154
G1 X127.734 Y78.427 E.22411
G1 X128.325 Y78.427 E.0154
G1 X121.652 Y85.1 E.24589
G1 X121.652 Y85.691 E.0154
G1 X128.348 Y78.995 E.24674
G1 X128.348 Y79.586 E.0154
G1 X121.652 Y86.282 E.24674
G1 X121.652 Y86.872 E.01537
G1 X128.348 Y80.177 E.24672
G1 X128.348 Y80.768 E.0154
G1 X121.652 Y87.463 E.24672
G1 X121.652 Y88.054 E.0154
G1 X128.348 Y81.359 E.24672
G1 X128.348 Y81.949 E.01537
G1 X121.652 Y88.645 E.24674
G1 X121.652 Y89.236 E.0154
G1 X128.348 Y82.54 E.24674
G1 X128.348 Y83.131 E.0154
G1 X121.652 Y89.827 E.24674
G1 X121.652 Y90.418 E.0154
M73 P23 R5
G1 X128.348 Y83.722 E.24674
G1 X128.348 Y84.313 E.0154
G1 X121.652 Y91.009 E.24674
G1 X121.652 Y91.599 E.01537
G1 X128.348 Y84.904 E.24672
G1 X128.348 Y85.495 E.0154
G1 X121.652 Y92.19 E.24672
G1 X121.652 Y92.781 E.0154
G1 X128.348 Y86.086 E.24672
G1 X128.348 Y86.676 E.01537
G1 X121.652 Y93.372 E.24674
G1 X121.652 Y93.963 E.0154
G1 X128.348 Y87.267 E.24674
G1 X128.348 Y87.858 E.0154
M73 Q23 S5
G1 X121.652 Y94.554 E.24674
G1 X121.652 Y95.145 E.0154
G1 X128.348 Y88.449 E.24674
G1 X128.348 Y89.04 E.0154
G1 X121.652 Y95.736 E.24674
G1 X121.652 Y96.326 E.01537
G1 X128.348 Y89.631 E.24672
G1 X128.348 Y90.222 E.0154
G1 X121.652 Y96.917 E.24672
G1 X121.652 Y97.508 E.0154
G1 X128.348 Y90.813 E.24672
G1 X128.348 Y91.403 E.01537
G1 X121.652 Y98.099 E.24674
G1 X121.652 Y98.69 E.0154
G1 X128.348 Y91.994 E.24674
G1 X128.348 Y92.585 E.0154
G1 X121.652 Y99.281 E.24674
G1 X121.652 Y99.872 E.0154
G1 X128.348 Y93.176 E.24674
G1 X128.348 Y93.767 E.0154
G1 X121.652 Y100.462 E.24672
G1 X121.652 Y101.053 E.0154
G1 X128.348 Y94.358 E.24672
G1 X128.348 Y94.949 E.0154
G1 X121.652 Y101.644 E.24672
G1 X121.652 Y102.235 E.0154
G1 X128.348 Y95.539 E.24674
G1 X128.348 Y96.13 E.0154
M73 P24 R5
G1 X121.652 Y102.826 E.24674
G1 X121.652 Y103.417 E.0154
G1 X128.348 Y96.721 E.24674
G1 X128.348 Y97.312 E.0154
G1 X121.652 Y104.008 E.24674
G1 X121.652 Y104.599 E.0154
G1 X128.348 Y97.903 E.24674
G1 X128.348 Y98.494 E.0154
G1 X121.652 Y105.189 E.24672
G1 X121.652 Y105.78 E.0154
G1 X128.348 Y99.085 E.24672
G1 X128.348 Y99.676 E.0154
G1 X121.652 Y106.371 E.24672
G1 X121.652 Y106.962 E.0154
M73 Q24 S5
G1 X128.348 Y100.266 E.24674
G1 X128.348 Y100.857 E.0154
G1 X121.652 Y107.553 E.24674
G1 X121.652 Y108.144 E.0154
G1 X128.348 Y101.448 E.24674
G1 X128.348 Y102.039 E.0154
G1 X121.652 Y108.735 E.24674
G1 X121.652 Y109.326 E.0154
G1 X128.348 Y102.63 E.24674
G1 X128.348 Y103.221 E.0154
G1 X121.652 Y109.916 E.24672
G1 X121.652 Y110.507 E.0154
G1 X128.348 Y103.812 E.24672
G1 X128.348 Y104.403 E.0154
G1 X121.652 Y111.098 E.24672
G1 X121.652 Y111.689 E.0154
G1 X128.348 Y104.993 E.24674
G1 X128.348 Y105.584 E.0154
G1 X121.652 Y112.28 E.24674
G1 X121.652 Y112.871 E.0154
G1 X128.348 Y106.175 E.24674
G1 X128.348 Y106.766 E.0154
G1 X121.652 Y113.462 E.24674
G1 X121.652 Y114.053 E.0154
G1 X128.348 Y107.357 E.24674
G1 X128.348 Y107.948 E.0154
G1 X121.652 Y114.643 E.24672
G1 X121.652 Y115.234 E.0154
M73 P25 R5
G1 X128.348 Y108.539 E.24672
G1 X128.348 Y109.13 E.0154
G1 X121.652 Y115.825 E.24672
G1 X121.652 Y116.416 E.0154
G1 X128.348 Y109.72 E.24674
G1 X128.348 Y110.311 E.0154
G1 X121.652 Y117.007 E.24674
G1 X121.652 Y117.598 E.0154
G1 X128.348 Y110.902 E.24674
G1 X128.348 Y111.493 E.0154
G1 X121.652 Y118.189 E.24674
G1 X121.652 Y118.779 E.01537
G1 X128.348 Y112.084 E.24672
G1 X128.348 Y112.675 E.0154
M73 Q25 S5
G1 X121.652 Y119.37 E.24672
G1 X121.652 Y119.961 E.0154
G1 X128.348 Y113.266 E.24672
G1 X128.348 Y113.856 E.01537
G1 X121.652 Y120.552 E.24674
G1 X121.652 Y121.143 E.0154
G1 X128.348 Y114.447 E.24674
G1 X128.348 Y115.038 E.0154
G1 X121.652 Y121.734 E.24674
G1 X121.652 Y122.325 E.0154
G1 X128.348 Y115.629 E.24674
G1 X128.348 Y116.22 E.0154
G1 X121.652 Y122.916 E.24674
G1 X121.652 Y123.506 E.01537
G1 X128.348 Y116.811 E.24672
G1 X128.348 Y117.402 E.0154
G1 X121.652 Y124.097 E.24672
G1 X121.652 Y124.688 E.0154
G1 X128.348 Y117.993 E.24672
G1 X128.348 Y118.583 E.01537
G1 X121.652 Y125.279 E.24674
G1 X121.652 Y125.87 E.0154
G1 X128.348 Y119.174 E.24674
G1 X128.348 Y119.765 E.0154
G1 X121.652 Y126.461 E.24674
G1 X121.652 Y127.052 E.0154
M73 P26 R5
