; generated by PrusaSlicer 2.9.4 on 2026-03-20 at 00:14:05 UTC


;
;
; 

; external perimeters extrusion width = 0.45mm
; perimeters extrusion width = 0.45mm
; infill extrusion width = 0.45mm
; solid infill extrusion width = 0.45mm
; top infill extrusion width = 0.40mm
; first layer extrusion width = 0.50mm

M73 P0 R1
M73 Q0 S1
M201 X1000 Y1000 Z200 E5000 ; sets maximum accelerations, mm/sec^2
M203 X200 Y200 Z12 E120 ; sets maximum feedrates, mm / sec
M204 S1250 T1250 ; sets acceleration (S) and retract acceleration (R), mm/sec^2
M205 X8.00 Y8.00 Z0.40 E4.50 ; sets the jerk limits, mm/sec
M205 S0 T0 ; sets the minimum extruding and travel feed rate, mm/sec

; printing object J3 Cover.stl id:0 copy 0
; stop printing object J3 Cover.stl id:0 copy 0

;TYPE:Custom
M862.3 P "MK3S" ; printer model check
M862.1 P0.4 ; nozzle diameter check
M115 U3.14.1 ; tell printer latest fw version
G90 ; use absolute coordinates
M83 ; extruder relative mode
M104 S240 ; set extruder temp
M140 S90 ; set bed temp
M190 S90 ; wait for bed temp
M109 S240 ; wait for extruder temp
G28 W ; home all without mesh bed level
G80 X118.537 Y99.3074 W12.9252 H11.3852 ; mesh bed levelling

G1 Z0.2 F720
G1 Y-3 F1000 ; go outside print area
G92 E0
G1 X60 E9 F1000 ; intro line
G1 X100 E12.5 F1000 ; intro line
M73 P3 R1
M73 Q3 S1

G92 E0
M221 S95

; Don't change E values below. Excessive value can damage the printer.
M907 E430 ; set extruder motor current
G21 ; set units to millimeters
G90 ; use absolute coordinates
M83 ; use relative distances for extrusion

M900 K0.08 ; Filament gcode LA 1.5
M900 K45 ; Filament gcode LA 1.0




M107
;LAYER_CHANGE
;Z:0.2
;HEIGHT:0.2
G1 E-1 F2100
M73 P5 R1
M73 Q5 S1
G1 Z.4 F720
G1 X119.162 Y101.497 F10800
G1 Z.2 F720
M73 P6 R1
M73 Q6 S1
G1 E1 F2100
M204 S800
;TYPE:Skirt/Brim
;WIDTH:0.5
G1 F900
G1 X120.26 Y100.218 E.06407
G1 X122.365 Y99.537 E.08409
G1 X127.635 Y99.537 E.20029
M73 Q7 S1
G1 X129.274 Y99.932 E.06408
M73 P7 R1
G1 X130.552 Y101.03 E.06404
G1 X131.233 Y103.135 E.08409
G1 X131.233 Y106.865 E.14176
G1 X130.838 Y108.503 E.06404
G1 X129.74 Y109.782 E.06407
M73 Q8 S1
G1 X127.635 Y110.463 E.08409
G1 X122.365 Y110.463 E.20029
G1 X120.726 Y110.068 E.06408
M73 P8 R1
G1 X119.448 Y108.97 E.06404
G1 X118.767 Y106.865 E.08409
G1 X118.767 Y103.135 E.14176
G1 X119.148 Y101.555 E.06177
M73 Q9 S1
M204 S1000
G1 X119.603 Y101.673 F10800
M204 S800
G1 F900
G1 X119.618 Y101.612 E.00239
G1 X120.701 Y100.471 E.05979
G1 X122.365 Y99.994 E.06579
M73 P9 R1
G1 X127.635 Y99.994 E.20029
G1 X129.158 Y100.389 E.0598
G1 X130.299 Y101.472 E.05979
G1 X130.776 Y103.135 E.06575
G1 X130.776 Y106.865 E.14176
M73 Q10 S1
G1 X130.382 Y108.388 E.05979
M73 P10 R1
G1 X129.299 Y109.529 E.05979
G1 X127.635 Y110.006 E.06579
G1 X122.365 Y110.006 E.20029
G1 X120.842 Y109.611 E.0598
G1 X119.701 Y108.528 E.05979
M73 Q11 S1
G1 X119.224 Y106.865 E.06575
G1 X119.224 Y103.135 E.14176
G1 X119.588 Y101.731 E.05513
M73 P11 R1
M204 S1000
G1 X120.04 Y101.858 F10800
M204 S800
G1 F900
G1 X120.074 Y101.737 E.00478
G1 X121.138 Y100.749 E.05518
G1 X122.365 Y100.451 E.04799
G1 X127.635 Y100.451 E.20029
G1 X129.033 Y100.844 E.05519
M73 Q12 S1
G1 X130.021 Y101.908 E.05518
G1 X130.319 Y103.135 E.04799
G1 X130.319 Y106.865 E.14176
M73 P12 R1
G1 X129.926 Y108.263 E.05519
G1 X128.862 Y109.251 E.05518
G1 X127.635 Y109.549 E.04799
G1 X122.365 Y109.549 E.20029
G1 X120.967 Y109.156 E.05519
M73 Q13 S1
G1 X119.979 Y108.092 E.05518
G1 X119.681 Y106.865 E.04799
M73 P13 R1
G1 X119.681 Y103.135 E.14176
G1 X120.024 Y101.916 E.04813
M204 S1000
G1 X120.474 Y102.056 F10800
M204 S800
G1 F900
G1 X120.53 Y101.875 E.0072
G1 X121.566 Y101.057 E.05017
G1 X122.365 Y100.908 E.03089
G1 X127.635 Y100.908 E.20029
G1 X128.895 Y101.3 E.05015
M73 Q14 S1
G1 X129.713 Y102.336 E.05017
G1 X129.862 Y103.135 E.03089
M73 P14 R1
G1 X129.862 Y106.865 E.14176
G1 X129.47 Y108.125 E.05015
G1 X128.434 Y108.943 E.05017
G1 X127.635 Y109.092 E.03089
G1 X122.365 Y109.092 E.20029
G1 X121.105 Y108.7 E.05015
M73 Q15 S1
G1 X120.287 Y107.664 E.05017
G1 X120.138 Y106.865 E.03089
M73 P15 R1
G1 X120.138 Y103.135 E.14176
G1 X120.456 Y102.113 E.04068
M204 S1000
;WIPE_START
G1 F8640
G1 X120.474 Y102.056 E-.0138
G1 X120.53 Y101.875 E-.04375
G1 X121.566 Y101.057 E-.30479
G1 X122.365 Y100.908 E-.18767
G1 X124.314 Y100.908 E-.44999
;WIPE_END
G1 Z.4 F720
; printing object J3 Cover.stl id:0 copy 0
G1 X125 Y105.754 F10800
G1 Z.2 F720
G1 E1 F2100
M204 S800
;TYPE:Perimeter
;WIDTH:0.499999
G1 F900
G1 X123.476 Y105.754 E.05792
G1 X123.476 Y104.246 E.05731
M73 Q16 S1
G1 X126.524 Y104.246 E.11584
G1 X126.524 Y105.754 E.05731
M73 P16 R1
G1 X125.06 Y105.754 E.05564
M204 S1000
G1 X125 Y106.211 F10800
M204 S800
;TYPE:External perimeter
G1 F900
G1 X123.019 Y106.211 E.07529
G1 X123.019 Y103.789 E.09205
G1 X126.981 Y103.789 E.15058
G1 X126.981 Y106.211 E.09205
M73 Q17 S1
G1 X125.06 Y106.211 E.07301
M204 S1000
;WIPE_START
G1 F8640
M73 P17 R1
G1 X125 Y106.211 E-.01385
G1 X123.019 Y106.211 E-.45742
G1 X123.019 Y103.921 E-.52873
;WIPE_END
G1 Z.4 F720
G1 X126.341 Y105.362 F10800
G1 Z.2 F720
G1 E1 F2100
M204 S800
;TYPE:Solid infill
;WIDTH:0.50444
G1 F900
G1 X125.613 Y104.635 E.03948
G1 X124.961 Y104.635 E.02502
G1 X125.692 Y105.365 E.03965
G1 X125.039 Y105.365 E.02506
G1 X124.308 Y104.635 E.03965
G1 X123.865 Y104.635 E.017
M73 Q18 S1
G1 X123.865 Y104.844 E.00802
G1 X124.592 Y105.571 E.03946
M204 S1000
;LAYER_CHANGE
;Z:0.35
;HEIGHT:0.15
;BEFORE_LAYER_CHANGE
G92 E0.0
;0.35


;WIPE_START
G1 F8640
G1 X123.865 Y104.844 E-.2374
G1 X123.865 Y104.635 E-.04826
G1 X124.308 Y104.635 E-.10229
G1 X125.039 Y105.365 E-.23854
G1 X125.692 Y105.365 E-.15078
M73 P18 R1
G1 X125.009 Y104.683 E-.22273
;WIPE_END
G1 Z.35 F720
;AFTER_LAYER_CHANGE
;0.35
M104 S230 ; set temperature
M140 S85 ; set bed temperature
; stop printing object J3 Cover.stl id:0 copy 0
G1 Z.55
G1 X124.592 Y110.463 F10800
G1 Z.35 F720
G1 E1 F2100
;TYPE:Skirt/Brim
;WIDTH:0.5
G1 F900
G1 X122.365 Y110.463 E.06497
G1 X120.726 Y110.068 E.04919
G1 X119.448 Y108.97 E.04916
G1 X118.767 Y106.865 E.06454
G1 X118.767 Y103.135 E.10882
M73 Q19 S1
G1 X119.162 Y101.497 E.04916
M73 P19 R1
G1 X120.26 Y100.218 E.04918
G1 X122.365 Y99.537 E.06454
G1 X127.635 Y99.537 E.15375
G1 X129.274 Y99.932 E.04919
G1 X130.552 Y101.03 E.04916
M73 Q20 S1
G1 X131.233 Y103.135 E.06454
G1 X131.233 Y106.865 E.10882
M73 P20 R1
G1 X130.838 Y108.503 E.04916
G1 X129.74 Y109.782 E.04918
G1 X127.635 Y110.463 E.06454
G1 X124.652 Y110.463 E.08703
G1 X124.652 Y110.006 F10800
M73 Q21 S1
G1 F900
G1 X122.365 Y110.006 E.06672
G1 X120.842 Y109.611 E.0459
G1 X119.701 Y108.528 E.04589
M73 P21 R1
G1 X119.224 Y106.865 E.05047
G1 X119.224 Y103.135 E.10882
G1 X119.618 Y101.612 E.04589
G1 X120.701 Y100.471 E.04589
G1 X122.365 Y99.994 E.0505
G1 X127.635 Y99.994 E.15375
M73 Q22 S1
G1 X129.158 Y100.389 E.0459
M73 P22 R1
G1 X130.299 Y101.472 E.04589
G1 X130.776 Y103.135 E.05047
G1 X130.776 Y106.865 E.10882
G1 X130.382 Y108.388 E.04589
G1 X129.299 Y109.529 E.04589
G1 X127.635 Y110.006 E.0505
M73 Q23 S1
G1 X124.712 Y110.006 E.08528
G1 X124.712 Y109.549 F10800
M73 P23 R1
G1 F900
G1 X122.365 Y109.549 E.06847
G1 X120.967 Y109.156 E.04237
G1 X119.979 Y108.092 E.04236
G1 X119.681 Y106.865 E.03684
G1 X119.681 Y103.135 E.10882
G1 X120.074 Y101.737 E.04237
G1 X121.138 Y100.749 E.04236
M73 Q24 S1
G1 X122.365 Y100.451 E.03684
G1 X127.635 Y100.451 E.15375
M73 P24 R1
G1 X129.033 Y100.844 E.04237
G1 X130.021 Y101.908 E.04236
G1 X130.319 Y103.135 E.03684
G1 X130.319 Y106.865 E.10882
G1 X129.926 Y108.263 E.04237
M73 Q25 S1
G1 X128.862 Y109.251 E.04236
G1 X127.635 Y109.549 E.03684
G1 X124.772 Y109.549 E.08352
M73 P25 R1
G1 X124.772 Y109.092 F10800
G1 F900
G1 X122.365 Y109.092 E.07022
G1 X121.105 Y108.7 E.0385
G1 X120.287 Y107.664 E.03851
G1 X120.138 Y106.865 E.02371
G1 X120.138 Y103.135 E.10882
G1 X120.53 Y101.875 E.0385
M73 Q26 S1
G1 X121.566 Y101.057 E.03851
G1 X122.365 Y100.908 E.02371
G1 X127.635 Y100.908 E.15375
M73 P26 R1
G1 X128.895 Y101.3 E.0385
G1 X129.713 Y102.336 E.03851
G1 X129.862 Y103.135 E.02371
G1 X129.862 Y106.865 E.10882
G1 X129.47 Y108.125 E.0385
M73 Q27 S1
G1 X128.434 Y108.943 E.03851
G1 X127.635 Y109.092 E.02371
G1 X124.832 Y109.092 E.08177
M73 P27 R1
;WIPE_START
G1 F8640
G1 X124.772 Y109.092 E-.01385
G1 X122.365 Y109.092 E-.55578
G1 X121.105 Y108.7 E-.30469
G1 X120.768 Y108.273 E-.12568
;WIPE_END
G1 Z.55 F720
; printing object J3 Cover.stl id:0 copy 0
G1 X125 Y106.104 F10800
G1 Z.35 F720
G1 E1 F2100
M204 S800
;TYPE:Perimeter
;WIDTH:0.449999
G1 F900
G1 X123.126 Y106.104 E.04883
G1 X123.126 Y103.896 E.05753
G1 X126.874 Y103.896 E.09766
M73 Q28 S1
G1 X126.874 Y106.104 E.05753
M73 P28 R1
G1 X125.06 Y106.104 E.04727
M204 S1000
G1 X125 Y106.522 F10800
M204 S800
;TYPE:External perimeter
G1 F900
G1 X123.623 Y106.522 E.03588
G1 X122.708 Y106.522 E.02384
G1 X122.708 Y103.478 E.07931
G1 X123.623 Y103.478 E.02384
G1 X126.377 Y103.478 E.07176
G1 X127.292 Y103.478 E.02384
M73 Q29 S1
G1 X127.292 Y106.522 E.07931
G1 X126.377 Y106.522 E.02384
M73 P29 R1
G1 X125.06 Y106.522 E.03432
M204 S1000
;WIPE_START
G1 F8640
G1 X125 Y106.522 E-.01385
G1 X123.623 Y106.522 E-.31795
G1 X122.708 Y106.522 E-.21128
G1 X122.708 Y104.543 E-.45692
;WIPE_END
G1 Z.55 F720
G1 X123.481 Y104.251 F10800
G1 Z.35 F720
G1 E1 F2100
;TYPE:Solid infill
G1 F900
G1 X126.519 Y104.251 E.07916
G1 X126.519 Y105.749 E.03903
G1 X123.481 Y105.749 E.07916
M73 Q30 S1
G1 X123.481 Y104.46 E.03359
M73 P30 R1
G1 X123.96 Y104.73 E.01433
;WIDTH:0.572069
G1 X126.04 Y104.73 E.07003
G1 X126.04 Y105.27 E.01818
G1 X123.96 Y105.27 E.07003
G1 X123.96 Y104.939 E.01114
;LAYER_CHANGE
;Z:0.5
;HEIGHT:0.15
;BEFORE_LAYER_CHANGE
G92 E0.0
;0.5


;WIPE_START
G1 F8640
G1 X123.96 Y105.27 E-.07643
G1 X126.04 Y105.27 E-.48028
G1 X126.04 Y104.73 E-.12469
G1 X124.66 Y104.73 E-.3186
;WIPE_END
G1 Z.5 F720
;AFTER_LAYER_CHANGE
;0.5
; stop printing object J3 Cover.stl id:0 copy 0
G1 Z.7
G1 X118.767 Y104.939 F10800
G1 Z.5 F720
M73 Q31 S1
G1 E1 F2100
;TYPE:Skirt/Brim
;WIDTH:0.5
G1 F900
G1 X118.767 Y103.135 E.05263
G1 X119.162 Y101.497 E.04916
M73 P31 R1
G1 X120.26 Y100.218 E.04918
G1 X122.365 Y99.537 E.06454
G1 X127.635 Y99.537 E.15375
G1 X129.274 Y99.932 E.04919
G1 X130.552 Y101.03 E.04916
M73 Q32 S1
G1 X131.233 Y103.135 E.06454
G1 X131.233 Y106.865 E.10882
M73 P32 R1
G1 X130.838 Y108.503 E.04916
G1 X129.74 Y109.782 E.04918
G1 X127.635 Y110.463 E.06454
G1 X122.365 Y110.463 E.15375
G1 X120.726 Y110.068 E.04919
M73 Q33 S1
G1 X119.448 Y108.97 E.04916
M73 P33 R1
G1 X118.767 Y106.865 E.06454
G1 X118.767 Y104.999 E.05444
G1 X119.224 Y104.999 F10800
G1 F900
G1 X119.224 Y103.135 E.05438
G1 X119.618 Y101.612 E.04589
G1 X120.701 Y100.471 E.04589
G1 X122.365 Y99.994 E.0505
G1 X127.635 Y99.994 E.15375
M73 Q34 S1
G1 X129.158 Y100.389 E.0459
M73 P34 R1
G1 X130.299 Y101.472 E.04589
G1 X130.776 Y103.135 E.05047
G1 X130.776 Y106.865 E.10882
G1 X130.382 Y108.388 E.04589
G1 X129.299 Y109.529 E.04589
G1 X127.635 Y110.006 E.0505
M73 Q35 S1
G1 X122.365 Y110.006 E.15375
G1 X120.842 Y109.611 E.0459
M73 P35 R1
G1 X119.701 Y108.528 E.04589
G1 X119.224 Y106.865 E.05047
G1 X119.224 Y105.059 E.05269
G1 X119.681 Y105.059 F10800
G1 F900
G1 X119.681 Y103.135 E.05613
G1 X120.074 Y101.737 E.04237
G1 X121.138 Y100.749 E.04236
M73 Q36 S1
G1 X122.365 Y100.451 E.03684
M73 P36 R1
G1 X127.635 Y100.451 E.15375
G1 X129.033 Y100.844 E.04237
G1 X130.021 Y101.908 E.04236
G1 X130.319 Y103.135 E.03684
G1 X130.319 Y106.865 E.10882
G1 X129.926 Y108.263 E.04237
M73 Q37 S1
G1 X128.862 Y109.251 E.04236
G1 X127.635 Y109.549 E.03684
M73 P37 R1
G1 X122.365 Y109.549 E.15375
G1 X120.967 Y109.156 E.04237
G1 X119.979 Y108.092 E.04236
G1 X119.681 Y106.865 E.03684
G1 X119.681 Y105.119 E.05094
G1 X120.138 Y105.119 F10800
G1 F900
G1 X120.138 Y103.135 E.05788
G1 X120.53 Y101.875 E.0385
M73 Q38 S1
G1 X121.566 Y101.057 E.03851
M73 P38 R1
G1 X122.365 Y100.908 E.02371
G1 X127.635 Y100.908 E.15375
G1 X128.895 Y101.3 E.0385
G1 X129.713 Y102.336 E.03851
G1 X129.862 Y103.135 E.02371
G1 X129.862 Y106.865 E.10882
G1 X129.47 Y108.125 E.0385
M73 Q39 S1
G1 X128.434 Y108.943 E.03851
M73 P39 R1
G1 X127.635 Y109.092 E.02371
G1 X122.365 Y109.092 E.15375
G1 X121.105 Y108.7 E.0385
G1 X120.287 Y107.664 E.03851
G1 X120.138 Y106.865 E.02371
G1 X120.138 Y105.179 E.04919
;WIPE_START
G1 F8640
G1 X120.138 Y105.119 E-.01385
G1 X120.138 Y103.135 E-.45811
G1 X120.53 Y101.875 E-.30469
G1 X121.289 Y101.275 E-.22335
M73 Q40 S1
;WIPE_END
G1 Z.7 F720
; printing object J3 Cover.stl id:0 copy 0
G1 X125 Y106.221 F10800
G1 Z.5 F720
M73 P40 R1
G1 E1 F2100
M204 S800
;TYPE:Perimeter
;WIDTH:0.449999
G1 F900
G1 X123.009 Y106.221 E.05188
G1 X123.009 Y103.779 E.06363
G1 X126.991 Y103.779 E.10375
G1 X126.991 Y106.221 E.06363
G1 X125.06 Y106.221 E.05031
M204 S1000
G1 X125 Y106.638 F10800
M73 Q41 S1
M204 S800
;TYPE:External perimeter
G1 F900
G1 X123.383 Y106.638 E.04213
G1 X122.592 Y106.638 E.02061
M73 P41 R1
G1 X122.592 Y103.362 E.08536
G1 X123.383 Y103.362 E.02061
G1 X126.617 Y103.362 E.08426
G1 X127.408 Y103.362 E.02061
G1 X127.408 Y106.638 E.08536
G1 X126.617 Y106.638 E.02061
G1 X125.06 Y106.638 E.04057
M73 Q42 S1
M204 S1000
;WIPE_START
G1 F8640
G1 X125 Y106.638 E-.01385
G1 X123.383 Y106.638 E-.37337
G1 X122.592 Y106.638 E-.18264
M73 P42 R1
G1 X122.592 Y104.775 E-.43014
;WIPE_END
G1 Z.7 F720
G1 X123.365 Y105.865 F10800
G1 Z.5 F720
G1 E1 F2100
;TYPE:Solid infill
G1 F900
G1 X123.365 Y104.135 E.04508
G1 X126.635 Y104.135 E.0852
G1 X126.635 Y105.865 E.04508
G1 X123.574 Y105.865 E.07976
G1 X123.782 Y105.448 E.01214
M73 Q43 S1
G1 X123.782 Y104.552 E.02335
G1 X126.218 Y104.552 E.06347
M73 P43 R1
G1 X126.218 Y105.448 E.02335
G1 X123.991 Y105.448 E.05803
G1 X124.23 Y105 E.01323
;WIDTH:0.509496
G1 X125.77 Y105 E.04584
M106 S63.75
;LAYER_CHANGE
;Z:0.65
;HEIGHT:0.15
;BEFORE_LAYER_CHANGE
G92 E0.0
;0.65


;WIPE_START
G1 F8640
G1 X124.23 Y105 E-.35559
G1 X123.991 Y105.448 E-.11724
G1 X126.218 Y105.448 E-.51422
G1 X126.218 Y105.392 E-.01295
;WIPE_END
G1 Z.65 F720
;AFTER_LAYER_CHANGE
;0.65
G1 Z.85
G1 X125 Y106.296 F10800
G1 Z.65 F720
G1 E1 F2100
M204 S800
;TYPE:Perimeter
;WIDTH:0.449999
G1 F900
M73 Q44 S1
G1 X122.934 Y106.296 E.05383
G1 X122.934 Y103.704 E.06754
G1 X127.066 Y103.704 E.10766
M73 P44 R1
G1 X127.066 Y106.296 E.06754
G1 X125.06 Y106.296 E.05227
M204 S1000
G1 X125 Y106.713 F10800
M204 S800
;TYPE:External perimeter
G1 F900
G1 X123.267 Y106.713 E.04515
G1 X122.517 Y106.713 E.01954
G1 X122.517 Y103.287 E.08927
M73 Q45 S1
G1 X123.267 Y103.287 E.01954
M73 P45 R1
G1 X126.733 Y103.287 E.09031
G1 X127.483 Y103.287 E.01954
G1 X127.483 Y106.713 E.08927
G1 X126.733 Y106.713 E.01954
G1 X125.06 Y106.713 E.04359
M204 S1000
;WIPE_START
G1 F8640
G1 X125 Y106.713 E-.01385
G1 X123.267 Y106.713 E-.40015
G1 X122.517 Y106.713 E-.17318
G1 X122.517 Y104.925 E-.41282
;WIPE_END
G1 Z.85 F720
M73 Q46 S1
G1 X126.502 Y104.06 F10800
G1 Z.65 F720
M73 P46 R0
G1 E1 F2100
;TYPE:Solid infill
G1 F900
G1 X123.29 Y104.06 E.08369
G1 X123.29 Y105.94 E.04898
M73 Q46 S0
G1 X126.71 Y105.94 E.08911
G1 X126.71 Y104.06 E.04898
G1 X126.293 Y104.477 E.01537
G1 X126.293 Y105.523 E.02725
G1 X123.707 Y105.523 E.06738
M73 Q47 S0
G1 X123.707 Y104.477 E.02725
M73 P47 R0
G1 X126.084 Y104.477 E.06193
G1 X125.77 Y105 E.01589
;WIDTH:0.659752
G1 X124.23 Y105 E.06027
M106 S127.5
;LAYER_CHANGE
;Z:0.8
;HEIGHT:0.15
;BEFORE_LAYER_CHANGE
G92 E0.0
;0.8


;WIPE_START
G1 F8640
G1 X125.77 Y105 E-.35559
G1 X126.084 Y104.477 E-.14086
G1 X123.904 Y104.477 E-.50355
;WIPE_END
G1 Z.8 F720
;AFTER_LAYER_CHANGE
;0.8
G1 Z1
G1 X125 Y106.34 F10800
G1 Z.8 F720
G1 E1 F2100
M204 S800
;TYPE:Perimeter
;WIDTH:0.449999
G1 F900
G1 X122.89 Y106.34 E.05498
G1 X122.89 Y103.66 E.06983
M73 Q48 S0
G1 X127.11 Y103.66 E.10996
M73 P48 R0
G1 X127.11 Y106.34 E.06983
G1 X125.06 Y106.34 E.05341
M204 S1000
G1 X125 Y106.758 F10800
M204 S800
;TYPE:External perimeter
G1 F900
G1 X123.191 Y106.758 E.04713
G1 X122.472 Y106.758 E.01873
G1 X122.472 Y103.242 E.09161
G1 X123.191 Y103.242 E.01873
M73 P49 R0
M73 Q49 S0
G1 X126.809 Y103.242 E.09427
G1 X127.528 Y103.242 E.01873
G1 X127.528 Y106.758 E.09161
G1 X126.809 Y106.758 E.01873
G1 X125.06 Y106.758 E.04557
