; generated by PrusaSlicer 2.9.4 on 2026-03-18 at 00:27:21 UTC


;
;
; 

; external perimeters extrusion width = 0.45mm
; perimeters extrusion width = 0.45mm
; infill extrusion width = 0.45mm
; solid infill extrusion width = 0.45mm
; top infill extrusion width = 0.40mm
; first layer extrusion width = 0.42mm

M73 P0 R2
M73 Q0 S2
M201 X1000 Y1000 Z200 E5000 ; sets maximum accelerations, mm/sec^2
M203 X200 Y200 Z12 E120 ; sets maximum feedrates, mm / sec
M204 S1250 T1250 ; sets acceleration (S) and retract acceleration (R), mm/sec^2
M205 X8.00 Y8.00 Z0.40 E4.50 ; sets the jerk limits, mm/sec
M205 S0 T0 ; sets the minimum extruding and travel feed rate, mm/sec

; printing object J4 Cover.stl id:0 copy 0
; stop printing object J4 Cover.stl id:0 copy 0

;TYPE:Custom
M862.3 P "MK3S" ; printer model check
M862.1 P0.4 ; nozzle diameter check
M115 U3.14.1 ; tell printer latest fw version
G90 ; use absolute coordinates
M83 ; extruder relative mode
M104 S240 ; set extruder temp
M140 S90 ; set bed temp
M190 S90 ; wait for bed temp
M109 S240 ; wait for extruder temp
G28 W ; home all without mesh bed level
G80 X117.195 Y96.5446 W15.5303 H16.9903 ; mesh bed levelling

G1 Z0.2 F720
G1 Y-3 F1000 ; go outside print area
G92 E0
G1 X60 E9 F1000 ; intro line
G1 X100 E12.5 F1000 ; intro line
M73 P2 R2
M73 Q2 S2

G92 E0
M221 S95

; Don't change E values below. Excessive value can damage the printer.
M907 E430 ; set extruder motor current
G21 ; set units to millimeters
G90 ; use absolute coordinates
M83 ; use relative distances for extrusion

M900 K0.08 ; Filament gcode LA 1.5
M900 K45 ; Filament gcode LA 1.0




M107
;LAYER_CHANGE
;Z:0.2
;HEIGHT:0.2
G1 E-1 F2100
M73 P3 R2
M73 Q3 S2
G1 Z.4 F720
M73 P4 R2
G1 X117.778 Y99.676 F10800
M73 Q4 S2
G1 Z.2 F720
G1 E1 F2100
M204 S800
;TYPE:Skirt/Brim
;WIDTH:0.42
G1 F1200
G1 X118.584 Y98.775 E.0379
G1 X120.584 Y97.305 E.07783
G1 X122.326 Y96.734 E.05748
G1 X127.594 Y96.734 E.16517
G1 X129.336 Y97.305 E.05748
M73 Q5 S2
G1 X131.336 Y98.775 E.07783
G1 X132.288 Y99.962 E.04771
M73 P5 R2
G1 X132.536 Y101.145 E.0379
G1 X132.536 Y110.404 E.29031
G1 X132.143 Y111.873 E.04768
G1 X131.068 Y112.95 E.04771
G1 X129.595 Y113.346 E.04782
G1 X120.326 Y113.346 E.29062
G1 X118.857 Y112.952 E.04769
M73 Q6 S2
G1 X117.78 Y111.877 E.04771
G1 X117.384 Y110.404 E.04782
G1 X117.384 Y101.145 E.29031
M73 P6 R2
G1 X117.762 Y99.734 E.0458
M204 S1000
G1 X118.137 Y99.842 F10800
M204 S800
G1 F1200
G1 X118.154 Y99.782 E.00196
G1 X118.807 Y99.079 E.03008
G1 X120.807 Y97.609 E.07783
G1 X122.326 Y97.111 E.05012
G1 X127.594 Y97.111 E.16517
G1 X129.113 Y97.609 E.05012
G1 X131.113 Y99.079 E.07783
G1 X131.979 Y100.203 E.04449
M73 Q7 S2
G1 X132.159 Y101.146 E.0301
G1 X132.159 Y110.404 E.29028
G1 X131.766 Y111.767 E.04448
M73 P7 R2
G1 X130.709 Y112.713 E.04448
G1 X129.594 Y112.969 E.03587
G1 X120.326 Y112.969 E.29059
G1 X118.963 Y112.576 E.04448
G1 X118.017 Y111.519 E.04448
G1 X117.761 Y110.404 E.03587
G1 X117.761 Y101.146 E.29028
G1 X118.12 Y99.9 E.04066
M73 P8 R2
M73 Q8 S2
M204 S1000
G1 X118.492 Y100.016 F10800
M204 S800
G1 F1200
G1 X118.53 Y99.898 E.00389
G1 X119.031 Y99.383 E.02253
G1 X121.031 Y97.913 E.07783
G1 X122.326 Y97.488 E.04273
G1 X127.594 Y97.488 E.16517
G1 X128.89 Y97.913 E.04276
G1 X130.89 Y99.383 E.07783
G1 X131.664 Y100.437 E.041
G1 X131.782 Y101.146 E.02254
G1 X131.782 Y110.404 E.29028
G1 X131.391 Y111.652 E.04101
M73 Q9 S2
G1 X130.358 Y112.454 E.041
G1 X129.594 Y112.592 E.02434
M73 P9 R2
G1 X120.326 Y112.592 E.29059
G1 X119.078 Y112.2 E.04102
G1 X118.276 Y111.167 E.041
G1 X118.138 Y110.404 E.02431
G1 X118.138 Y101.146 E.29028
G1 X118.475 Y100.073 E.03526
M204 S1000
;WIPE_START
G1 F8640
G1 X118.492 Y100.016 E-.01373
G1 X118.53 Y99.898 E-.02862
G1 X119.031 Y99.383 E-.1659
G1 X121.031 Y97.913 E-.57313
M73 Q10 S2
G1 X121.931 Y97.618 E-.21862
;WIPE_END
G1 Z.4 F720
; printing object J4 Cover.stl id:0 copy 0
G1 X126.631 Y102.113 F10800
G1 Z.2 F720
G1 E1 F2100
M73 P10 R2
M204 S800
;TYPE:Perimeter
;WIDTH:0.419999
G1 F1200
G1 X126.733 Y102.208 E.00437
G1 X127.02 Y102.286 E.00933
G1 X128.454 Y102.286 E.04496
G1 X128.454 Y109.264 E.21879
G1 X121.466 Y109.264 E.2191
G1 X121.466 Y102.286 E.21879
G1 X122.901 Y102.286 E.04499
M73 Q11 S2
G1 X123.188 Y102.208 E.00933
G1 X123.368 Y102.039 E.00774
G1 X123.466 Y101.72 E.01046
G1 X123.466 Y100.816 E.02834
G1 X126.454 Y100.816 E.09369
G1 X126.454 Y101.72 E.02834
M73 P11 R2
G1 X126.553 Y102.039 E.01047
G1 X126.587 Y102.072 E.00149
M204 S1000
G1 X126.874 Y101.821 F10800
M204 S800
;TYPE:External perimeter
G1 F1200
G1 X126.888 Y101.855 E.00115
G1 X127.02 Y101.909 E.00447
G1 X128.831 Y101.909 E.05678
G1 X128.831 Y109.641 E.24243
G1 X121.089 Y109.641 E.24274
G1 X121.089 Y101.909 E.24243
G1 X122.901 Y101.909 E.05681
M73 Q12 S2
G1 X123.033 Y101.855 E.00447
G1 X123.089 Y101.72 E.00458
G1 X123.089 Y100.439 E.04016
G1 X126.831 Y100.439 E.11733
M73 P12 R2
G1 X126.831 Y101.72 E.04016
G1 X126.85 Y101.766 E.00156
M204 S1000
G1 X127.535 Y102.437 F10800
M204 S800
;TYPE:Solid infill
;WIDTH:0.423019
G1 F1200
G1 X128.134 Y103.036 E.02677
G1 X128.134 Y103.573 E.01697
G1 X127.167 Y102.606 E.04322
G1 X127.009 Y102.606 E.00499
G1 X126.746 Y102.565 E.00841
G1 X126.493 Y102.435 E.00899
G1 X126.288 Y102.222 E.00934
G1 X126.18 Y102.007 E.0076
G1 X126.134 Y101.731 E.00884
G1 X126.134 Y101.573 E.00499
G1 X125.697 Y101.136 E.01953
G1 X125.159 Y101.136 E.017
G1 X128.134 Y104.111 E.13297
G1 X128.134 Y104.648 E.01697
G1 X124.622 Y101.136 E.15697
G1 X124.084 Y101.136 E.017
G1 X128.134 Y105.186 E.18102
G1 X128.134 Y105.723 E.01697
M73 Q13 S2
G1 X123.787 Y101.376 E.1943
G1 X123.787 Y101.731 E.01122
M73 P13 R2
G1 X123.761 Y101.888 E.00503
G1 X128.134 Y106.261 E.19546
G1 X128.134 Y106.798 E.01697
G1 X123.596 Y102.26 E.20283
G1 X123.427 Y102.435 E.00769
G1 X123.299 Y102.501 E.00455
G1 X128.134 Y107.336 E.21611
G1 X128.134 Y107.874 E.017
M73 Q14 S2
G1 X122.867 Y102.606 E.23544
G1 X122.329 Y102.606 E.017
M73 P14 R2
G1 X128.134 Y108.411 E.25946
G1 X128.134 Y108.943 E.01681
G1 X121.787 Y102.606 E.28347
G1 X121.787 Y103.139 E.01685
G1 X127.591 Y108.943 E.25942
G1 X127.054 Y108.943 E.01697
M73 P15 R2
M73 Q15 S2
G1 X121.787 Y103.676 E.23542
G1 X121.787 Y104.214 E.017
G1 X126.516 Y108.943 E.21137
G1 X125.979 Y108.943 E.01697
G1 X121.787 Y104.751 E.18737
G1 X121.787 Y105.289 E.017
G1 X125.441 Y108.943 E.16332
G1 X124.903 Y108.943 E.017
M73 Q16 S2
G1 X121.787 Y105.827 E.13928
G1 X121.787 Y106.364 E.01697
M73 P16 R2
G1 X124.366 Y108.943 E.11527
G1 X123.828 Y108.943 E.017
G1 X121.787 Y106.902 E.09123
G1 X121.787 Y107.439 E.01697
G1 X123.291 Y108.943 E.06722
G1 X122.753 Y108.943 E.017
G1 X121.787 Y107.977 E.04318
G1 X121.787 Y108.514 E.01697
G1 X122.385 Y109.113 E.02675
M204 S1000
;LAYER_CHANGE
;Z:0.35
;HEIGHT:0.15
;BEFORE_LAYER_CHANGE
G92 E0.0
;0.35


;WIPE_START
G1 F8640
G1 X121.787 Y108.514 E-.19544
G1 X121.787 Y107.977 E-.12399
G1 X122.753 Y108.943 E-.31544
G1 X123.291 Y108.943 E-.12423
G1 X122.553 Y108.205 E-.2409
;WIPE_END
G1 Z.35 F720
;AFTER_LAYER_CHANGE
;0.35
M104 S230 ; set temperature
M140 S85 ; set bed temperature
; stop printing object J4 Cover.stl id:0 copy 0
G1 Z.55
G1 X122.385 Y113.346 F10800
G1 Z.35 F720
G1 E1 F2100
M73 Q17 S2
;TYPE:Skirt/Brim
;WIDTH:0.42
G1 F1673
G1 X120.326 Y113.346 E.0498
G1 X118.857 Y112.952 E.03678
G1 X117.78 Y111.877 E.0368
G1 X117.384 Y110.404 E.03689
M73 P17 R2
G1 X117.384 Y101.145 E.22393
G1 X117.778 Y99.676 E.03678
G1 X118.584 Y98.775 E.02924
G1 X120.584 Y97.305 E.06003
G1 X122.326 Y96.734 E.04434
G1 X127.594 Y96.734 E.12741
G1 X129.336 Y97.305 E.04434
G1 X131.336 Y98.775 E.06003
G1 X132.288 Y99.962 E.0368
G1 X132.536 Y101.145 E.02923
G1 X132.536 Y110.404 E.22393
G1 X132.143 Y111.873 E.03678
M73 Q18 S2
G1 X131.068 Y112.95 E.0368
G1 X129.595 Y113.346 E.03689
G1 X122.445 Y113.346 E.17292
M73 P18 R2
G1 X122.445 Y112.969 F10800
G1 F1673
G1 X120.326 Y112.969 E.05125
G1 X118.963 Y112.576 E.03431
G1 X118.017 Y111.519 E.03431
G1 X117.761 Y110.404 E.02767
G1 X117.761 Y101.146 E.2239
G1 X118.154 Y99.782 E.03433
G1 X118.807 Y99.079 E.02321
G1 X120.807 Y97.609 E.06003
G1 X122.326 Y97.111 E.03866
G1 X127.594 Y97.111 E.12741
G1 X129.113 Y97.609 E.03866
M73 Q19 S2
G1 X131.113 Y99.079 E.06003
G1 X131.979 Y100.203 E.03432
G1 X132.159 Y101.146 E.02322
G1 X132.159 Y110.404 E.2239
G1 X131.766 Y111.767 E.03431
M73 P19 R2
G1 X130.709 Y112.713 E.03431
G1 X129.594 Y112.969 E.02767
G1 X122.505 Y112.969 E.17145
G1 X122.505 Y112.592 F10800
G1 F1673
G1 X120.326 Y112.592 E.0527
G1 X119.078 Y112.2 E.03164
G1 X118.276 Y111.167 E.03163
G1 X118.138 Y110.404 E.01875
G1 X118.138 Y101.146 E.2239
G1 X118.53 Y99.898 E.03164
G1 X119.031 Y99.383 E.01738
M73 Q20 S2
G1 X121.031 Y97.913 E.06003
G1 X122.326 Y97.488 E.03296
G1 X127.594 Y97.488 E.12741
G1 X128.89 Y97.913 E.03299
M73 P20 R2
G1 X130.89 Y99.383 E.06003
G1 X131.664 Y100.437 E.03163
G1 X131.782 Y101.146 E.01738
G1 X131.782 Y110.404 E.2239
G1 X131.391 Y111.652 E.03163
G1 X130.358 Y112.454 E.03163
G1 X129.594 Y112.592 E.01878
G1 X122.565 Y112.592 E.17
;WIPE_START
G1 F8640
G1 X122.505 Y112.592 E-.01385
G1 X120.326 Y112.592 E-.50314
G1 X119.078 Y112.2 E-.30205
G1 X118.597 Y111.581 E-.18096
;WIPE_END
G1 Z.55 F720
; printing object J4 Cover.stl id:0 copy 0
G1 X127.017 Y101.719 F10800
G1 Z.35 F720
M73 Q21 S2
G1 E1 F2100
M204 S800
;TYPE:Perimeter
;WIDTH:0.449999
G1 F1495.524
M73 P21 R2
G1 X127.024 Y101.728 E.0003
G1 F1490.235
G1 X127.244 Y101.867 E.00678
G1 F1484.473
G1 X127.461 Y101.906 E.00574
G1 F1485.226
G1 X128.834 Y101.906 E.03577
G1 F1471.515
G1 X128.834 Y102.399 E.01285
G1 F1498.502
G1 X128.834 Y109.151 E.17593
G1 F1470.251
G1 X128.834 Y109.644 E.01285
G1 F1468.648
G1 X128.342 Y109.644 E.01282
G1 F1486.255
G1 X121.579 Y109.644 E.17621
G1 F1470.028
G1 X121.086 Y109.644 E.01285
G1 F1468.646
G1 X121.086 Y109.151 E.01285
G1 F1485.767
G1 X121.086 Y102.399 E.17593
G1 F1470.061
G1 X121.086 Y101.906 E.01285
G1 F1483.98
G1 X122.46 Y101.906 E.0358
G1 X122.677 Y101.867 E.00574
G1 F1488.403
G1 X122.808 Y101.8 E.00383
G1 F1495.392
G1 X123.007 Y101.584 E.00765
G1 F1500
G1 X123.086 Y101.279 E.00821
G1 X123.086 Y100.436 E.02196
G1 F1484.609
G1 X126.834 Y100.436 E.09766
G1 F1487.335
M73 Q22 S2
G1 X126.834 Y101.279 E.02196
G1 F1485.8
G1 X126.913 Y101.584 E.00821
G1 F1495.524
G1 X126.98 Y101.672 E.00288
M204 S1000
G1 X127.311 Y101.42 F10800
M204 S800
;TYPE:External perimeter
G1 F1013.344
G1 X127.315 Y101.429 E.00026
G1 X127.461 Y101.488 E.0041
G1 F1159.527
G1 X129.252 Y101.488 E.04667
G1 X129.252 Y102.403 E.02384
M73 P22 R2
G1 F1170.069
G1 X129.252 Y109.146 E.17569
G1 F1159.533
G1 X129.252 Y110.062 E.02387
G1 X128.337 Y110.062 E.02384
G1 F1170.085
G1 X121.584 Y110.062 E.17595
G1 F1159.535
G1 X120.669 Y110.062 E.02384
G1 X120.669 Y109.146 E.02387
G1 F1170.062
G1 X120.669 Y102.403 E.17569
G1 F1159.527
M73 Q23 S2
G1 X120.669 Y101.488 E.02384
G1 X122.46 Y101.488 E.04667
G1 F1050.856
G1 X122.589 Y101.443 E.00356
G1 X122.669 Y101.279 E.00475
G1 F1159.531
G1 X122.669 Y100.018 E.03286
G1 X123.584 Y100.018 E.02384
M73 P23 R2
G1 F1171.096
G1 X126.337 Y100.018 E.07173
G1 F1159.531
G1 X127.252 Y100.018 E.02384
G1 X127.252 Y101.279 E.03286
G1 F1013.344
G1 X127.288 Y101.365 E.00243
M204 S1000
;WIPE_START
G1 F8640
G1 X127.311 Y101.42 E-.01377
G1 X127.315 Y101.429 E-.00227
G1 X127.461 Y101.488 E-.03636
G1 X129.252 Y101.488 E-.41355
G1 X129.252 Y102.403 E-.21128
G1 X129.252 Y103.801 E-.32277
;WIPE_END
G1 Z.55 F720
G1 X123.577 Y100.842 F10800
G1 Z.35 F720
G1 E1 F2100
;TYPE:Solid infill
;WIDTH:0.587026
G1 F1673
G1 X123.528 Y100.793 E.0024
G1 X123.461 Y100.81 E.00239
G1 X123.443 Y100.877 E.0024
G1 X123.492 Y100.926 E.0024
G1 X123.559 Y100.909 E.00239
;WIDTH:0.449999
G1 X124.266 Y100.791 E.01868
G1 X123.33 Y101.727 E.03449
G1 X123.198 Y101.809 E.00405
;WIDTH:0.411095
G1 X123.066 Y101.891 E.00367
;WIDTH:0.37219
G1 X123.221 Y102.023 E.00432
;WIPE_START
G1 F8640
G1 X123.066 Y101.891 E-.04701
G1 X123.198 Y101.809 E-.03588
G1 X123.33 Y101.727 E-.03588
G1 X124.266 Y100.791 E-.30565
G1 X123.559 Y100.909 E-.16551
G1 X123.492 Y100.926 E-.01596
G1 X123.443 Y100.877 E-.016
G1 X123.461 Y100.81 E-.01602
G1 X123.528 Y100.793 E-.01596
G1 X123.577 Y100.842 E-.016
;WIPE_END
G1 E-.33013 F2100
G1 Z.55 F720
G1 X121.555 Y102.295 F10800
G1 Z.35 F720
G1 E1 F2100
M73 P23 R1
;WIDTH:0.55137
G1 F1673
M73 Q24 S2
G1 X121.509 Y102.249 E.00211
G1 X121.446 Y102.266 E.00211
G1 X121.429 Y102.328 E.00208
G1 X121.475 Y102.374 E.00211
G1 X121.538 Y102.358 E.0021
;WIDTH:0.449999
G1 X121.441 Y103.025 E.01756
G1 X122.205 Y102.261 E.02815
G1 X122.926 Y102.131 E.01909
G1 X121.441 Y103.616 E.05472
G1 X121.441 Y104.207 E.0154
M73 P24 R1
M73 Q24 S1
G1 X124.857 Y100.791 E.12587
G1 X124.952 Y100.717 E.00314
;WIDTH:0.411095
G1 X125.048 Y100.643 E.00286
;WIDTH:0.37219
G1 X125.007 Y100.654 E.0009
G1 X124.987 Y100.583 E.00156
G1 X125.059 Y100.602 E.00158
;WIDTH:0.449999
G1 X125.448 Y100.791 E.01127
G1 X121.441 Y104.798 E.14765
G1 X121.441 Y105.388 E.01537
G1 X126.039 Y100.791 E.16941
G1 X126.632 Y100.668 E.01578
;WIDTH:0.37219
G1 X126.561 Y100.649 E.00156
G1 X126.58 Y100.72 E.00156
G1 X126.621 Y100.709 E.0009
;WIDTH:0.411095
G1 X126.55 Y100.825 E.00321
;WIDTH:0.449999
G1 X126.479 Y100.942 E.00357
G1 X121.441 Y105.979 E.18562
G1 X121.441 Y106.57 E.0154
G1 X126.527 Y101.484 E.18741
G1 X126.702 Y101.901 E.01178
M73 Q25 S1
G1 X121.441 Y107.161 E.19384
G1 X121.441 Y107.752 E.0154
M73 P25 R1
G1 X127.038 Y102.156 E.20622
G1 X127.523 Y102.261 E.01293
G1 X121.441 Y108.343 E.22411
G1 X121.441 Y108.934 E.0154
G1 X128.114 Y102.261 E.24589
G1 X128.613 Y102.157 E.01328
;WIDTH:0.37219
G1 X128.542 Y102.138 E.00156
G1 X128.561 Y102.209 E.00156
G1 X128.602 Y102.198 E.0009
;WIDTH:0.411095
G1 X128.54 Y102.343 E.00373
;WIDTH:0.449999
G1 X128.479 Y102.487 E.00407
G1 X121.677 Y109.289 E.25064
G1 X121.534 Y109.329 E.00387
M73 P26 R1
M73 Q26 S1
;WIDTH:0.411095
G1 X121.391 Y109.369 E.00351
;WIDTH:0.37219
G1 X121.32 Y109.35 E.00156
G1 X121.339 Y109.421 E.00156
G1 X121.38 Y109.41 E.0009
G1 X122.268 Y109.289 F10800
;WIDTH:0.449999
G1 F1673
G1 X128.479 Y103.078 E.22887
G1 X128.479 Y103.669 E.0154
G1 X122.859 Y109.289 E.20709
G1 X123.45 Y109.289 E.0154
G1 X128.479 Y104.26 E.18531
G1 X128.479 Y104.85 E.01537
G1 X124.041 Y109.289 E.16355
G1 X124.632 Y109.289 E.0154
M73 Q27 S1
G1 X128.479 Y105.441 E.14177
G1 X128.479 Y106.032 E.0154
M73 P27 R1
G1 X125.223 Y109.289 E.12
G1 X125.813 Y109.289 E.01537
G1 X128.479 Y106.623 E.09824
G1 X128.698 Y107.043 E.01234
;WIDTH:0.37219
G1 X128.627 Y107.023 E.00156
G1 X128.646 Y107.095 E.00158
G1 X128.687 Y107.084 E.0009
;WIDTH:0.411095
G1 X128.583 Y107.149 E.0029
;WIDTH:0.449999
G1 X128.479 Y107.214 E.0032
G1 X126.404 Y109.289 E.07646
;WIPE_START
G1 F8640
G1 X128.479 Y107.214 E-.67758
G1 X128.583 Y107.149 E-.02832
G1 X128.687 Y107.084 E-.02832
G1 X128.646 Y107.095 E-.0098
G1 X128.627 Y107.023 E-.01719
G1 X128.698 Y107.043 E-.01703
G1 X128.479 Y106.623 E-.10937
G1 X128.135 Y106.967 E-.11239
;WIPE_END
G1 Z.55 F720
G1 X128.331 Y107.952 F10800
G1 Z.35 F720
G1 E1 F2100
G1 F1673
G1 X126.995 Y109.289 E.04925
G1 X128.479 Y109.289 E.03867
G1 X128.479 Y107.805 E.03867
;WIPE_START
G1 F8640
G1 X128.479 Y109.289 E-.34266
G1 X126.995 Y109.289 E-.34266
G1 X127.959 Y108.325 E-.31468
;WIPE_END
G1 Z.55 F720
M73 Q28 S1
G1 X128.099 Y108.839 F10800
G1 Z.35 F720
G1 E1 F2100
;WIDTH:0.483554
G1 F1673
M73 P28 R1
G1 X128.059 Y108.799 E.00159
G1 X128.005 Y108.814 E.00158
G1 X127.99 Y108.869 E.0016
G1 X128.03 Y108.908 E.00157
G1 X128.084 Y108.894 E.00157
;LAYER_CHANGE
;Z:0.5
;HEIGHT:0.15
;BEFORE_LAYER_CHANGE
G92 E0.0
;0.5


;WIPE_START
G1 F8640
G1 X128.03 Y108.908 E-.01288
G1 X127.99 Y108.869 E-.0129
G1 X128.005 Y108.814 E-.01316
G1 X128.059 Y108.799 E-.01294
G1 X128.099 Y108.839 E-.01306
;WIPE_END
G1 E-.93506 F2100
G1 Z.5 F720
;AFTER_LAYER_CHANGE
;0.5
; stop printing object J4 Cover.stl id:0 copy 0
G1 Z.7
G1 X132.536 Y108.894 F10800
G1 Z.5 F720
G1 E1 F2100
;TYPE:Skirt/Brim
;WIDTH:0.42
G1 F1658
G1 X132.536 Y110.404 E.03652
G1 X132.143 Y111.873 E.03678
G1 X131.068 Y112.95 E.0368
G1 X129.595 Y113.346 E.03689
G1 X120.326 Y113.346 E.22417
G1 X118.857 Y112.952 E.03678
