; generated by PrusaSlicer 2.9.4 on 2026-03-20 at 00:14:32 UTC


;
;
; 

; external perimeters extrusion width = 0.45mm
; perimeters extrusion width = 0.45mm
; infill extrusion width = 0.45mm
; solid infill extrusion width = 0.45mm
; top infill extrusion width = 0.40mm
; first layer extrusion width = 0.50mm

M73 P0 R2
M73 Q0 S2
M201 X1000 Y1000 Z200 E5000 ; sets maximum accelerations, mm/sec^2
M203 X200 Y200 Z12 E120 ; sets maximum feedrates, mm / sec
M204 S1250 T1250 ; sets acceleration (S) and retract acceleration (R), mm/sec^2
M205 X8.00 Y8.00 Z0.40 E4.50 ; sets the jerk limits, mm/sec
M205 S0 T0 ; sets the minimum extruding and travel feed rate, mm/sec

; printing object J4 Cover.stl id:0 copy 0
; stop printing object J4 Cover.stl id:0 copy 0

;TYPE:Custom
M862.3 P "MK3S" ; printer model check
M862.1 P0.4 ; nozzle diameter check
M115 U3.14.1 ; tell printer latest fw version
G90 ; use absolute coordinates
M83 ; extruder relative mode
M104 S240 ; set extruder temp
M140 S90 ; set bed temp
M190 S90 ; wait for bed temp
M109 S240 ; wait for extruder temp
G28 W ; home all without mesh bed level
G80 X117.412 Y96.7617 W15.0962 H16.5562 ; mesh bed levelling

G1 Z0.2 F720
G1 Y-3 F1000 ; go outside print area
G92 E0
G1 X60 E9 F1000 ; intro line
G1 X100 E12.5 F1000 ; intro line
M73 P2 R2
M73 Q2 S2

G92 E0
M221 S95

; Don't change E values below. Excessive value can damage the printer.
M907 E430 ; set extruder motor current
G21 ; set units to millimeters
G90 ; use absolute coordinates
M83 ; use relative distances for extrusion

M900 K0.08 ; Filament gcode LA 1.5
M900 K45 ; Filament gcode LA 1.0




M107
;LAYER_CHANGE
;Z:0.2
;HEIGHT:0.2
G1 E-1 F2100
M73 P3 R2
M73 Q3 S2
G1 Z.4 F720
G1 X118.034 Y99.748 F10800
M73 P4 R2
M73 Q4 S2
G1 Z.2 F720
G1 E1 F2100
M204 S800
;TYPE:Skirt/Brim
;WIDTH:0.5
G1 F900
G1 X118.736 Y98.982 E.03949
G1 X120.736 Y97.512 E.09434
G1 X122.326 Y96.991 E.06359
G1 X127.594 Y96.991 E.20022
M73 Q5 S2
G1 X129.184 Y97.512 E.06359
M73 P5 R2
G1 X131.184 Y98.982 E.09434
G1 X132.078 Y100.127 E.05521
G1 X132.279 Y101.146 E.03947
G1 X132.279 Y110.404 E.35186
G1 X131.886 Y111.802 E.05519
G1 X130.823 Y112.791 E.05518
G1 X129.594 Y113.089 E.04806
M73 Q6 S2
G1 X120.326 Y113.089 E.35224
G1 X118.928 Y112.696 E.05519
M73 P6 R2
G1 X117.939 Y111.632 E.05521
G1 X117.641 Y110.404 E.04803
G1 X117.641 Y101.146 E.35186
G1 X118.018 Y99.805 E.05294
M73 Q7 S2
M204 S1000
G1 X118.471 Y99.946 F10800
M204 S800
G1 F900
G1 X118.49 Y99.885 E.00243
G1 X119.007 Y99.351 E.02825
G1 X121.007 Y97.881 E.09434
G1 X122.326 Y97.448 E.05276
M73 P7 R2
G1 X127.594 Y97.448 E.20022
G1 X128.913 Y97.881 E.05276
G1 X130.913 Y99.351 E.09434
G1 X131.698 Y100.413 E.05019
G1 X131.822 Y101.146 E.02825
G1 X131.822 Y110.404 E.35186
G1 X131.431 Y111.665 E.05018
M73 Q8 S2
G1 X130.394 Y112.483 E.0502
M73 P8 R2
G1 X129.594 Y112.632 E.03093
G1 X120.326 Y112.632 E.35224
G1 X119.065 Y112.24 E.05019
G1 X118.247 Y111.204 E.05017
G1 X118.098 Y110.404 E.03093
G1 X118.098 Y101.146 E.35186
G1 X118.453 Y100.003 E.04549
M73 P9 R2
M73 Q9 S2
M204 S1000
;WIPE_START
G1 F8640
G1 X118.471 Y99.946 E-.0138
G1 X118.49 Y99.885 E-.01475
G1 X119.007 Y99.351 E-.17162
G1 X121.007 Y97.881 E-.57313
G1 X121.94 Y97.575 E-.2267
;WIPE_END
G1 Z.4 F720
; printing object J4 Cover.stl id:0 copy 0
G1 X124.96 Y109.294 F10800
G1 Z.2 F720
G1 E1 F2100
M204 S800
;TYPE:Perimeter
;WIDTH:0.499999
G1 F900
G1 X121.436 Y109.294 E.13393
G1 X121.436 Y102.256 E.26749
G1 X122.751 Y102.256 E.04998
M73 Q10 S2
G1 X122.971 Y102.219 E.00848
G1 X123.231 Y102.06 E.01158
G1 X123.383 Y101.835 E.01032
G1 X123.436 Y101.57 E.01027
G1 X123.436 Y100.786 E.0298
G1 X126.484 Y100.786 E.11584
G1 X126.484 Y101.57 E.0298
M73 P10 R2
G1 X126.537 Y101.835 E.01027
G1 X126.69 Y102.06 E.01034
G1 X126.949 Y102.219 E.01155
G1 X127.17 Y102.256 E.00852
G1 X128.484 Y102.256 E.04994
G1 X128.484 Y109.294 E.26749
G1 X125.02 Y109.294 E.13165
M204 S1000
G1 X124.96 Y109.751 F10800
M204 S800
;TYPE:External perimeter
G1 F900
G1 X120.979 Y109.751 E.1513
G1 X120.979 Y101.799 E.30223
M73 Q11 S2
G1 X122.751 Y101.799 E.06735
M73 P11 R2
G1 X122.911 Y101.733 E.00658
G1 X122.979 Y101.57 E.00671
G1 X122.979 Y100.329 E.04717
G1 X126.941 Y100.329 E.15058
G1 X126.941 Y101.57 E.04717
G1 X127.01 Y101.733 E.00673
G1 X127.17 Y101.799 E.00658
G1 X128.941 Y101.799 E.06731
G1 X128.941 Y109.751 E.30223
G1 X125.02 Y109.751 E.14902
M73 P12 R2
M73 Q12 S2
M204 S1000
;WIPE_START
G1 F8640
G1 X124.96 Y109.751 E-.01385
G1 X120.979 Y109.751 E-.91922
G1 X120.979 Y109.461 E-.06693
;WIPE_END
G1 Z.4 F720
G1 X128.301 Y103.401 F10800
G1 Z.2 F720
G1 E1 F2100
M204 S800
;TYPE:Solid infill
;WIDTH:0.518306
G1 F900
G1 X127.339 Y102.439 E.05378
M204 S1000
;WIPE_START
G1 F8640
G1 X128.301 Y103.401 E-.31414
;WIPE_END
G1 E-.68586 F2100
G1 Z.4 F720
G1 X126.301 Y101.401 F10800
G1 Z.2 F720
G1 E1 F2100
M204 S800
G1 F900
G1 X126.074 Y101.174 E.01269
G1 X125.402 Y101.174 E.02656
G1 X128.096 Y103.868 E.1506
M73 Q13 S2
G1 X128.096 Y104.54 E.02656
M73 P13 R2
G1 X124.73 Y101.174 E.18817
G1 X124.057 Y101.174 E.0266
G1 X128.096 Y105.213 E.22579
G1 X128.096 Y105.885 E.02656
G1 X123.82 Y101.609 E.23904
G1 X123.746 Y101.98 E.01495
G1 X123.664 Y102.126 E.00662
M73 Q14 S2
G1 X128.096 Y106.557 E.24773
G1 X128.096 Y107.23 E.0266
M73 P14 R2
G1 X123.331 Y102.465 E.26637
G1 X123.097 Y102.589 E.01047
G1 X122.828 Y102.634 E.01078
G1 X128.096 Y107.902 E.29449
G1 X128.096 Y108.574 E.02656
G1 X122.166 Y102.644 E.3315
G1 X121.825 Y102.644 E.01348
M73 P15 R2
M73 Q15 S2
G1 X121.825 Y102.976 E.01312
G1 X127.754 Y108.905 E.33144
G1 X127.082 Y108.905 E.02656
G1 X121.825 Y103.648 E.29388
G1 X121.825 Y104.32 E.02656
M73 Q16 S2
G1 X126.41 Y108.905 E.25631
G1 X125.738 Y108.905 E.02656
M73 P16 R2
G1 X121.825 Y104.992 E.21874
G1 X121.825 Y105.665 E.0266
G1 X125.065 Y108.905 E.18112
G1 X124.393 Y108.905 E.02656
G1 X121.825 Y106.337 E.14356
G1 X121.825 Y107.009 E.02656
M73 Q17 S2
G1 X123.721 Y108.905 E.10599
G1 X123.048 Y108.905 E.0266
M73 P17 R2
G1 X121.825 Y107.682 E.06837
G1 X121.825 Y108.354 E.02656
G1 X122.582 Y109.111 E.04232
M204 S1000
;LAYER_CHANGE
;Z:0.35
;HEIGHT:0.15
;BEFORE_LAYER_CHANGE
G92 E0.0
;0.35


;WIPE_START
G1 F8640
G1 X121.825 Y108.354 E-.2472
G1 X121.825 Y107.682 E-.15517
G1 X123.048 Y108.905 E-.39937
G1 X123.721 Y108.905 E-.1554
G1 X123.59 Y108.774 E-.04286
;WIPE_END
G1 Z.35 F720
;AFTER_LAYER_CHANGE
;0.35
M104 S230 ; set temperature
M140 S85 ; set bed temperature
; stop printing object J4 Cover.stl id:0 copy 0
G1 Z.55
G1 X122.582 Y113.089 F10800
G1 Z.35 F720
G1 E1 F2100
;TYPE:Skirt/Brim
;WIDTH:0.5
G1 F1383
G1 X120.326 Y113.089 E.06582
G1 X118.928 Y112.696 E.04237
G1 X117.939 Y111.632 E.04238
G1 X117.641 Y110.404 E.03687
G1 X117.641 Y101.146 E.27009
G1 X118.034 Y99.748 E.04237
M73 Q18 S2
G1 X118.736 Y98.982 E.03031
G1 X120.736 Y97.512 E.07241
M73 P18 R2
G1 X122.326 Y96.991 E.04881
G1 X127.594 Y96.991 E.15369
G1 X129.184 Y97.512 E.04881
G1 X131.184 Y98.982 E.07241
G1 X132.078 Y100.127 E.04238
G1 X132.279 Y101.146 E.0303
G1 X132.279 Y110.404 E.27009
G1 X131.886 Y111.802 E.04237
G1 X130.823 Y112.791 E.04236
G1 X129.594 Y113.089 E.03689
G1 X122.642 Y113.089 E.20282
G1 X122.642 Y112.632 F10800
M73 P19 R2
M73 Q19 S2
G1 F1383
G1 X120.326 Y112.632 E.06757
G1 X119.065 Y112.24 E.03852
G1 X118.247 Y111.204 E.03851
G1 X118.098 Y110.404 E.02374
G1 X118.098 Y101.146 E.27009
G1 X118.49 Y99.885 E.03852
G1 X119.007 Y99.351 E.02168
G1 X121.007 Y97.881 E.07241
G1 X122.326 Y97.448 E.0405
G1 X127.594 Y97.448 E.15369
G1 X128.913 Y97.881 E.0405
G1 X130.913 Y99.351 E.07241
G1 X131.698 Y100.413 E.03853
M73 Q20 S2
G1 X131.822 Y101.146 E.02169
G1 X131.822 Y110.404 E.27009
G1 X131.431 Y111.665 E.03852
M73 P20 R2
G1 X130.394 Y112.483 E.03853
G1 X129.594 Y112.632 E.02374
G1 X122.702 Y112.632 E.20107
;WIPE_START
G1 F8640
G1 X122.642 Y112.632 E-.01385
G1 X120.326 Y112.632 E-.53477
G1 X119.065 Y112.24 E-.30491
G1 X118.672 Y111.742 E-.14647
;WIPE_END
G1 Z.55 F720
; printing object J4 Cover.stl id:0 copy 0
G1 X124.96 Y109.644 F10800
G1 Z.35 F720
G1 E1 F2100
M204 S800
;TYPE:Perimeter
;WIDTH:0.449999
G1 F1383
G1 X121.579 Y109.644 E.08809
G1 X121.086 Y109.644 E.01285
M73 Q21 S2
G1 X121.086 Y109.151 E.01285
G1 X121.086 Y102.399 E.17593
G1 X121.086 Y101.906 E.01285
M73 P21 R2
G1 X122.46 Y101.906 E.0358
G1 X122.677 Y101.867 E.00574
G1 X122.808 Y101.8 E.00383
G1 X123.007 Y101.584 E.00765
G1 X123.086 Y101.279 E.00821
G1 X123.086 Y100.436 E.02196
G1 X126.834 Y100.436 E.09766
G1 X126.834 Y101.279 E.02196
G1 X126.913 Y101.584 E.00821
G1 X127.024 Y101.728 E.00474
G1 X127.244 Y101.867 E.00678
G1 X127.461 Y101.906 E.00574
G1 X128.834 Y101.906 E.03577
G1 X128.834 Y102.399 E.01285
G1 X128.834 Y109.151 E.17593
G1 X128.834 Y109.644 E.01285
G1 X128.342 Y109.644 E.01282
G1 X125.02 Y109.644 E.08656
M204 S1000
G1 X124.96 Y110.062 F10800
M204 S800
;TYPE:External perimeter
G1 F1170.085
G1 X121.584 Y110.062 E.08796
G1 F1159.535
M73 Q22 S2
G1 X120.669 Y110.062 E.02384
G1 X120.669 Y109.146 E.02387
G1 F1170.062
G1 X120.669 Y102.403 E.17569
G1 F1159.527
M73 P22 R2
G1 X120.669 Y101.488 E.02384
G1 X122.46 Y101.488 E.04667
G1 F1050.856
G1 X122.589 Y101.443 E.00356
G1 X122.669 Y101.279 E.00475
G1 F1159.531
G1 X122.669 Y100.018 E.03286
G1 X123.584 Y100.018 E.02384
G1 F1171.096
G1 X126.337 Y100.018 E.07173
G1 F1159.531
G1 X127.252 Y100.018 E.02384
G1 X127.252 Y101.279 E.03286
G1 F1013.344
G1 X127.315 Y101.429 E.00424
G1 X127.461 Y101.488 E.0041
G1 F1159.527
G1 X129.252 Y101.488 E.04667
G1 X129.252 Y102.403 E.02384
G1 F1170.069
G1 X129.252 Y109.146 E.17569
G1 F1159.533
G1 X129.252 Y110.062 E.02387
G1 X128.337 Y110.062 E.02384
M73 Q23 S2
G1 F1170.085
G1 X125.02 Y110.062 E.08643
M204 S1000
;WIPE_START
G1 F8640
M73 P23 R2
G1 X124.96 Y110.062 E-.01385
G1 X121.584 Y110.062 E-.77953
G1 X120.689 Y110.062 E-.20662
;WIPE_END
G1 Z.55 F720
G1 X123.577 Y100.842 F10800
G1 Z.35 F720
G1 E1 F2100
;TYPE:Solid infill
;WIDTH:0.587026
G1 F1383
G1 X123.528 Y100.793 E.0024
G1 X123.461 Y100.81 E.00239
G1 X123.443 Y100.877 E.0024
G1 X123.492 Y100.926 E.0024
G1 X123.559 Y100.909 E.00239
;WIDTH:0.449999
G1 X124.266 Y100.791 E.01868
G1 X123.33 Y101.727 E.03449
G1 X123.198 Y101.809 E.00405
;WIDTH:0.411095
G1 X123.066 Y101.891 E.00367
;WIDTH:0.37219
G1 X123.221 Y102.023 E.00432
;WIPE_START
G1 F8640
G1 X123.066 Y101.891 E-.04701
G1 X123.198 Y101.809 E-.03588
G1 X123.33 Y101.727 E-.03588
G1 X124.266 Y100.791 E-.30565
G1 X123.559 Y100.909 E-.16551
G1 X123.492 Y100.926 E-.01596
G1 X123.443 Y100.877 E-.016
G1 X123.461 Y100.81 E-.01602
G1 X123.528 Y100.793 E-.01596
G1 X123.577 Y100.842 E-.016
;WIPE_END
G1 E-.33013 F2100
G1 Z.55 F720
G1 X121.555 Y102.295 F10800
G1 Z.35 F720
G1 E1 F2100
;WIDTH:0.55137
G1 F1383
G1 X121.509 Y102.249 E.00211
G1 X121.446 Y102.266 E.00211
G1 X121.429 Y102.328 E.00208
G1 X121.475 Y102.374 E.00211
G1 X121.538 Y102.358 E.0021
;WIDTH:0.449999
G1 X121.441 Y103.025 E.01756
G1 X122.205 Y102.261 E.02815
G1 X122.926 Y102.131 E.01909
G1 X121.441 Y103.616 E.05472
G1 X121.441 Y104.207 E.0154
G1 X124.857 Y100.791 E.12587
G1 X124.952 Y100.717 E.00314
M73 Q24 S2
;WIDTH:0.411095
G1 X125.048 Y100.643 E.00286
;WIDTH:0.37219
G1 X125.007 Y100.654 E.0009
G1 X124.987 Y100.583 E.00156
G1 X125.059 Y100.602 E.00158
;WIDTH:0.449999
G1 X125.448 Y100.791 E.01127
M73 P24 R2
G1 X121.441 Y104.798 E.14765
G1 X121.441 Y105.388 E.01537
M73 P24 R1
G1 X126.039 Y100.791 E.16941
M73 Q24 S1
G1 X126.632 Y100.668 E.01578
;WIDTH:0.37219
G1 X126.561 Y100.649 E.00156
G1 X126.58 Y100.72 E.00156
G1 X126.621 Y100.709 E.0009
;WIDTH:0.411095
G1 X126.55 Y100.825 E.00321
;WIDTH:0.449999
G1 X126.479 Y100.942 E.00357
G1 X121.441 Y105.979 E.18562
G1 X121.441 Y106.57 E.0154
G1 X126.527 Y101.484 E.18741
G1 X126.702 Y101.901 E.01178
G1 X121.441 Y107.161 E.19384
M73 Q25 S1
G1 X121.441 Y107.752 E.0154
M73 P25 R1
G1 X127.038 Y102.156 E.20622
G1 X127.523 Y102.261 E.01293
G1 X121.441 Y108.343 E.22411
G1 X121.441 Y108.934 E.0154
G1 X128.114 Y102.261 E.24589
G1 X128.613 Y102.157 E.01328
M73 Q26 S1
;WIDTH:0.37219
G1 X128.542 Y102.138 E.00156
G1 X128.561 Y102.209 E.00156
G1 X128.602 Y102.198 E.0009
;WIDTH:0.411095
G1 X128.54 Y102.343 E.00373
;WIDTH:0.449999
G1 X128.479 Y102.487 E.00407
G1 X121.677 Y109.289 E.25064
G1 X121.534 Y109.329 E.00387
M73 P26 R1
;WIDTH:0.411095
G1 X121.391 Y109.369 E.00351
;WIDTH:0.37219
G1 X121.32 Y109.35 E.00156
G1 X121.339 Y109.421 E.00156
G1 X121.38 Y109.41 E.0009
G1 X122.268 Y109.289 F10800
;WIDTH:0.449999
G1 F1383
G1 X128.479 Y103.078 E.22887
G1 X128.479 Y103.669 E.0154
G1 X122.859 Y109.289 E.20709
G1 X123.45 Y109.289 E.0154
G1 X128.479 Y104.26 E.18531
G1 X128.479 Y104.85 E.01537
M73 Q27 S1
G1 X124.041 Y109.289 E.16355
G1 X124.632 Y109.289 E.0154
M73 P27 R1
G1 X128.479 Y105.441 E.14177
G1 X128.479 Y106.032 E.0154
G1 X125.223 Y109.289 E.12
G1 X125.813 Y109.289 E.01537
G1 X128.479 Y106.623 E.09824
G1 X128.698 Y107.043 E.01234
;WIDTH:0.37219
G1 X128.627 Y107.023 E.00156
G1 X128.646 Y107.095 E.00158
G1 X128.687 Y107.084 E.0009
;WIDTH:0.411095
G1 X128.583 Y107.149 E.0029
;WIDTH:0.449999
G1 X128.479 Y107.214 E.0032
G1 X126.404 Y109.289 E.07646
;WIPE_START
G1 F8640
G1 X128.479 Y107.214 E-.67758
G1 X128.583 Y107.149 E-.02832
G1 X128.687 Y107.084 E-.02832
G1 X128.646 Y107.095 E-.0098
G1 X128.627 Y107.023 E-.01719
G1 X128.698 Y107.043 E-.01703
G1 X128.479 Y106.623 E-.10937
G1 X128.135 Y106.967 E-.11239
;WIPE_END
G1 Z.55 F720
G1 X128.331 Y107.952 F10800
M73 Q28 S1
G1 Z.35 F720
G1 E1 F2100
G1 F1383
G1 X126.995 Y109.289 E.04925
G1 X128.479 Y109.289 E.03867
M73 P28 R1
G1 X128.479 Y107.805 E.03867
;WIPE_START
G1 F8640
G1 X128.479 Y109.289 E-.34266
G1 X126.995 Y109.289 E-.34266
G1 X127.959 Y108.325 E-.31468
;WIPE_END
G1 Z.55 F720
G1 X128.099 Y108.839 F10800
G1 Z.35 F720
G1 E1 F2100
;WIDTH:0.483554
G1 F1383
G1 X128.059 Y108.799 E.00159
G1 X128.005 Y108.814 E.00158
G1 X127.99 Y108.869 E.0016
G1 X128.03 Y108.908 E.00157
G1 X128.084 Y108.894 E.00157
;LAYER_CHANGE
;Z:0.5
;HEIGHT:0.15
;BEFORE_LAYER_CHANGE
G92 E0.0
;0.5


;WIPE_START
G1 F8640
G1 X128.03 Y108.908 E-.01288
G1 X127.99 Y108.869 E-.0129
G1 X128.005 Y108.814 E-.01316
G1 X128.059 Y108.799 E-.01294
G1 X128.099 Y108.839 E-.01306
;WIPE_END
G1 E-.93506 F2100
G1 Z.5 F720
;AFTER_LAYER_CHANGE
;0.5
; stop printing object J4 Cover.stl id:0 copy 0
G1 Z.7
G1 X132.279 Y108.894 F10800
G1 Z.5 F720
G1 E1 F2100
;TYPE:Skirt/Brim
;WIDTH:0.5
G1 F1383
G1 X132.279 Y110.404 E.04405
G1 X131.886 Y111.802 E.04237
G1 X130.823 Y112.791 E.04236
G1 X129.594 Y113.089 E.03689
G1 X120.326 Y113.089 E.27038
G1 X118.928 Y112.696 E.04237
M73 P29 R1
M73 Q29 S1
G1 X117.939 Y111.632 E.04238
G1 X117.641 Y110.404 E.03687
G1 X117.641 Y101.146 E.27009
G1 X118.034 Y99.748 E.04237
G1 X118.736 Y98.982 E.03031
G1 X120.736 Y97.512 E.07241
G1 X122.326 Y96.991 E.04881
G1 X127.594 Y96.991 E.15369
G1 X129.184 Y97.512 E.04881
G1 X131.184 Y98.982 E.07241
G1 X132.078 Y100.127 E.04238
G1 X132.279 Y101.146 E.0303
M73 Q30 S1
G1 X132.279 Y108.834 E.22429
G1 X131.822 Y108.834 F10800
M73 P30 R1
G1 F1383
G1 X131.822 Y110.404 E.0458
G1 X131.431 Y111.665 E.03852
G1 X130.394 Y112.483 E.03853
G1 X129.594 Y112.632 E.02374
G1 X120.326 Y112.632 E.27038
G1 X119.065 Y112.24 E.03852
G1 X118.247 Y111.204 E.03851
G1 X118.098 Y110.404 E.02374
G1 X118.098 Y101.146 E.27009
G1 X118.49 Y99.885 E.03852
M73 Q31 S1
G1 X119.007 Y99.351 E.02168
G1 X121.007 Y97.881 E.07241
G1 X122.326 Y97.448 E.0405
M73 P31 R1
G1 X127.594 Y97.448 E.15369
G1 X128.913 Y97.881 E.0405
G1 X130.913 Y99.351 E.07241
G1 X131.698 Y100.413 E.03853
G1 X131.822 Y101.146 E.02169
G1 X131.822 Y108.774 E.22254
;WIPE_START
G1 F8640
G1 X131.822 Y108.834 E-.01385
G1 X131.822 Y110.404 E-.36252
G1 X131.431 Y111.665 E-.30484
G1 X130.394 Y112.483 E-.30497
G1 X130.335 Y112.494 E-.01382
;WIPE_END
G1 Z.7 F720
; printing object J4 Cover.stl id:0 copy 0
G1 X124.96 Y109.76 F10800
G1 Z.5 F720
G1 E1 F2100
M204 S800
;TYPE:Perimeter
;WIDTH:0.449999
G1 F1383
G1 X120.97 Y109.76 E.10396
G1 X120.97 Y101.789 E.20769
M73 Q32 S1
G1 X122.343 Y101.789 E.03577
M73 P32 R1
G1 X122.566 Y101.748 E.00591
G1 X122.828 Y101.56 E.0084
G1 X122.97 Y101.163 E.01099
G1 X122.97 Y100.319 E.02199
G1 X126.951 Y100.319 E.10373
