; generated by PrusaSlicer 2.9.4 on 2026-03-18 at 00:27:50 UTC


;
;
; 

; external perimeters extrusion width = 0.45mm
; perimeters extrusion width = 0.45mm
; infill extrusion width = 0.45mm
; solid infill extrusion width = 0.45mm
; top infill extrusion width = 0.40mm
; first layer extrusion width = 0.42mm

M73 P0 R11
M73 Q0 S11
M201 X1000 Y1000 Z200 E5000 ; sets maximum accelerations, mm/sec^2
M203 X200 Y200 Z12 E120 ; sets maximum feedrates, mm / sec
M204 S1250 T1250 ; sets acceleration (S) and retract acceleration (R), mm/sec^2
M205 X8.00 Y8.00 Z0.40 E4.50 ; sets the jerk limits, mm/sec
M205 S0 T0 ; sets the minimum extruding and travel feed rate, mm/sec

; printing object Keychain Mockup.stl id:0 copy 0
; stop printing object Keychain Mockup.stl id:0 copy 0

;TYPE:Custom
M862.3 P "MK3S" ; printer model check
M862.1 P0.4 ; nozzle diameter check
M115 U3.14.1 ; tell printer latest fw version
G90 ; use absolute coordinates
M83 ; extruder relative mode
M104 S240 ; set extruder temp
M140 S90 ; set bed temp
M190 S90 ; wait for bed temp
M109 S240 ; wait for extruder temp
G28 W ; home all without mesh bed level
G80 X104.409 Y84.4063 W41.1829 H41.1874 ; mesh bed levelling

G1 Z0.2 F720
G1 Y-3 F1000 ; go outside print area
G92 E0
G1 X60 E9 F1000 ; intro line
G1 X100 E12.5 F1000 ; intro line

G92 E0
M221 S95

; Don't change E values below. Excessive value can damage the printer.
M907 E430 ; set extruder motor current
G21 ; set units to millimeters
G90 ; use absolute coordinates
M83 ; use relative distances for extrusion

M900 K0.08 ; Filament gcode LA 1.5
M900 K45 ; Filament gcode LA 1.0




M107
;LAYER_CHANGE
;Z:0.2
;HEIGHT:0.2
G1 E-1 F2100
M73 P0 R10
G1 Z.4 F720
G1 X109.594 Y91.623 F10800
G1 Z.2 F720
M73 P1 R10
M73 Q1 S11
G1 E1 F2100
M204 S800
;TYPE:Skirt/Brim
;WIDTH:0.42
G1 F1200
G1 X111.301 Y89.879 E.07652
G1 X112.332 Y89.005 E.04238
G1 X114.221 Y87.675 E.07244
G1 X115.945 Y86.722 E.06176
G1 X117.61 Y85.98 E.05715
G1 X119.807 Y85.266 E.07243
G1 X122.2 Y84.787 E.07652
G1 X123.545 Y84.646 E.0424
G1 X125.854 Y84.611 E.07241
G1 X127.202 Y84.712 E.04238
M73 Q1 S10
G1 X129.481 Y85.091 E.07244
G1 X131.378 Y85.622 E.06177
G1 X133.085 Y86.261 E.05715
G1 X135.151 Y87.295 E.07244
G1 X137.192 Y88.633 E.07652
G1 X138.249 Y89.476 E.04239
G1 X139.919 Y91.072 E.07243
G1 X141.475 Y92.952 E.07652
G1 X142.236 Y94.069 E.04238
G1 X143.362 Y96.087 E.07246
G1 X143.911 Y97.322 E.04238
G1 X144.658 Y99.508 E.07243
G1 X144.978 Y100.821 E.04237
G1 X145.334 Y103.236 E.07654
G1 X145.404 Y105.545 E.07243
G1 X145.249 Y107.509 E.06177
G1 X144.951 Y109.307 E.05714
G1 X144.337 Y111.534 E.07243
G1 X143.862 Y112.799 E.04237
G1 X142.859 Y114.881 E.07246
G1 X141.552 Y116.942 E.07652
G1 X140.725 Y118.011 E.04238
G1 X139.154 Y119.705 E.07244
G1 X137.665 Y120.995 E.06177
G1 X136.192 Y122.067 E.05712
G1 X134.191 Y123.222 E.07244
G1 X132.388 Y124.016 E.06177
G1 X130.664 Y124.606 E.05713
G1 X128.412 Y125.12 E.07243
G1 X127.072 Y125.302 E.0424
G1 X124.634 Y125.403 E.07651
G1 X122.33 Y125.231 E.07244
G1 X119.934 Y124.767 E.07652
G1 X118.636 Y124.388 E.0424
G1 X116.486 Y123.544 E.07242
G1 X114.741 Y122.629 E.06178
G1 X113.204 Y121.649 E.05715
G1 X111.398 Y120.209 E.07242
G1 X110 Y118.821 E.06177
G1 X108.821 Y117.431 E.05715
G1 X107.52 Y115.523 E.07241
G1 X106.389 Y113.36 E.07653
G1 X105.876 Y112.109 E.04239
G1 X105.195 Y109.902 E.07242
G1 X104.914 Y108.579 E.04241
G1 X104.63 Y106.155 E.07652
G1 X104.63 Y103.845 E.07243
G1 X104.914 Y101.421 E.07652
G1 X105.195 Y100.098 E.04241
G1 X105.876 Y97.891 E.07242
M73 Q2 S10
G1 X106.389 Y96.64 E.04239
G1 X107.453 Y94.59 E.07242
G1 X108.18 Y93.45 E.04239
M73 P2 R10
G1 X109.557 Y91.67 E.07056
M204 S1000
;WIPE_START
G1 F8640
G1 X109.594 Y91.623 E-.01381
G1 X111.301 Y89.879 E-.56349
G1 X112.332 Y89.005 E-.31209
G1 X112.724 Y88.729 E-.11061
;WIPE_END
G1 Z.4 F720
; printing object Keychain Mockup.stl id:0 copy 0
G1 X123.4 Y120.69 F10800
G1 Z.2 F720
G1 E1 F2100
M204 S800
;TYPE:Perimeter
;WIDTH:0.419999
G1 F1200
G1 X122.886 Y120.636 E.0162
G1 X122.38 Y120.568 E.01601
G1 X121.363 Y120.361 E.03254
G1 X120.345 Y120.084 E.03308
G1 X119.348 Y119.739 E.03308
G1 X118.376 Y119.328 E.03309
G1 X117.513 Y118.893 E.0303
G1 X116.7 Y118.42 E.02949
G1 X115.916 Y117.9 E.0295
G1 X115.164 Y117.335 E.02949
G1 X114.447 Y116.727 E.02948
G1 X114.043 Y116.361 E.01709
G1 X113.309 Y115.604 E.03306
G1 X112.626 Y114.799 E.0331
G1 X112 Y113.95 E.03307
G1 X111.421 Y113.046 E.03366
G1 X110.923 Y112.137 E.0325
G1 X110.585 Y111.411 E.02511
G1 X110.231 Y110.541 E.02945
G1 X109.778 Y109.172 E.04521
G1 X109.537 Y108.163 E.03253
G1 X109.361 Y107.123 E.03307
G1 X109.254 Y106.073 E.03309
G1 X109.217 Y105.019 E.03307
G1 X109.251 Y104.044 E.03059
G1 X109.336 Y103.106 E.02953
G1 X109.479 Y102.176 E.0295
G1 X109.676 Y101.256 E.0295
G1 X110.085 Y99.839 E.04624
G1 X110.463 Y98.854 E.03308
G1 X110.921 Y97.868 E.03409
G1 X111.412 Y96.971 E.03206
G1 X111.97 Y96.094 E.03259
G1 X112.526 Y95.336 E.02947
G1 X113.126 Y94.611 E.02951
G1 X113.767 Y93.923 E.02948
G1 X114.827 Y92.931 E.04552
G1 X115.652 Y92.283 E.03289
G1 X116.494 Y91.703 E.03206
G1 X117.401 Y91.165 E.03306
G1 X118.342 Y90.688 E.03308
G1 X119.25 Y90.301 E.03095
G1 X120.137 Y89.987 E.0295
G1 X121.041 Y89.726 E.0295
G1 X121.958 Y89.518 E.02948
G1 X123.405 Y89.294 E.04591
G1 X124.458 Y89.223 E.03309
G1 X125.513 Y89.221 E.03308
G1 X126.566 Y89.29 E.03309
G1 X127.606 Y89.429 E.0329
G1 X128.527 Y89.616 E.02947
G1 X129.438 Y89.855 E.02953
G1 X130.332 Y90.147 E.02949
G1 X131.207 Y90.492 E.02949
G1 X132.06 Y90.887 E.02947
G1 X132.575 Y91.147 E.01809
G1 X133.483 Y91.683 E.03306
G1 X134.353 Y92.279 E.03307
G1 X135.182 Y92.932 E.03309
G1 X135.923 Y93.6 E.03128
G1 X136.581 Y94.273 E.02951
G1 X137.198 Y94.983 E.02949
G1 X137.772 Y95.728 E.02949
G1 X138.578 Y96.939 E.04561
G1 X139.086 Y97.863 E.03306
G1 X139.531 Y98.82 E.03309
G1 X139.911 Y99.804 E.03307
G1 X140.225 Y100.811 E.03307
G1 X140.446 Y101.731 E.02967
G1 X140.611 Y102.657 E.02949
G1 X140.721 Y103.591 E.02949
G1 X140.776 Y104.53 E.02949
G1 X140.757 Y106.036 E.04722
G1 X140.653 Y107.085 E.03305
G1 X140.479 Y108.126 E.03309
G1 X140.235 Y109.153 E.0331
G1 X139.938 Y110.116 E.0316
G1 X139.604 Y110.995 E.02948
G1 X139.219 Y111.854 E.02951
G1 X138.784 Y112.688 E.02949
G1 X138.301 Y113.495 E.02949
G1 X138.03 Y113.919 E.01578
G1 X137.405 Y114.769 E.03308
G1 X136.725 Y115.576 E.03309
G1 X135.993 Y116.335 E.03306
G1 X135.211 Y117.044 E.0331
G1 X134.461 Y117.637 E.02998
G1 X133.69 Y118.176 E.0295
G1 X132.889 Y118.669 E.02949
G1 X132.06 Y119.113 E.02949
G1 X130.696 Y119.725 E.04687
G1 X129.7 Y120.072 E.03307
G1 X128.682 Y120.352 E.0331
G1 X127.649 Y120.564 E.03306
G1 X126.64 Y120.701 E.03193
G1 X125.701 Y120.767 E.02951
G1 X124.76 Y120.779 E.02951
G1 X123.821 Y120.735 E.02947
G1 X123.46 Y120.697 E.01138
M204 S1000
G1 X123.45 Y120.317 F10800
M204 S800
;TYPE:External perimeter
G1 F1200
G1 X122.936 Y120.262 E.01621
G1 X122.435 Y120.194 E.01585
G1 X121.438 Y119.992 E.0319
G1 X120.445 Y119.72 E.03228
G1 X119.472 Y119.383 E.03229
G1 X118.523 Y118.981 E.03231
G1 X117.683 Y118.557 E.0295
G1 X116.892 Y118.096 E.02871
G1 X116.129 Y117.589 E.02872
G1 X115.398 Y117.039 E.02868
G1 X114.7 Y116.447 E.0287
G1 X114.296 Y116.082 E.01707
M73 Q3 S10
G1 X113.58 Y115.342 E.03229
G1 X112.914 Y114.555 E.03233
G1 X112.303 Y113.726 E.03229
G1 X111.745 Y112.853 E.03249
G1 X111.253 Y111.956 E.03208
G1 X110.927 Y111.253 E.0243
M73 P3 R10
G1 X110.583 Y110.406 E.02866
G1 X110.286 Y109.538 E.02876
G1 X110.043 Y108.656 E.02868
G1 X109.904 Y108.076 E.0187
G1 X109.733 Y107.06 E.0323
G1 X109.629 Y106.036 E.03227
G1 X109.594 Y105.006 E.03231
G1 X109.627 Y104.057 E.02977
G1 X109.712 Y103.143 E.02878
G1 X109.851 Y102.239 E.02868
G1 X110.043 Y101.344 E.0287
G1 X110.445 Y99.951 E.04546
G1 X110.815 Y98.99 E.03229
G1 X111.263 Y98.027 E.0333
G1 X111.742 Y97.152 E.03128
G1 X112.287 Y96.297 E.03179
G1 X112.83 Y95.559 E.02873
G1 X113.414 Y94.854 E.0287
G1 X114.038 Y94.185 E.02868
G1 X114.7 Y93.553 E.0287
G1 X115.397 Y92.963 E.02863
G1 X115.885 Y92.579 E.01947
G1 X116.707 Y92.014 E.03127
G1 X117.593 Y91.489 E.03229
G1 X118.512 Y91.024 E.03229
G1 X119.397 Y90.648 E.03015
G1 X120.261 Y90.343 E.02873
G1 X121.14 Y90.089 E.02869
G1 X122.033 Y89.887 E.02871
G1 X123.455 Y89.668 E.04511
G1 X124.483 Y89.599 E.0323
G1 X125.513 Y89.598 E.03229
G1 X126.54 Y89.667 E.03227
G1 X127.556 Y89.803 E.03214
G1 X128.451 Y89.986 E.02864
G1 X129.338 Y90.218 E.02875
G1 X130.208 Y90.503 E.0287
G1 X131.06 Y90.839 E.02872
G1 X131.89 Y91.223 E.02867
G1 X132.404 Y91.483 E.01806
G1 X133.291 Y92.008 E.03232
G1 X134.14 Y92.59 E.03227
G1 X134.949 Y93.228 E.0323
G1 X135.67 Y93.88 E.03048
G1 X136.31 Y94.535 E.02871
G1 X136.91 Y95.227 E.02872
G1 X137.468 Y95.952 E.02869
G1 X138.26 Y97.141 E.04479
G1 X138.755 Y98.044 E.03229
G1 X139.189 Y98.978 E.03229
G1 X139.559 Y99.939 E.03229
G1 X139.865 Y100.923 E.03231
G1 X140.079 Y101.818 E.02885
G1 X140.239 Y102.72 E.02872
G1 X140.346 Y103.629 E.0287
G1 X140.399 Y104.542 E.02867
G1 X140.38 Y106.023 E.04644
G1 X140.278 Y107.048 E.0323
G1 X140.107 Y108.063 E.03227
G1 X139.868 Y109.065 E.0323
G1 X139.578 Y110.004 E.03081
G1 X139.252 Y110.86 E.02872
G1 X138.877 Y111.695 E.0287
G1 X138.453 Y112.506 E.02869
G1 X137.983 Y113.292 E.02871
G1 X137.712 Y113.716 E.01578
G1 X137.102 Y114.545 E.03227
G1 X136.437 Y115.332 E.03231
G1 X135.722 Y116.073 E.03229
G1 X134.958 Y116.764 E.0323
G1 X134.228 Y117.341 E.02918
G1 X133.477 Y117.865 E.02871
G1 X132.697 Y118.344 E.0287
G1 X131.89 Y118.777 E.02872
G1 X130.549 Y119.378 E.04608
G1 X129.576 Y119.716 E.0323
G1 X128.583 Y119.989 E.03229
G1 X127.574 Y120.194 E.03228
G1 X126.589 Y120.327 E.03116
G1 X125.676 Y120.391 E.0287
G1 X124.76 Y120.402 E.02872
G1 X123.846 Y120.359 E.02869
G1 X123.51 Y120.323 E.0106
M204 S1000
;WIPE_START
G1 F8640
G1 X123.45 Y120.317 E-.01392
G1 X122.936 Y120.262 E-.11936
G1 X122.435 Y120.194 E-.11674
G1 X121.438 Y119.992 E-.23489
G1 X120.445 Y119.72 E-.23773
G1 X119.472 Y119.383 E-.23776
G1 X119.314 Y119.316 E-.0396
;WIPE_END
G1 Z.4 F720
G1 X129.062 Y121.308 F10800
G1 Z.2 F720
G1 E1 F2100
M204 S800
;TYPE:Perimeter
G1 F1200
G1 X128.745 Y121.39 E.01027
G1 X127.758 Y121.585 E.03154
G1 X126.762 Y121.72 E.03151
G1 X125.759 Y121.795 E.03154
G1 X124.753 Y121.81 E.03155
G1 X123.748 Y121.765 E.03154
G1 X122.747 Y121.66 E.03156
G1 X121.755 Y121.495 E.03153
G1 X120.775 Y121.271 E.03152
G1 X119.809 Y120.989 E.03155
G1 X118.862 Y120.65 E.03154
G1 X117.937 Y120.254 E.03155
G1 X117.038 Y119.804 E.03152
G1 X116.167 Y119.302 E.03152
G1 X115.327 Y118.747 E.03157
G1 X114.522 Y118.144 E.03154
G1 X113.755 Y117.494 E.03152
G1 X113.028 Y116.799 E.03153
G1 X112.344 Y116.061 E.03155
G1 X111.705 Y115.284 E.03154
G1 X111.114 Y114.47 E.03154
G1 X110.572 Y113.623 E.03153
G1 X110.082 Y112.744 E.03155
G1 X109.646 Y111.838 E.03153
G1 X109.264 Y110.907 E.03155
G1 X108.939 Y109.955 E.03154
G1 X108.672 Y108.986 E.03151
G1 X108.463 Y108.002 E.03154
G1 X108.313 Y107.007 E.03155
G1 X108.222 Y106.005 E.03155
G1 X108.192 Y105 E.03153
G1 X108.222 Y103.995 E.03153
G1 X108.313 Y102.993 E.03155
G1 X108.463 Y101.998 E.03155
G1 X108.672 Y101.014 E.03154
G1 X108.939 Y100.045 E.03151
G1 X109.264 Y99.093 E.03154
G1 X109.646 Y98.162 E.03155
M73 Q4 S10
G1 X110.082 Y97.256 E.03153
G1 X110.572 Y96.377 E.03155
G1 X111.114 Y95.53 E.03153
G1 X111.705 Y94.716 E.03154
G1 X112.344 Y93.939 E.03154
M73 P4 R10
G1 X113.028 Y93.201 E.03155
G1 X113.755 Y92.506 E.03153
G1 X114.522 Y91.856 E.03152
G1 X115.327 Y91.253 E.03154
G1 X116.166 Y90.698 E.03154
G1 X117.038 Y90.196 E.03155
G1 X117.937 Y89.746 E.03152
G1 X118.862 Y89.35 E.03155
G1 X119.809 Y89.011 E.03154
G1 X120.775 Y88.729 E.03155
G1 X121.755 Y88.505 E.03152
G1 X122.747 Y88.34 E.03153
G1 X123.748 Y88.235 E.03156
G1 X124.753 Y88.19 E.03154
G1 X125.759 Y88.205 E.03155
G1 X126.762 Y88.28 E.03154
G1 X127.758 Y88.415 E.03151
G1 X128.745 Y88.61 E.03154
G1 X129.719 Y88.863 E.03155
G1 X130.675 Y89.174 E.03152
G1 X131.612 Y89.541 E.03155
G1 X132.524 Y89.964 E.03152
G1 X133.41 Y90.441 E.03155
G1 X134.266 Y90.969 E.03153
G1 X135.088 Y91.548 E.03153
G1 X135.875 Y92.175 E.03155
G1 X136.622 Y92.849 E.03155
G1 X137.328 Y93.565 E.03153
G1 X137.99 Y94.323 E.03155
G1 X138.596 Y95.106 E.03104
G1 X139.18 Y95.963 E.03252
G1 X139.695 Y96.827 E.03154
G1 X140.157 Y97.72 E.03152
G1 X140.566 Y98.639 E.03154
G1 X140.918 Y99.581 E.03153
G1 X141.23 Y100.608 E.03365
G1 X141.484 Y101.698 E.03509
G1 X141.665 Y102.803 E.03511
G1 X141.774 Y103.917 E.0351
G1 X141.809 Y104.513 E.01872
G1 X141.809 Y105.503 E.03104
G1 X141.748 Y106.507 E.03154
G1 X141.628 Y107.506 E.03155
G1 X141.449 Y108.495 E.03151
G1 X141.21 Y109.473 E.03157
G1 X140.914 Y110.434 E.03153
G1 X140.56 Y111.375 E.03152
G1 X140.151 Y112.294 E.03154
G1 X139.688 Y113.187 E.03154
G1 X139.172 Y114.051 E.03155
G1 X138.605 Y114.882 E.03154
G1 X137.99 Y115.677 E.03151
G1 X137.328 Y116.435 E.03155
G1 X136.622 Y117.151 E.03153
G1 X135.875 Y117.825 E.03155
G1 X135.088 Y118.452 E.03155
G1 X134.266 Y119.031 E.03153
G1 X133.41 Y119.559 E.03153
G1 X132.524 Y120.036 E.03155
G1 X131.612 Y120.459 E.03152
G1 X130.675 Y120.826 E.03155
G1 X129.719 Y121.137 E.03152
G1 X129.12 Y121.293 E.01941
M204 S1000
G1 X129.157 Y121.673 F10800
M204 S800
;TYPE:External perimeter
G1 F1200
G1 X128.829 Y121.758 E.01062
G1 X127.82 Y121.957 E.03225
G1 X126.801 Y122.095 E.03224
G1 X125.775 Y122.172 E.03226
G1 X124.747 Y122.187 E.03224
G1 X123.72 Y122.141 E.03223
G1 X122.697 Y122.034 E.03225
G1 X121.682 Y121.865 E.03226
G1 X120.68 Y121.636 E.03223
G1 X119.693 Y121.348 E.03224
G1 X118.724 Y121.001 E.03227
G1 X117.779 Y120.597 E.03222
G1 X116.859 Y120.137 E.03225
G1 X115.968 Y119.622 E.03227
G1 X115.11 Y119.056 E.03223
G1 X114.287 Y118.439 E.03225
G1 X113.503 Y117.774 E.03223
G1 X112.759 Y117.063 E.03227
G1 X112.06 Y116.309 E.03224
G1 X111.406 Y115.515 E.03225
G1 X110.802 Y114.683 E.03224
G1 X110.248 Y113.816 E.03226
G1 X109.747 Y112.918 E.03224
G1 X109.301 Y111.991 E.03225
G1 X108.911 Y111.04 E.03223
G1 X108.579 Y110.067 E.03223
G1 X108.305 Y109.075 E.03227
G1 X108.091 Y108.069 E.03225
G1 X107.938 Y107.052 E.03225
G1 X107.846 Y106.028 E.03224
G1 X107.815 Y105 E.03225
G1 X107.846 Y103.972 E.03225
G1 X107.938 Y102.948 E.03224
G1 X108.091 Y101.931 E.03225
G1 X108.305 Y100.925 E.03225
G1 X108.579 Y99.933 E.03227
G1 X108.911 Y98.96 E.03223
G1 X109.301 Y98.009 E.03223
G1 X109.747 Y97.082 E.03225
G1 X110.248 Y96.184 E.03224
G1 X110.802 Y95.317 E.03226
G1 X111.406 Y94.485 E.03224
G1 X112.06 Y93.691 E.03225
G1 X112.759 Y92.937 E.03224
G1 X113.502 Y92.226 E.03224
G1 X114.287 Y91.561 E.03226
G1 X115.11 Y90.944 E.03225
G1 X115.968 Y90.378 E.03223
G1 X116.859 Y89.863 E.03227
G1 X117.779 Y89.403 E.03225
G1 X118.724 Y88.999 E.03222
G1 X119.692 Y88.652 E.03224
G1 X120.68 Y88.364 E.03227
G1 X121.682 Y88.135 E.03223
G1 X122.697 Y87.966 E.03226
G1 X123.72 Y87.859 E.03225
G1 X124.747 Y87.813 E.03223
G1 X125.775 Y87.828 E.03224
G1 X126.801 Y87.905 E.03226
G1 X127.82 Y88.043 E.03224
G1 X128.829 Y88.242 E.03225
G1 X129.825 Y88.501 E.03227
G1 X130.803 Y88.818 E.03224
G1 X131.76 Y89.194 E.03224
M73 Q5 S10
G1 X132.693 Y89.626 E.03224
G1 X133.599 Y90.114 E.03227
G1 X134.474 Y90.654 E.03224
G1 X135.315 Y91.246 E.03225
M73 P5 R10
G1 X136.119 Y91.888 E.03226
G1 X136.883 Y92.576 E.03224
G1 X137.605 Y93.308 E.03224
G1 X138.281 Y94.083 E.03224
G1 X138.911 Y94.897 E.03227
G1 X139.49 Y95.746 E.03222
G1 X139.767 Y96.21 E.01694
G1 X140.03 Y96.653 E.01615
G1 X140.502 Y97.566 E.03223
G1 X140.919 Y98.506 E.03224
G1 X141.279 Y99.47 E.03226
G1 X141.596 Y100.518 E.03433
G1 X141.855 Y101.631 E.03583
G1 X142.04 Y102.758 E.03581
G1 X142.15 Y103.894 E.03579
G1 X142.186 Y104.513 E.01944
G1 X142.186 Y105.514 E.03139
G1 X142.124 Y106.541 E.03226
G1 X142.001 Y107.562 E.03224
G1 X141.818 Y108.574 E.03225
G1 X141.574 Y109.573 E.03224
G1 X141.271 Y110.556 E.03225
G1 X140.909 Y111.519 E.03226
G1 X140.491 Y112.458 E.03223
G1 X140.017 Y113.371 E.03225
G1 X139.49 Y114.254 E.03224
G1 X138.911 Y115.103 E.03222
G1 X138.281 Y115.917 E.03227
G1 X137.605 Y116.692 E.03224
G1 X136.883 Y117.424 E.03224
G1 X136.119 Y118.112 E.03224
