; generated by PrusaSlicer 2.9.4 on 2026-03-20 at 00:15:07 UTC


;
;
; 

; external perimeters extrusion width = 0.45mm
; perimeters extrusion width = 0.45mm
; infill extrusion width = 0.45mm
; solid infill extrusion width = 0.45mm
; top infill extrusion width = 0.40mm
; first layer extrusion width = 0.50mm

M73 P0 R12
M73 Q0 S12
M201 X1000 Y1000 Z200 E5000 ; sets maximum accelerations, mm/sec^2
M203 X200 Y200 Z12 E120 ; sets maximum feedrates, mm / sec
M204 S1250 T1250 ; sets acceleration (S) and retract acceleration (R), mm/sec^2
M205 X8.00 Y8.00 Z0.40 E4.50 ; sets the jerk limits, mm/sec
M205 S0 T0 ; sets the minimum extruding and travel feed rate, mm/sec

; printing object Keychain Mockup.stl id:0 copy 0
; stop printing object Keychain Mockup.stl id:0 copy 0

;TYPE:Custom
M862.3 P "MK3S" ; printer model check
M862.1 P0.4 ; nozzle diameter check
M115 U3.14.1 ; tell printer latest fw version
G90 ; use absolute coordinates
M83 ; extruder relative mode
M104 S240 ; set extruder temp
M140 S90 ; set bed temp
M190 S90 ; wait for bed temp
M109 S240 ; wait for extruder temp
G28 W ; home all without mesh bed level
G80 X104.329 Y84.3263 W41.3429 H41.3474 ; mesh bed levelling

G1 Z0.2 F720
G1 Y-3 F1000 ; go outside print area
G92 E0
G1 X60 E9 F1000 ; intro line
G1 X100 E12.5 F1000 ; intro line

G92 E0
M221 S95

; Don't change E values below. Excessive value can damage the printer.
M907 E430 ; set extruder motor current
G21 ; set units to millimeters
G90 ; use absolute coordinates
M83 ; use relative distances for extrusion

M900 K0.08 ; Filament gcode LA 1.5
M900 K45 ; Filament gcode LA 1.0




M107
;LAYER_CHANGE
;Z:0.2
;HEIGHT:0.2
G1 E-1 F2100
G1 Z.4 F720
G1 X109.563 Y91.598 F10800
G1 Z.2 F720
G1 E1 F2100
M204 S800
;TYPE:Skirt/Brim
;WIDTH:0.5
G1 F900
G1 X111.273 Y89.85 E.09294
G1 X112.308 Y88.973 E.05156
G1 X114.199 Y87.642 E.08789
M73 Q1 S12
G1 X115.928 Y86.686 E.07509
G1 X117.596 Y85.943 E.0694
M73 P1 R12
G1 X119.796 Y85.228 E.08792
G1 X122.194 Y84.748 E.09295
G1 X123.543 Y84.606 E.05155
G1 X125.855 Y84.571 E.08788
G1 X127.208 Y84.672 E.05157
G1 X129.489 Y85.051 E.08788
G1 X131.391 Y85.584 E.07507
G1 X133.101 Y86.225 E.06941
G1 X135.17 Y87.26 E.08793
G1 X137.215 Y88.6 E.09292
G1 X138.276 Y89.446 E.05157
G1 X139.947 Y91.044 E.08787
G1 X141.507 Y92.928 E.09296
G1 X142.271 Y94.049 E.05156
G1 X143.397 Y96.069 E.08789
G1 X143.949 Y97.308 E.05155
G1 X144.696 Y99.496 E.08787
G1 X145.018 Y100.814 E.05157
G1 X145.374 Y103.234 E.09297
G1 X145.444 Y105.545 E.08787
G1 X145.289 Y107.514 E.07507
G1 X144.99 Y109.316 E.06942
G1 X144.375 Y111.546 E.08792
G1 X143.898 Y112.816 E.05156
G1 X142.895 Y114.899 E.08787
G1 X141.585 Y116.964 E.09294
G1 X140.755 Y118.037 E.05156
G1 X139.182 Y119.733 E.08792
G1 X137.69 Y121.026 E.07504
G1 X136.213 Y122.101 E.06943
G1 X134.21 Y123.257 E.0879
G1 X132.403 Y124.053 E.07505
G1 X130.674 Y124.645 E.06946
G1 X128.42 Y125.159 E.08787
G1 X127.075 Y125.341 E.05158
G1 X124.632 Y125.443 E.09293
G1 X122.326 Y125.27 E.08789
G1 X119.925 Y124.806 E.09294
G1 X118.622 Y124.425 E.0516
G1 X116.47 Y123.58 E.08787
G1 X114.721 Y122.664 E.07504
G1 X113.18 Y121.681 E.06947
G1 X111.372 Y120.239 E.08789
G1 X109.971 Y118.848 E.07503
G1 X108.789 Y117.455 E.06943
G1 X107.486 Y115.544 E.08791
G1 X106.353 Y113.377 E.09294
G1 X105.838 Y112.122 E.05156
G1 X105.156 Y109.912 E.0879
G1 X104.874 Y108.585 E.05156
G1 X104.598 Y106.289 E.08789
G1 X104.59 Y103.844 E.09293
G1 X104.874 Y101.415 E.09295
G1 X105.156 Y100.088 E.05156
M73 Q2 S12
G1 X105.838 Y97.878 E.0879
G1 X106.353 Y96.623 E.05156
M73 P2 R12
G1 X107.418 Y94.57 E.0879
G1 X108.148 Y93.427 E.05155
G1 X109.526 Y91.645 E.08561
M204 S1000
;WIPE_START
G1 F8640
G1 X109.563 Y91.598 E-.01381
G1 X111.273 Y89.85 E-.56463
G1 X112.308 Y88.973 E-.31324
G1 X112.692 Y88.703 E-.10832
;WIPE_END
G1 Z.4 F720
; printing object Keychain Mockup.stl id:0 copy 0
G1 X125.004 Y120.746 F10800
G1 Z.2 F720
G1 E1 F2100
M204 S800
;TYPE:Perimeter
;WIDTH:0.499999
G1 F900
G1 X124.76 Y120.749 E.00927
G1 X123.823 Y120.705 E.03565
G1 X122.89 Y120.606 E.03566
G1 X122.385 Y120.538 E.01937
G1 X121.374 Y120.333 E.03921
G1 X120.358 Y120.056 E.04002
G1 X119.363 Y119.712 E.04001
G1 X118.392 Y119.302 E.04006
G1 X117.526 Y118.866 E.03685
G1 X116.715 Y118.394 E.03566
G1 X115.933 Y117.875 E.03567
G1 X115.183 Y117.311 E.03567
G1 X114.467 Y116.704 E.03568
G1 X114.067 Y116.342 E.0205
G1 X113.315 Y115.565 E.0411
G1 X112.653 Y114.783 E.03894
G1 X112.027 Y113.936 E.04003
G1 X111.47 Y113.067 E.03923
G1 X111.016 Y112.246 E.03566
G1 X110.612 Y111.399 E.03567
G1 X110.259 Y110.53 E.03565
G1 X109.801 Y109.141 E.05559
G1 X109.568 Y108.161 E.03828
G1 X109.391 Y107.123 E.04002
G1 X109.284 Y106.075 E.04004
G1 X109.248 Y105.023 E.04001
G1 X109.28 Y104.045 E.03719
G1 X109.366 Y103.109 E.03572
G1 X109.509 Y102.181 E.03569
G1 X109.705 Y101.263 E.03568
G1 X109.955 Y100.359 E.03565
G1 X110.112 Y99.853 E.02014
G1 X110.489 Y98.87 E.04001
G1 X110.944 Y97.889 E.0411
G1 X111.435 Y96.99 E.03893
G1 X111.995 Y96.111 E.03961
G1 X112.55 Y95.353 E.03571
G1 X113.149 Y94.63 E.03568
G1 X113.788 Y93.943 E.03566
G1 X114.849 Y92.953 E.05515
G1 X115.639 Y92.328 E.03829
G1 X116.507 Y91.731 E.04004
G1 X117.412 Y91.193 E.04001
G1 X118.351 Y90.717 E.04001
G1 X119.262 Y90.329 E.03763
G1 X120.147 Y90.016 E.03568
G1 X121.049 Y89.755 E.03569
G1 X121.964 Y89.547 E.03566
G1 X123.404 Y89.325 E.05538
G1 X124.455 Y89.253 E.04004
G1 X125.508 Y89.251 E.04002
G1 X126.559 Y89.32 E.04003
G1 X127.602 Y89.459 E.03999
G1 X128.521 Y89.646 E.03564
G1 X129.43 Y89.884 E.03571
G1 X130.322 Y90.175 E.03566
G1 X131.658 Y90.717 E.0548
G1 X132.557 Y91.171 E.03828
G1 X133.463 Y91.706 E.03999
G1 X134.332 Y92.301 E.04003
G1 X135.16 Y92.953 E.04005
G1 X135.903 Y93.623 E.03802
G1 X136.559 Y94.294 E.03566
G1 X137.175 Y95.003 E.0357
G1 X137.748 Y95.746 E.03566
G1 X138.55 Y96.95 E.05498
G1 X139.057 Y97.873 E.04002
G1 X139.502 Y98.828 E.04004
G1 X139.882 Y99.81 E.04002
G1 X140.195 Y100.815 E.04001
G1 X140.416 Y101.738 E.03607
G1 X140.581 Y102.662 E.03567
G1 X140.691 Y103.594 E.03567
G1 X140.746 Y104.531 E.03567
G1 X140.727 Y106.03 E.05698
G1 X140.623 Y107.077 E.03999
G1 X140.45 Y108.116 E.04003
G1 X140.207 Y109.141 E.04004
G1 X139.909 Y110.107 E.03842
G1 X139.576 Y110.984 E.03565
G1 X139.191 Y111.841 E.03571
G1 X138.758 Y112.673 E.03565
G1 X137.996 Y113.916 E.05541
G1 X137.384 Y114.747 E.03922
G1 X136.706 Y115.552 E.04
G1 X135.975 Y116.31 E.04002
G1 X135.195 Y117.018 E.04004
G1 X134.443 Y117.614 E.03647
G1 X133.673 Y118.151 E.03568
G1 X132.874 Y118.643 E.03566
G1 X132.047 Y119.086 E.03566
G1 X130.689 Y119.696 E.05658
G1 X129.694 Y120.042 E.04004
M73 Q3 S12
G1 X128.679 Y120.322 E.04002
G1 X127.648 Y120.533 E.04
G1 X126.636 Y120.671 E.03882
G1 X125.699 Y120.737 E.0357
M73 P3 R12
G1 X125.064 Y120.745 E.02414
M204 S1000
G1 X125.004 Y120.289 F10800
M204 S800
;TYPE:External perimeter
G1 F900
G1 X124.76 Y120.292 E.00927
G1 X123.853 Y120.249 E.03451
G1 X122.951 Y120.153 E.03448
G1 X122.452 Y120.086 E.01914
G1 X121.465 Y119.885 E.03828
G1 X120.479 Y119.615 E.03885
G1 X119.512 Y119.28 E.03889
G1 X118.571 Y118.882 E.03883
G1 X117.733 Y118.459 E.03568
G1 X116.948 Y118.001 E.03454
G1 X116.192 Y117.498 E.03451
G1 X115.466 Y116.953 E.0345
G1 X114.774 Y116.365 E.03451
G1 X114.373 Y116.003 E.02053
G1 X113.645 Y115.248 E.03986
G1 X113.002 Y114.488 E.03784
G1 X112.395 Y113.665 E.03887
G1 X111.856 Y112.822 E.03803
G1 X111.417 Y112.026 E.03455
G1 X111.026 Y111.206 E.03453
G1 X110.686 Y110.366 E.03444
G1 X110.391 Y109.506 E.03455
G1 X110.15 Y108.631 E.03449
G1 X110.012 Y108.055 E.02251
G1 X109.842 Y107.047 E.03885
G1 X109.739 Y106.03 E.03885
G1 X109.704 Y105.008 E.03887
G1 X109.737 Y104.061 E.03601
G1 X109.821 Y103.155 E.03458
G1 X109.959 Y102.257 E.03453
G1 X110.15 Y101.369 E.03452
G1 X110.548 Y99.988 E.05462
G1 X110.915 Y99.034 E.03885
G1 X111.358 Y98.083 E.03987
G1 X111.836 Y97.21 E.03783
G1 X112.38 Y96.356 E.03848
G1 X112.918 Y95.625 E.0345
G1 X113.498 Y94.925 E.03455
G1 X114.117 Y94.261 E.0345
G1 X114.774 Y93.635 E.03449
G1 X115.922 Y92.687 E.05658
G1 X116.765 Y92.108 E.03887
G1 X117.645 Y91.586 E.03889
G1 X118.557 Y91.125 E.03884
G1 X119.44 Y90.75 E.03646
G1 X120.297 Y90.447 E.03455
G1 X121.169 Y90.195 E.0345
G1 X122.055 Y89.995 E.03452
G1 X123.465 Y89.778 E.05422
G1 X124.485 Y89.709 E.03885
G1 X125.508 Y89.708 E.03888
G1 X126.528 Y89.776 E.03885
G1 X127.541 Y89.912 E.03885
G1 X128.429 Y90.093 E.03444
G1 X129.309 Y90.324 E.03458
G1 X130.172 Y90.607 E.03452
G1 X131.017 Y90.94 E.03452
G1 X131.841 Y91.321 E.0345
G1 X132.35 Y91.579 E.02169
G1 X133.23 Y92.1 E.03887
G1 X134.074 Y92.678 E.03888
G1 X134.876 Y93.311 E.03883
G1 X135.596 Y93.962 E.03689
G1 X136.231 Y94.612 E.03454
G1 X136.826 Y95.298 E.03451
G1 X137.38 Y96.017 E.0345
G1 X138.164 Y97.196 E.05381
G1 X138.656 Y98.093 E.03888
G1 X139.087 Y99.02 E.03885
G1 X139.455 Y99.974 E.03886
G1 X139.758 Y100.951 E.03888
G1 X139.972 Y101.844 E.0349
G1 X140.13 Y102.738 E.0345
G1 X140.236 Y103.64 E.03452
G1 X140.289 Y104.546 E.03449
G1 X140.27 Y106.014 E.0558
G1 X140.169 Y107.032 E.03888
G1 X139.999 Y108.04 E.03885
G1 X139.763 Y109.035 E.03887
G1 X139.472 Y109.971 E.03725
G1 X139.149 Y110.82 E.03452
G1 X138.777 Y111.649 E.03453
G1 X138.357 Y112.453 E.03448
G1 X137.619 Y113.658 E.0537
G1 X137.016 Y114.476 E.03862
G1 X136.357 Y115.257 E.03884
G1 X135.646 Y115.993 E.03889
G1 X134.888 Y116.679 E.03885
G1 X134.16 Y117.255 E.03528
G1 X133.415 Y117.774 E.03451
G1 X132.641 Y118.249 E.03451
G1 X131.841 Y118.679 E.03452
G1 X130.51 Y119.275 E.05543
G1 X129.545 Y119.611 E.03884
G1 X128.559 Y119.881 E.03885
G1 X127.557 Y120.086 E.03887
G1 X126.575 Y120.218 E.03766
G1 X125.669 Y120.281 E.03452
G1 X125.064 Y120.288 E.023
M204 S1000
;WIPE_START
G1 F8640
G1 X125.004 Y120.289 E-.01386
G1 X124.76 Y120.292 E-.05634
G1 X123.853 Y120.249 E-.20966
G1 X122.951 Y120.153 E-.20945
G1 X122.452 Y120.086 E-.11625
G1 X121.465 Y119.885 E-.23258
G1 X120.789 Y119.7 E-.16186
;WIPE_END
G1 Z.4 F720
G1 X124.988 Y121.836 F10800
G1 Z.2 F720
G1 E1 F2100
M204 S800
;TYPE:Perimeter
G1 F900
G1 X124.752 Y121.84 E.00897
G1 X123.746 Y121.795 E.03827
G1 X122.743 Y121.689 E.03833
G1 X121.749 Y121.524 E.0383
G1 X120.767 Y121.3 E.03828
G1 X119.8 Y121.018 E.03828
G1 X118.851 Y120.678 E.03831
G1 X117.925 Y120.282 E.03828
M73 Q4 S12
G1 X117.023 Y119.831 E.03833
G1 X116.151 Y119.327 E.03828
G1 X115.31 Y118.772 E.0383
M73 P4 R12
G1 X114.504 Y118.168 E.03828
G1 X113.735 Y117.516 E.03832
G1 X113.007 Y116.82 E.03828
G1 X112.321 Y116.081 E.03832
G1 X111.681 Y115.303 E.03829
G1 X111.089 Y114.487 E.03832
G1 X110.546 Y113.638 E.0383
G1 X110.056 Y112.758 E.03828
G1 X109.618 Y111.85 E.03831
G1 X109.236 Y110.918 E.03828
G1 X108.911 Y109.964 E.0383
G1 X108.643 Y108.993 E.03828
G1 X108.433 Y108.007 E.03831
G1 X108.283 Y107.011 E.03828
G1 X108.193 Y106.007 E.03831
G1 X108.162 Y105 E.03829
G1 X108.193 Y103.993 E.03829
G1 X108.283 Y102.989 E.03831
G1 X108.433 Y101.993 E.03828
G1 X108.643 Y101.007 E.03831
G1 X108.911 Y100.036 E.03828
G1 X109.236 Y99.082 E.0383
G1 X109.618 Y98.15 E.03828
G1 X110.056 Y97.242 E.03831
G1 X110.546 Y96.362 E.03828
G1 X111.089 Y95.513 E.0383
G1 X111.681 Y94.697 E.03832
G1 X112.321 Y93.919 E.03829
G1 X113.007 Y93.18 E.03832
G1 X113.735 Y92.484 E.03828
G1 X114.504 Y91.833 E.03829
G1 X115.31 Y91.228 E.0383
G1 X116.151 Y90.673 E.0383
G1 X117.023 Y90.169 E.03828
G1 X117.925 Y89.718 E.03833
G1 X118.851 Y89.322 E.03828
G1 X119.8 Y88.982 E.03831
G1 X120.767 Y88.7 E.03828
G1 X121.749 Y88.476 E.03828
G1 X122.743 Y88.311 E.0383
G1 X123.746 Y88.205 E.03833
G1 X124.752 Y88.16 E.03827
G1 X125.76 Y88.175 E.03831
G1 X126.765 Y88.25 E.0383
G1 X127.763 Y88.386 E.03828
G1 X128.752 Y88.58 E.0383
G1 X129.727 Y88.834 E.03829
G1 X130.685 Y89.145 E.03828
G1 X131.623 Y89.513 E.0383
G1 X132.538 Y89.937 E.03833
G1 X133.425 Y90.415 E.0383
G1 X134.282 Y90.944 E.03828
G1 X135.106 Y91.524 E.0383
G1 X135.894 Y92.153 E.03832
G1 X136.643 Y92.827 E.0383
G1 X137.35 Y93.545 E.0383
G1 X138.013 Y94.303 E.03827
G1 X138.62 Y95.088 E.03771
G1 X139.206 Y95.947 E.03952
G1 X139.722 Y96.813 E.03831
G1 X140.185 Y97.707 E.03826
G1 X140.594 Y98.628 E.0383
G1 X140.947 Y99.572 E.0383
G1 X141.26 Y100.605 E.04102
G1 X141.514 Y101.698 E.04265
G1 X141.696 Y102.804 E.0426
G1 X141.804 Y103.92 E.04261
G1 X141.839 Y104.513 E.02258
G1 X141.839 Y105.504 E.03766
G1 X141.778 Y106.51 E.0383
G1 X141.658 Y107.51 E.03828
G1 X141.478 Y108.502 E.03832
G1 X141.239 Y109.481 E.0383
G1 X140.942 Y110.443 E.03826
G1 X140.588 Y111.387 E.03832
G1 X140.178 Y112.307 E.03828
G1 X139.714 Y113.202 E.03832
G1 X139.197 Y114.067 E.0383
G1 X138.63 Y114.899 E.03827
G1 X138.013 Y115.697 E.03834
G1 X137.35 Y116.455 E.03827
G1 X136.643 Y117.173 E.0383
G1 X135.894 Y117.847 E.0383
G1 X135.106 Y118.476 E.03832
G1 X134.282 Y119.056 E.0383
G1 X133.425 Y119.585 E.03828
G1 X132.538 Y120.063 E.0383
G1 X131.624 Y120.487 E.03829
G1 X130.685 Y120.855 E.03833
G1 X129.727 Y121.166 E.03828
G1 X128.752 Y121.42 E.03829
G1 X127.763 Y121.614 E.0383
G1 X126.765 Y121.75 E.03828
G1 X125.76 Y121.825 E.0383
G1 X125.048 Y121.836 E.02706
M204 S1000
G1 X124.995 Y122.293 F10800
M204 S800
;TYPE:External perimeter
G1 F900
G1 X124.745 Y122.297 E.0095
G1 X123.711 Y122.251 E.03934
G1 X122.682 Y122.143 E.03932
G1 X121.661 Y121.973 E.03934
G1 X120.652 Y121.743 E.03933
G1 X119.658 Y121.452 E.03936
G1 X118.684 Y121.103 E.03932
G1 X117.732 Y120.697 E.03933
G1 X116.807 Y120.233 E.03933
G1 X115.91 Y119.716 E.03935
G1 X115.047 Y119.146 E.03931
G1 X114.218 Y118.525 E.03937
G1 X113.429 Y117.856 E.03932
G1 X112.681 Y117.14 E.03935
G1 X111.977 Y116.382 E.03932
G1 X111.319 Y115.582 E.03937
M73 Q5 S12
G1 X110.711 Y114.745 E.03932
G1 X110.154 Y113.873 E.03933
G1 X109.65 Y112.969 E.03934
M73 P5 R12
G1 X109.201 Y112.036 E.03935
G1 X108.808 Y111.078 E.03935
G1 X108.474 Y110.099 E.03931
G1 X108.198 Y109.101 E.03935
G1 X107.983 Y108.089 E.03932
G1 X107.829 Y107.065 E.03936
G1 X107.736 Y106.035 E.03931
G1 X107.705 Y105 E.03935
G1 X107.736 Y103.965 E.03935
G1 X107.829 Y102.935 E.03931
G1 X107.983 Y101.911 E.03936
G1 X108.198 Y100.899 E.03932
G1 X108.474 Y99.901 E.03935
G1 X108.808 Y98.922 E.03931
G1 X109.201 Y97.964 E.03935
G1 X109.65 Y97.031 E.03935
G1 X110.154 Y96.127 E.03934
G1 X110.711 Y95.255 E.03933
G1 X111.319 Y94.418 E.03932
G1 X111.977 Y93.618 E.03937
G1 X112.681 Y92.859 E.03935
G1 X113.429 Y92.144 E.03933
G1 X114.218 Y91.475 E.03932
G1 X115.047 Y90.854 E.03937
G1 X115.91 Y90.284 E.03931
M73 P5 R11
G1 X116.807 Y89.767 E.03935
G1 X117.732 Y89.303 E.03933
G1 X118.684 Y88.897 E.03933
G1 X119.658 Y88.548 E.03932
G1 X120.652 Y88.257 E.03936
G1 X121.661 Y88.027 E.03933
G1 X122.682 Y87.857 E.03934
G1 X123.711 Y87.749 E.03932
G1 X124.745 Y87.703 E.03934
G1 X125.78 Y87.718 E.03934
G1 X126.812 Y87.796 E.03933
G1 X127.838 Y87.935 E.03935
G1 X128.854 Y88.135 E.03936
G1 X129.855 Y88.395 E.03931
G1 X130.84 Y88.715 E.03936
G1 X131.803 Y89.093 E.03932
G1 X132.742 Y89.528 E.03933
G1 X133.654 Y90.019 E.03937
G1 X134.534 Y90.563 E.03932
G1 X135.381 Y91.158 E.03934
G1 X136.19 Y91.804 E.03935
G1 X136.959 Y92.496 E.03932
G1 X137.685 Y93.234 E.03935
G1 X138.366 Y94.013 E.03933
G1 X139 Y94.832 E.03936
G1 X139.583 Y95.687 E.03933
G1 X139.859 Y96.15 E.02049
G1 X140.127 Y96.602 E.01997
G1 X140.602 Y97.522 E.03935
G1 X141.022 Y98.468 E.03934
G1 X141.384 Y99.437 E.03931
G1 X141.704 Y100.497 E.04208
G1 X141.964 Y101.616 E.04366
G1 X142.15 Y102.75 E.04368
G1 X142.26 Y103.893 E.04364
G1 X142.296 Y104.513 E.0236
G1 X142.296 Y105.518 E.0382
G1 X142.234 Y106.551 E.03933
G1 X142.11 Y107.578 E.03932
G1 X141.925 Y108.597 E.03936
G1 X141.68 Y109.602 E.03931
G1 X141.375 Y110.591 E.03934
G1 X141.011 Y111.56 E.03934
G1 X140.59 Y112.506 E.03935
G1 X140.113 Y113.425 E.03935
G1 X139.583 Y114.313 E.0393
G1 X139 Y115.168 E.03933
G1 X138.366 Y115.987 E.03936
G1 X137.685 Y116.766 E.03933
G1 X136.959 Y117.504 E.03935
G1 X136.19 Y118.196 E.03932
G1 X135.381 Y118.842 E.03935
G1 X134.534 Y119.437 E.03934
G1 X133.654 Y119.981 E.03932
G1 X132.742 Y120.472 E.03937
G1 X131.803 Y120.907 E.03933
G1 X130.84 Y121.285 E.03932
G1 X129.855 Y121.605 E.03936
G1 X128.854 Y121.865 E.03931
