; generated by PrusaSlicer 2.9.4 on 2026-03-29 at 23:08:14 UTC


;
;
; 

; external perimeters extrusion width = 0.45mm
; perimeters extrusion width = 0.45mm
; infill extrusion width = 0.45mm
; solid infill extrusion width = 0.45mm
; top infill extrusion width = 0.40mm
; first layer extrusion width = 0.50mm

M73 P0 R7
M73 Q0 S7
M201 X1000 Y1000 Z200 E5000 ; sets maximum accelerations, mm/sec^2
M203 X200 Y200 Z12 E120 ; sets maximum feedrates, mm / sec
M204 S1250 T1250 ; sets acceleration (S) and retract acceleration (R), mm/sec^2
M205 X8.00 Y8.00 Z0.40 E4.50 ; sets the jerk limits, mm/sec
M205 S0 T0 ; sets the minimum extruding and travel feed rate, mm/sec

; printing object Keyhole Internal Adapter.stl id:0 copy 0
; stop printing object Keyhole Internal Adapter.stl id:0 copy 0

;TYPE:Custom
M862.3 P "MK3S" ; printer model check
M862.1 P0.4 ; nozzle diameter check
M115 U3.14.1 ; tell printer latest fw version
G90 ; use absolute coordinates
M83 ; extruder relative mode
M104 S240 ; set extruder temp
M140 S90 ; set bed temp
M190 S90 ; wait for bed temp
M109 S240 ; wait for extruder temp
G28 W ; home all without mesh bed level
G80 X113.274 Y93.2737 W23.4527 H23.4526 ; mesh bed levelling

G1 Z0.2 F720
G1 Y-3 F1000 ; go outside print area
G92 E0
G1 X60 E9 F1000 ; intro line
G1 X100 E12.5 F1000 ; intro line

G92 E0
M221 S95

; Don't change E values below. Excessive value can damage the printer.
M907 E430 ; set extruder motor current
G21 ; set units to millimeters
G90 ; use absolute coordinates
M83 ; use relative distances for extrusion

M900 K0.08 ; Filament gcode LA 1.5
M900 K45 ; Filament gcode LA 1.0




M107
;LAYER_CHANGE
;Z:0.2
;HEIGHT:0.2
G1 E-1 F2100
M73 P1 R7
M73 Q1 S7
G1 Z.4 F720
G1 X116.34 Y97.436 F10800
G1 Z.2 F720
G1 E1 F2100
M204 S800
;TYPE:Skirt/Brim
;WIDTH:0.5
G1 F900
G1 X116.927 Y96.812 E.03256
G1 X117.845 Y95.999 E.04661
G1 X118.749 Y95.353 E.04223
G1 X119.728 Y94.781 E.04309
G1 X120.847 Y94.278 E.04663
G1 X121.657 Y93.999 E.03256
G1 X123.007 Y93.676 E.05276
G1 X125.081 Y93.502 E.0791
G1 X127.152 Y93.705 E.07909
G1 X128.498 Y94.047 E.05278
G1 X129.645 Y94.482 E.04662
G1 X130.879 Y95.118 E.05276
G1 X131.598 Y95.583 E.03254
G1 X133.187 Y96.927 E.0791
G1 X134.509 Y98.535 E.07912
G1 X135.219 Y99.728 E.05276
G1 X135.722 Y100.847 E.04663
M73 Q2 S7
G1 X136.295 Y102.848 E.07911
G1 X136.472 Y104.225 E.05277
G1 X136.498 Y105.081 E.03255
M73 P2 R7
G1 X136.424 Y106.305 E.0466
G1 X136.183 Y107.673 E.05279
G1 X135.518 Y109.645 E.0791
G1 X134.509 Y111.465 E.07909
G1 X133.66 Y112.564 E.05278
G1 X133.073 Y113.188 E.03256
G1 X132.155 Y114.001 E.04661
G1 X131.251 Y114.647 E.04223
G1 X130.272 Y115.219 E.04309
G1 X129.153 Y115.722 E.04663
G1 X128.343 Y116.001 E.03256
G1 X126.993 Y116.324 E.05276
G1 X124.919 Y116.498 E.0791
G1 X122.848 Y116.295 E.07909
G1 X121.502 Y115.953 E.05278
G1 X120.355 Y115.518 E.04662
G1 X119.121 Y114.882 E.05276
G1 X118.402 Y114.417 E.03254
G1 X116.813 Y113.073 E.0791
G1 X115.491 Y111.465 E.07912
G1 X114.781 Y110.272 E.05276
G1 X114.278 Y109.153 E.04663
G1 X113.705 Y107.152 E.07911
G1 X113.528 Y105.775 E.05277
G1 X113.502 Y104.919 E.03255
G1 X113.576 Y103.695 E.0466
G1 X113.817 Y102.327 E.05279
G1 X114.482 Y100.355 E.0791
G1 X115.491 Y98.535 E.07909
G1 X116.303 Y97.484 E.05048
M204 S1000
G1 X116.69 Y97.806 F10800
M204 S800
G1 F900
G1 X117.24 Y97.145 E.03268
G1 X118.138 Y96.35 E.04558
G1 X118.997 Y95.737 E.04011
G1 X119.929 Y95.192 E.04103
G1 X121.022 Y94.7 E.04556
G1 X123.076 Y94.128 E.08104
G1 X125.067 Y93.959 E.07594
G1 X127.056 Y94.152 E.07595
G1 X128.349 Y94.479 E.05069
G1 X129.47 Y94.904 E.04556
G1 X131.327 Y95.952 E.08104
G1 X132.855 Y97.24 E.07595
M73 Q3 S7
G1 X134.125 Y98.783 E.07595
G1 X134.808 Y99.929 E.0507
G1 X135.3 Y101.022 E.04556
M73 P3 R7
G1 X135.848 Y102.944 E.07596
G1 X136.041 Y105.067 E.08102
G1 X135.969 Y106.264 E.04558
G1 X135.736 Y107.577 E.05068
G1 X135.096 Y109.47 E.07595
G1 X134.125 Y111.217 E.07596
G1 X132.76 Y112.855 E.08104
G1 X131.862 Y113.65 E.04558
G1 X131.003 Y114.263 E.04011
G1 X130.072 Y114.808 E.041
G1 X128.978 Y115.3 E.04559
G1 X126.924 Y115.872 E.08104
G1 X124.933 Y116.041 E.07594
G1 X122.944 Y115.848 E.07595
G1 X121.651 Y115.521 E.05069
G1 X120.53 Y115.096 E.04556
G1 X118.673 Y114.048 E.08104
G1 X117.145 Y112.76 E.07595
G1 X115.875 Y111.217 E.07595
G1 X115.192 Y110.071 E.0507
G1 X114.7 Y108.978 E.04556
G1 X114.152 Y107.056 E.07596
G1 X113.959 Y104.933 E.08102
G1 X114.031 Y103.736 E.04558
G1 X114.264 Y102.423 E.05068
G1 X114.904 Y100.53 E.07595
G1 X115.875 Y98.783 E.07596
G1 X116.651 Y97.852 E.04606
M204 S1000
;WIPE_START
G1 F8640
G1 X116.69 Y97.806 E-.01393
G1 X117.24 Y97.145 E-.19855
G1 X118.138 Y96.35 E-.27693
G1 X118.997 Y95.737 E-.24367
G1 X119.929 Y95.192 E-.24929
G1 X119.999 Y95.161 E-.01763
;WIPE_END
G1 Z.4 F720
; printing object Keyhole Internal Adapter.stl id:0 copy 0
G1 X125 Y107.783 F10800
G1 Z.2 F720
G1 E1 F2100
M204 S800
;TYPE:Perimeter
;WIDTH:0.499999
G1 F900
G1 X124.559 Y107.768 E.01677
G1 X123.897 Y107.576 E.0262
G1 X123.452 Y107.322 E.01947
G1 X123.148 Y107.104 E.01422
G1 X122.784 Y106.716 E.02022
G1 X122.506 Y106.256 E.02043
G1 X122.363 Y105.951 E.0128
G1 X122.231 Y105.436 E.02021
G1 X122.21 Y104.734 E.02669
G1 X122.363 Y104.049 E.02668
G1 X122.683 Y103.423 E.02672
G1 X123.078 Y102.97 E.02284
M73 Q4 S7
G1 X123.334 Y102.752 E.01278
G1 X123.76 Y102.483 E.01915
G1 X124.366 Y102.272 E.02439
G1 X125.09 Y102.198 E.02766
G1 X125.784 Y102.309 E.02671
G1 X126.394 Y102.572 E.02525
G1 X126.915 Y102.963 E.02476
G1 X127.101 Y103.145 E.00989
M73 P4 R7
G1 X127.414 Y103.575 E.02021
G1 X127.622 Y104.043 E.01946
G1 X127.735 Y104.386 E.01373
G1 X127.802 Y104.914 E.02023
G1 X127.735 Y105.614 E.02673
G1 X127.518 Y106.219 E.02443
G1 X127.314 Y106.562 E.01517
G1 X126.984 Y106.981 E.02027
G1 X126.574 Y107.32 E.02022
G1 X125.949 Y107.638 E.02665
G1 X125.262 Y107.791 E.02675
G1 X125.06 Y107.784 E.00768
M204 S1000
G1 X125 Y107.333 F10800
M204 S800
;TYPE:External perimeter
G1 F900
G1 X124.588 Y107.312 E.01568
G1 X124.039 Y107.141 E.02185
G1 X123.525 Y106.828 E.02287
G1 X123.117 Y106.404 E.02236
G1 X122.827 Y105.891 E.0224
G1 X122.674 Y105.323 E.02236
G1 X122.667 Y104.734 E.02239
G1 X122.806 Y104.163 E.02234
G1 X123.083 Y103.643 E.02239
G1 X123.481 Y103.209 E.02238
G1 X123.974 Y102.887 E.02238
G1 X124.507 Y102.707 E.02138
G1 X125.119 Y102.654 E.02335
G1 X125.698 Y102.758 E.02236
G1 X126.199 Y102.985 E.0209
G1 X126.624 Y103.315 E.02045
G1 X127.044 Y103.844 E.02567
G1 X127.267 Y104.388 E.02235
G1 X127.348 Y104.971 E.02237
G1 X127.282 Y105.556 E.02237
G1 X127.093 Y106.051 E.02014
G1 X126.776 Y106.525 E.02167
G1 X126.38 Y106.887 E.02039
G1 X126.23 Y107 E.00714
G1 X125.753 Y107.225 E.02004
G1 X125.176 Y107.342 E.02238
G1 X125.06 Y107.336 E.00441
M204 S1000
;WIPE_START
G1 F8640
G1 X125 Y107.333 E-.01387
G1 X124.588 Y107.312 E-.09526
G1 X124.039 Y107.141 E-.13277
G1 X123.525 Y106.828 E-.13896
G1 X123.117 Y106.404 E-.13587
G1 X122.827 Y105.891 E-.13607
G1 X122.674 Y105.323 E-.13583
G1 X122.667 Y104.734 E-.13601
G1 X122.744 Y104.417 E-.07536
;WIPE_END
G1 Z.4 F720
G1 X125.023 Y112.663 F10800
G1 Z.2 F720
G1 E1 F2100
M204 S800
;TYPE:Perimeter
G1 F900
G1 X124.864 Y112.666 E.00604
G1 X124.186 Y112.624 E.02582
G1 X123.69 Y112.555 E.01903
G1 X123.165 Y112.447 E.02037
G1 X122.649 Y112.298 E.02041
G1 X121.92 Y112.022 E.02963
G1 X121.442 Y111.795 E.02011
G1 X120.82 Y111.426 E.02749
G1 X120.344 Y111.089 E.02217
G1 X119.914 Y110.741 E.02102
G1 X119.526 Y110.37 E.0204
G1 X119.11 Y109.898 E.02391
G1 X118.689 Y109.342 E.02651
G1 X118.386 Y108.878 E.02106
G1 X118.038 Y108.214 E.02849
G1 X117.829 Y107.72 E.02039
G1 X117.658 Y107.211 E.02041
G1 X117.471 Y106.454 E.02964
G1 X117.387 Y105.932 E.02009
G1 X117.337 Y105.21 E.02751
G1 X117.343 Y104.672 E.02045
G1 X117.38 Y104.149 E.01993
G1 X117.456 Y103.617 E.02042
G1 X117.573 Y103.093 E.02041
G1 X117.805 Y102.35 E.02958
G1 X118.003 Y101.859 E.02012
G1 X118.334 Y101.216 E.02749
G1 X118.641 Y100.72 E.02217
G1 X118.963 Y100.27 E.02103
G1 X119.31 Y99.86 E.02041
G1 X119.704 Y99.457 E.02142
G1 X120.098 Y99.106 E.02005
G1 X120.533 Y98.769 E.02091
G1 X120.97 Y98.476 E.02
G1 X121.436 Y98.209 E.02041
G1 X121.92 Y97.978 E.02038
G1 X122.387 Y97.795 E.01906
G1 X123.337 Y97.522 E.03757
G1 X124.003 Y97.397 E.02575
G1 X124.529 Y97.345 E.02009
G1 X125.253 Y97.339 E.02752
G1 X125.931 Y97.387 E.02583
G1 X126.455 Y97.471 E.02017
G1 X127.211 Y97.658 E.0296
G1 X127.72 Y97.829 E.02041
G1 X128.214 Y98.038 E.02039
G1 X128.904 Y98.4 E.02961
G1 X129.357 Y98.688 E.0204
G1 X129.787 Y99.01 E.02042
G1 X130.37 Y99.526 E.02959
G1 X130.736 Y99.909 E.02013
G1 X131.187 Y100.474 E.02748
G1 X131.513 Y100.958 E.02218
G1 X131.791 Y101.436 E.02102
G1 X132.022 Y101.92 E.02038
G1 X132.257 Y102.53 E.02484
M73 Q5 S7
G1 X132.427 Y103.094 E.02239
G1 X132.544 Y103.617 E.02037
G1 X132.62 Y104.167 E.0211
G1 X132.662 Y104.888 E.02745
G1 X132.655 Y105.47 E.02212
G1 X132.603 Y105.997 E.02013
G1 X132.462 Y106.764 E.02964
G1 X132.322 Y107.282 E.02039
M73 P5 R7
G1 X132.143 Y107.788 E.0204
G1 X131.924 Y108.282 E.02054
G1 X131.569 Y108.942 E.02848
G1 X131.251 Y109.44 E.02246
G1 X130.788 Y110.03 E.0285
G1 X130.423 Y110.423 E.02038
G1 X130.029 Y110.788 E.02041
G1 X129.416 Y111.268 E.02959
G1 X128.968 Y111.564 E.02041
G1 X128.48 Y111.829 E.02111
G1 X127.821 Y112.124 E.02744
G1 X127.145 Y112.361 E.02723
G1 X126.455 Y112.529 E.02699
G1 X125.925 Y112.614 E.0204
G1 X125.39 Y112.658 E.0204
G1 X125.083 Y112.662 E.01167
M204 S1000
G1 X125.009 Y113.12 F10800
M204 S800
;TYPE:External perimeter
G1 F900
G1 X124.85 Y113.122 E.00604
G1 X124.144 Y113.079 E.02688
G1 X123.622 Y113.007 E.02003
G1 X123.055 Y112.891 E.022
G1 X122.499 Y112.73 E.022
G1 X121.745 Y112.444 E.03065
G1 X121.226 Y112.197 E.02185
G1 X120.571 Y111.81 E.02891
G1 X120.08 Y111.462 E.02287
G1 X119.611 Y111.083 E.02292
G1 X119.193 Y110.683 E.02199
G1 X118.753 Y110.183 E.02531
G1 X118.31 Y109.598 E.02789
G1 X117.987 Y109.102 E.0225
G1 X117.627 Y108.414 E.02951
G1 X117.401 Y107.882 E.02197
G1 X117.217 Y107.334 E.02197
G1 X117.024 Y106.55 E.03069
G1 X116.933 Y105.982 E.02186
G1 X116.88 Y105.224 E.02888
G1 X116.887 Y104.622 E.02288
G1 X116.924 Y104.107 E.01962
G1 X117.006 Y103.535 E.02196
G1 X117.133 Y102.971 E.02197
G1 X117.373 Y102.201 E.03065
G1 X117.588 Y101.667 E.02188
G1 X117.935 Y100.99 E.02891
G1 X118.253 Y100.479 E.02287
G1 X118.603 Y99.988 E.02292
G1 X118.977 Y99.547 E.02198
G1 X119.391 Y99.124 E.0225
G1 X119.805 Y98.755 E.02108
G1 X120.262 Y98.401 E.02197
G1 X120.722 Y98.092 E.02106
G1 X121.223 Y97.804 E.02196
G1 X121.745 Y97.556 E.02196
G1 X122.247 Y97.36 E.02048
G1 X122.979 Y97.137 E.02908
G1 X123.7 Y96.981 E.02804
G1 X124.389 Y96.899 E.02637
G1 X124.912 Y96.884 E.01989
G1 X125.563 Y96.903 E.02475
G1 X126.153 Y96.959 E.02252
G1 X126.848 Y97.088 E.02687
G1 X127.334 Y97.218 E.01912
G1 X127.882 Y97.401 E.02196
G1 X128.414 Y97.627 E.02197
G1 X129.129 Y98.002 E.03069
G1 X129.617 Y98.312 E.02197
G1 X130.079 Y98.659 E.02196
G1 X130.683 Y99.193 E.03064
G1 X131.081 Y99.609 E.02188
G1 X131.556 Y100.203 E.02891
G1 X131.892 Y100.703 E.0229
G1 X132.196 Y101.223 E.02289
G1 X132.444 Y101.745 E.02196
G1 X132.731 Y102.5 E.0307
G1 X132.891 Y103.055 E.02195
G1 X133.007 Y103.621 E.02196
G1 X133.076 Y104.136 E.01975
G1 X133.117 Y105.068 E.03546
G1 X133.097 Y105.653 E.02225
G1 X133.011 Y106.354 E.02684
G1 X132.909 Y106.86 E.01962
M73 P5 R6
G1 X132.759 Y107.418 E.02196
G1 X132.565 Y107.963 E.02199
G1 X132.331 Y108.491 E.02195
G1 X131.957 Y109.183 E.0299
G1 X131.619 Y109.711 E.02383
G1 X131.293 Y110.138 E.02042
G1 X130.917 Y110.566 E.02165
G1 X130.518 Y110.962 E.02137
G1 X130.079 Y111.341 E.02204
G1 X129.617 Y111.688 E.02196
G1 X129.129 Y111.998 E.02197
G1 X128.672 Y112.244 E.01973
G1 X127.978 Y112.554 E.02889
G1 X127.268 Y112.801 E.02857
G1 X126.551 Y112.975 E.02804
G1 X125.98 Y113.068 E.02199
G1 X125.403 Y113.115 E.022
G1 X125.069 Y113.119 E.0127
M204 S1000
;WIPE_START
G1 F8640
G1 X125.009 Y113.12 E-.01386
G1 X124.85 Y113.122 E-.03672
G1 X124.144 Y113.079 E-.16332
G1 X123.622 Y113.007 E-.12167
M73 Q6 S7
G1 X123.055 Y112.891 E-.13363
G1 X122.499 Y112.73 E-.13366
G1 X121.745 Y112.444 E-.1862
G1 X121.226 Y112.197 E-.13272
G1 X120.934 Y112.025 E-.07822
;WIPE_END
G1 Z.4 F720
G1 X131.388 Y101.1 F10800
G1 Z.2 F720
M73 P6 R6
G1 E1 F2100
M204 S800
;TYPE:Solid infill
;WIDTH:0.512273
G1 F900
G1 X130.002 Y99.714 E.0765
G1 X129.49 Y99.268 E.0265
M73 Q6 S6
G1 X129.136 Y99.008 E.01714
G1 X128.767 Y98.769 E.01716
G1 X128.384 Y98.553 E.01716
G1 X127.983 Y98.358 E.0174
G1 X131.642 Y102.017 E.20195
G1 X131.808 Y102.418 E.01694
G1 X132.012 Y103.051 E.02596
G1 X126.949 Y97.988 E.27944
G1 X126.742 Y97.931 E.00838
G1 X126.103 Y97.806 E.02541
G1 X132.194 Y103.897 E.33618
G1 X132.262 Y104.629 E.02869
G1 X125.37 Y97.736 E.38041
G1 X124.703 Y97.733 E.02603
G1 X132.269 Y105.299 E.41759
G1 X132.222 Y105.916 E.02415
G1 X124.084 Y97.778 E.44916
G1 X123.52 Y97.878 E.02235
M73 Q7 S6
G1 X132.125 Y106.483 E.47493
G1 X131.993 Y107.015 E.02139
M73 P7 R6
G1 X122.988 Y98.01 E.49701
G1 X122.486 Y98.171 E.02057
G1 X131.831 Y107.516 E.51577
G1 X131.639 Y107.988 E.01989
G1 X128.137 Y104.487 E.19326
G1 X128.197 Y105.011 E.02058
G1 X128.175 Y105.188 E.00696
G1 X131.413 Y108.427 E.17874
G1 X131.17 Y108.847 E.01894
G1 X128.101 Y105.777 E.16941
G1 X127.918 Y106.259 E.02012
G1 X130.909 Y109.249 E.16505
G1 X130.62 Y109.624 E.01848
G1 X127.694 Y106.699 E.16147
G1 X127.411 Y107.079 E.01849
M73 Q8 S6
G1 X130.309 Y109.978 E.15997
G1 X129.977 Y110.309 E.0183
M73 P8 R6
G1 X127.071 Y107.403 E.16039
G1 X126.706 Y107.702 E.01841
G1 X129.624 Y110.62 E.16105
G1 X129.249 Y110.909 E.01848
G1 X126.259 Y107.919 E.16503
G1 X126.105 Y107.994 E.00668
G1 X125.765 Y108.089 E.01378
G1 X128.852 Y111.176 E.17038
G1 X128.433 Y111.419 E.0189
G1 X125.2 Y108.187 E.17841
G1 X124.497 Y108.148 E.02748
G1 X128.136 Y111.787 E.20084
M204 S1000
;WIPE_START
G1 F8640
G1 X125.074 Y108.725 E-1
;WIPE_END
G1 Z.4 F720
G1 X125.771 Y102.12 F10800
G1 Z.2 F720
G1 E1 F2100
M204 S800
G1 F900
G1 X122.011 Y98.361 E.2075
G1 X121.567 Y98.581 E.01934
G1 X124.818 Y101.831 E.1794
G1 X124.361 Y101.868 E.01789
G1 X124.234 Y101.911 E.00523
G1 X121.148 Y98.824 E.17035
G1 X120.751 Y99.091 E.01867
G1 X123.736 Y102.077 E.16478
G1 X123.627 Y102.113 E.00448
G1 X123.311 Y102.315 E.01464
G1 X120.376 Y99.38 E.16199
G1 X120.022 Y99.691 E.01839
G1 X122.916 Y102.584 E.1597
M73 Q9 S6
G1 X122.591 Y102.923 E.01833
M73 P9 R6
G1 X119.691 Y100.023 E.16006
G1 X119.38 Y100.376 E.01836
G1 X122.307 Y103.302 E.16152
G1 X122.073 Y103.732 E.01911
G1 X119.091 Y100.751 E.16456
G1 X118.83 Y101.153 E.01871
G1 X121.917 Y104.24 E.17038
G1 X121.827 Y104.607 E.01475
G1 X121.825 Y104.812 E.008
G1 X118.587 Y101.574 E.17871
G1 X118.361 Y102.012 E.01924
G1 X122.131 Y105.782 E.20808
M204 S1000
;WIPE_START
G1 F8640
G1 X119.069 Y102.72 E-1
;WIPE_END
G1 Z.4 F720
G1 X118.009 Y102.323 F10800
G1 Z.2 F720
G1 E1 F2100
M204 S800
G1 F900
G1 X127.51 Y111.824 E.52438
G1 X127.015 Y111.993 E.02041
G1 X118.007 Y102.985 E.49717
G1 X117.875 Y103.517 E.02139
G1 X126.483 Y112.125 E.4751
G1 X125.916 Y112.222 E.02245
M73 P10 R6
M73 Q10 S6
G1 X117.778 Y104.084 E.44916
G1 X117.731 Y104.701 E.02415
G1 X125.302 Y112.272 E.41786
G1 X124.637 Y112.27 E.02595
G1 X117.738 Y105.371 E.38077
G1 X117.806 Y106.104 E.02873
G1 X123.896 Y112.194 E.33612
G1 X123.258 Y112.069 E.02537
G1 X123.051 Y112.012 E.00838
G1 X117.988 Y106.949 E.27944
G1 X118.192 Y107.582 E.02596
G1 X118.358 Y107.983 E.01694
G1 X122.017 Y111.642 E.20195
G1 X121.627 Y111.452 E.01693
M73 Q11 S6
G1 X121.032 Y111.1 E.02698
G1 X120.502 Y110.725 E.02534
M73 P11 R6
G1 X119.996 Y110.285 E.02617
G1 X118.612 Y108.901 E.07639
M204 S1000
;LAYER_CHANGE
;Z:0.35
;HEIGHT:0.15
;BEFORE_LAYER_CHANGE
G92 E0.0
;0.35


;WIPE_START
G1 F8640
G1 X119.996 Y110.285 E-.45194
G1 X120.502 Y110.725 E-.15483
G1 X121.032 Y111.099 E-.14978
G1 X121.627 Y111.452 E-.15975
G1 X121.953 Y111.611 E-.0837
;WIPE_END
G1 Z.35 F720
;AFTER_LAYER_CHANGE
;0.35
M104 S230 ; set temperature
M140 S85 ; set bed temperature
; stop printing object Keyhole Internal Adapter.stl id:0 copy 0
G1 Z.55
