; generated by PrusaSlicer 2.9.4 on 2026-03-20 at 00:18:05 UTC


;
;
; 

; external perimeters extrusion width = 0.45mm
; perimeters extrusion width = 0.45mm
; infill extrusion width = 0.45mm
; solid infill extrusion width = 0.45mm
; top infill extrusion width = 0.40mm
; first layer extrusion width = 0.50mm

M73 P0 R5
M73 Q0 S5
M201 X1000 Y1000 Z200 E5000 ; sets maximum accelerations, mm/sec^2
M203 X200 Y200 Z12 E120 ; sets maximum feedrates, mm / sec
M204 S1250 T1250 ; sets acceleration (S) and retract acceleration (R), mm/sec^2
M205 X8.00 Y8.00 Z0.40 E4.50 ; sets the jerk limits, mm/sec
M205 S0 T0 ; sets the minimum extruding and travel feed rate, mm/sec

; printing object Keyhole Internal Adapter.stl id:0 copy 0
; stop printing object Keyhole Internal Adapter.stl id:0 copy 0

;TYPE:Custom
M862.3 P "MK3S" ; printer model check
M862.1 P0.4 ; nozzle diameter check
M115 U3.14.1 ; tell printer latest fw version
G90 ; use absolute coordinates
M83 ; extruder relative mode
M104 S240 ; set extruder temp
M140 S90 ; set bed temp
M190 S90 ; wait for bed temp
M109 S240 ; wait for extruder temp
G28 W ; home all without mesh bed level
G80 X113.274 Y93.2736 W23.4501 H23.4527 ; mesh bed levelling

G1 Z0.2 F720
G1 Y-3 F1000 ; go outside print area
G92 E0
G1 X60 E9 F1000 ; intro line
G1 X100 E12.5 F1000 ; intro line
M73 P1 R5
M73 Q1 S5

G92 E0
M221 S95

; Don't change E values below. Excessive value can damage the printer.
M907 E430 ; set extruder motor current
G21 ; set units to millimeters
G90 ; use absolute coordinates
M83 ; use relative distances for extrusion

M900 K0.08 ; Filament gcode LA 1.5
M900 K45 ; Filament gcode LA 1.0




M107
;LAYER_CHANGE
;Z:0.2
;HEIGHT:0.2
G1 E-1 F2100
M73 P2 R5
M73 Q2 S5
G1 Z.4 F720
G1 X115.743 Y98.177 F10800
G1 Z.2 F720
G1 E1 F2100
M204 S800
;TYPE:Skirt/Brim
;WIDTH:0.5
G1 F900
G1 X117.11 Y96.634 E.07835
G1 X118.037 Y95.848 E.04619
G1 X118.945 Y95.228 E.04179
G1 X119.927 Y94.681 E.04272
G1 X121.044 Y94.203 E.04618
G1 X123.035 Y93.671 E.07833
G1 X123.876 Y93.557 E.03226
G1 X125.25 Y93.505 E.05226
G1 X127.299 Y93.734 E.07836
G1 X128.627 Y94.09 E.05225
G1 X129.759 Y94.534 E.04621
G1 X131.551 Y95.552 E.07833
G1 X132.422 Y96.224 E.04181
G1 X133.245 Y96.988 E.04268
G1 X134.045 Y97.903 E.04619
G1 X134.679 Y98.801 E.04178
G1 X135.24 Y99.775 E.04272
G1 X135.735 Y100.885 E.04619
G1 X136.149 Y102.196 E.05225
G1 X136.325 Y103.026 E.03225
G1 X136.471 Y104.232 E.04617
M73 Q3 S5
G1 X136.48 Y105.607 E.05226
G1 X136.187 Y107.648 E.07837
G1 X135.791 Y108.965 E.05227
G1 X135.469 Y109.75 E.03225
M73 P3 R5
G1 X134.91 Y110.828 E.04615
G1 X134.305 Y111.747 E.04182
G1 X133.604 Y112.625 E.0427
G1 X132.751 Y113.491 E.0462
G1 X131.11 Y114.739 E.07836
G1 X129.904 Y115.399 E.05225
G1 X129.124 Y115.733 E.03225
M73 P3 R4
G1 X127.968 Y116.108 E.04619
G1 X126.893 Y116.338 E.04178
G1 X125.777 Y116.472 E.04272
G1 X124.562 Y116.49 E.04618
G1 X123.716 Y116.427 E.03224
G1 X122.361 Y116.192 E.05227
G1 X121.195 Y115.851 E.04617
G1 X119.927 Y115.32 E.05225
G1 X119.179 Y114.917 E.03229
M73 Q3 S4
G1 X118.037 Y114.152 E.05224
G1 X116.515 Y112.762 E.07834
G1 X115.743 Y111.823 E.0462
G1 X114.995 Y110.67 E.05224
G1 X114.143 Y108.792 E.07838
G1 X113.64 Y106.793 E.07834
G1 X113.508 Y105.424 E.05227
G1 X113.508 Y104.576 E.03223
G1 X113.768 Y102.531 E.07835
G1 X114.143 Y101.208 E.05226
G1 X114.604 Y100.084 E.04617
G1 X114.995 Y99.33 E.03228
G1 X115.71 Y98.227 E.04996
M204 S1000
G1 X116.102 Y98.461 F10800
M204 S800
G1 F900
G1 X116.105 Y98.456 E.00022
G1 X117.416 Y96.974 E.0752
G1 X118.322 Y96.206 E.04514
M73 Q4 S4
G1 X119.185 Y95.616 E.03973
G1 X120.119 Y95.095 E.04065
G1 X121.211 Y94.629 E.04512
G1 X123.124 Y94.119 E.07525
M73 P4 R4
G1 X125.23 Y93.961 E.08027
G1 X127.197 Y94.18 E.07522
G1 X128.473 Y94.52 E.05019
G1 X129.579 Y94.954 E.04516
G1 X131.299 Y95.933 E.07522
G1 X132.91 Y97.299 E.08028
G1 X133.691 Y98.193 E.04512
G1 X134.294 Y99.048 E.03976
G1 X134.829 Y99.973 E.04061
G1 X135.312 Y101.058 E.04514
G1 X135.873 Y103.094 E.08026
G1 X136.015 Y104.273 E.04513
G1 X136.023 Y105.594 E.05021
G1 X135.74 Y107.553 E.07523
G1 X135.057 Y109.552 E.08029
G1 X134.51 Y110.606 E.04513
G1 X133.935 Y111.479 E.03973
G1 X133.269 Y112.314 E.04059
G1 X132.435 Y113.161 E.04518
G1 X130.859 Y114.357 E.07519
G1 X128.97 Y115.302 E.08028
G1 X127.84 Y115.669 E.04516
G1 X126.818 Y115.887 E.03972
G1 X125.757 Y116.015 E.04062
G1 X124.569 Y116.033 E.04516
G1 X122.476 Y115.749 E.08028
G1 X120.597 Y115.126 E.07524
M73 Q5 S4
G1 X119.535 Y114.595 E.04513
G1 X118.429 Y113.874 E.05018
G1 X116.95 Y112.559 E.07522
M73 P5 R4
G1 X115.658 Y110.888 E.08028
G1 X115.079 Y109.85 E.04517
G1 X114.571 Y108.632 E.05016
G1 X114.09 Y106.711 E.07526
G1 X113.964 Y104.603 E.08026
G1 X114.212 Y102.639 E.07524
G1 X114.571 Y101.368 E.0502
G1 X115.021 Y100.269 E.04513
G1 X116.071 Y98.513 E.07776
M204 S1000
;WIPE_START
G1 F8640
G1 X116.102 Y98.461 E-.01398
G1 X116.105 Y98.456 E-.00135
G1 X117.416 Y96.974 E-.45688
G1 X118.322 Y96.206 E-.27425
G1 X119.185 Y95.616 E-.24139
G1 X119.231 Y95.59 E-.01215
;WIPE_END
G1 Z.4 F720
; printing object Keyhole Internal Adapter.stl id:0 copy 0
G1 X124.945 Y107.293 F10800
G1 Z.2 F720
G1 E1 F2100
M204 S800
;TYPE:Perimeter
;WIDTH:0.499999
G1 F900
G1 X124.444 Y107.235 E.01917
G1 X123.886 Y107.011 E.02285
G1 X123.672 Y106.882 E.0095
G1 X123.271 Y106.529 E.0203
G1 X122.946 Y106.044 E.02219
G1 X122.735 Y105.424 E.02489
G1 X122.707 Y104.87 E.02108
G1 X122.715 Y104.665 E.0078
G1 X122.865 Y104.133 E.02101
G1 X123.196 Y103.567 E.02492
G1 X123.672 Y103.118 E.02487
G1 X124.256 Y102.82 E.02492
G1 X124.834 Y102.708 E.02238
G1 X125.076 Y102.7 E.0092
G1 X125.587 Y102.771 E.01961
G1 X126.16 Y103.012 E.02363
G1 X126.57 Y103.331 E.01974
G1 X126.8 Y103.567 E.01252
G1 X127.074 Y103.996 E.01935
G1 X127.261 Y104.575 E.02312
G1 X127.289 Y105.231 E.02495
G1 X127.131 Y105.867 E.02491
G1 X126.8 Y106.433 E.02492
G1 X126.345 Y106.864 E.02382
G1 X125.961 Y107.079 E.01673
G1 X125.552 Y107.235 E.01664
G1 X125.049 Y107.305 E.0193
G1 X125.004 Y107.3 E.00172
M204 S1000
G1 X124.977 Y106.841 F10800
M204 S800
;TYPE:External perimeter
G1 F900
G1 X124.509 Y106.782 E.01793
G1 X124.026 Y106.572 E.02002
G1 X123.623 Y106.235 E.01997
G1 X123.331 Y105.797 E.02001
G1 X123.174 Y105.295 E.01999
G1 X123.164 Y104.769 E.01999
M73 Q6 S4
G1 X123.307 Y104.252 E.02039
G1 X123.58 Y103.815 E.01958
G1 X123.972 Y103.463 E.02002
G1 X124.446 Y103.236 E.01997
G1 X124.95 Y103.153 E.01941
G1 X125.486 Y103.218 E.02052
G1 X125.97 Y103.428 E.02005
G1 X126.373 Y103.765 E.01997
G1 X126.665 Y104.203 E.02001
M73 P6 R4
G1 X126.822 Y104.704 E.01995
G1 X126.832 Y105.231 E.02003
G1 X126.692 Y105.738 E.01999
G1 X126.416 Y106.185 E.01997
G1 X126.024 Y106.537 E.02002
G1 X125.55 Y106.764 E.01997
G1 X125.037 Y106.847 E.01975
M204 S1000
;WIPE_START
G1 F8640
G1 X124.977 Y106.841 E-.01392
G1 X124.509 Y106.782 E-.10892
G1 X124.026 Y106.572 E-.12161
G1 X123.623 Y106.235 E-.1213
G1 X123.331 Y105.797 E-.12155
G1 X123.174 Y105.295 E-.12145
G1 X123.164 Y104.769 E-.12148
G1 X123.307 Y104.252 E-.12386
G1 X123.58 Y103.815 E-.11898
G1 X123.667 Y103.737 E-.02693
;WIPE_END
G1 Z.4 F720
G1 X125.012 Y112.661 F10800
G1 Z.2 F720
G1 E1 F2100
M204 S800
;TYPE:Perimeter
G1 F900
G1 X123.937 Y112.592 E.04094
G1 X123.295 Y112.478 E.02478
G1 X122.411 Y112.219 E.03501
G1 X121.568 Y111.859 E.03484
G1 X120.773 Y111.4 E.03489
G1 X120.039 Y110.85 E.03486
G1 X119.456 Y110.292 E.03067
G1 X119.081 Y109.879 E.0212
G1 X118.535 Y109.129 E.03526
G1 X118.087 Y108.325 E.03498
G1 X117.814 Y107.674 E.02683
G1 X117.606 Y107.044 E.02522
G1 X117.414 Y106.14 E.03512
G1 X117.345 Y105.437 E.02685
G1 X117.332 Y104.774 E.0252
G1 X117.415 Y103.857 E.03499
G1 X117.606 Y102.96 E.03486
G1 X117.9 Y102.098 E.03461
G1 X118.434 Y101.041 E.04501
G1 X118.791 Y100.495 E.02479
G1 X119.376 Y99.784 E.03499
G1 X120.039 Y99.15 E.03486
G1 X120.773 Y98.6 E.03486
G1 X121.568 Y98.141 E.03489
G1 X122.411 Y97.781 E.03484
G1 X123.292 Y97.523 E.03489
G1 X124.19 Y97.374 E.0346
G1 X125.374 Y97.344 E.04501
G1 X126.024 Y97.4 E.0248
G1 X126.927 Y97.578 E.03498
G1 X127.8 Y97.861 E.03488
G1 X128.632 Y98.247 E.03486
G1 X129.412 Y98.729 E.03485
G1 X130.129 Y99.301 E.03486
G1 X130.773 Y99.954 E.03486
G1 X131.334 Y100.68 E.03487
M73 Q7 S4
G1 X131.805 Y101.467 E.03486
G1 X132.178 Y102.305 E.03486
G1 X132.448 Y103.182 E.03488
G1 X132.614 Y104.094 E.03523
G1 X132.653 Y104.652 E.02126
M73 P7 R4
G1 X132.653 Y105.348 E.02645
G1 X132.614 Y105.906 E.02126
G1 X132.449 Y106.812 E.035
G1 X132.079 Y107.937 E.04501
G1 X131.805 Y108.532 E.0249
G1 X131.447 Y109.145 E.02698
G1 X131.067 Y109.688 E.02519
G1 X130.461 Y110.382 E.03502
G1 X129.779 Y110.996 E.03488
G1 X129.029 Y111.524 E.03486
G1 X128.219 Y111.96 E.03496
G1 X127.564 Y112.224 E.02684
G1 X126.931 Y112.421 E.0252
G1 X126.027 Y112.599 E.03502
G1 X125.119 Y112.667 E.03461
G1 X125.071 Y112.664 E.00183
M204 S1000
G1 X125.005 Y113.118 F10800
M204 S800
;TYPE:External perimeter
G1 F900
G1 X123.883 Y113.046 E.04273
G1 X123.191 Y112.923 E.02671
G1 X122.257 Y112.65 E.03698
G1 X121.363 Y112.268 E.03695
G1 X120.521 Y111.782 E.03695
G1 X119.743 Y111.199 E.03695
G1 X119.14 Y110.623 E.03169
G1 X118.723 Y110.164 E.02357
G1 X118.149 Y109.375 E.03708
G1 X117.676 Y108.525 E.03697
G1 X117.385 Y107.834 E.0285
G1 X117.164 Y107.163 E.02685
G1 X116.962 Y106.21 E.03702
G1 X116.888 Y105.464 E.02849
G1 X116.875 Y104.758 E.02684
G1 X116.962 Y103.789 E.03698
G1 X117.164 Y102.838 E.03695
G1 X117.478 Y101.92 E.03687
G1 X118.038 Y100.812 E.04718
G1 X118.423 Y100.224 E.02671
G1 X119.041 Y99.472 E.03699
G1 X119.743 Y98.801 E.03691
G1 X120.521 Y98.218 E.03695
G1 X121.363 Y97.732 E.03695
G1 X122.257 Y97.35 E.03695
G1 X123.19 Y97.077 E.03695
G1 X124.146 Y96.918 E.03683
G1 X125.388 Y96.886 E.04722
G1 X126.088 Y96.947 E.02671
G1 X127.043 Y97.135 E.03699
G1 X127.967 Y97.435 E.03692
G1 X128.849 Y97.844 E.03695
M73 Q8 S4
G1 X129.676 Y98.355 E.03695
G1 X130.436 Y98.961 E.03694
G1 X131.118 Y99.653 E.03693
G1 X131.713 Y100.422 E.03695
M73 P8 R4
G1 X132.211 Y101.256 E.03692
G1 X132.606 Y102.144 E.03694
G1 X132.893 Y103.073 E.03695
G1 X133.067 Y104.033 E.03708
G1 X133.11 Y104.652 E.02358
G1 X133.11 Y105.348 E.02645
G1 X133.067 Y105.967 E.02358
G1 X132.893 Y106.925 E.03701
G1 X132.505 Y108.104 E.04717
G1 X132.211 Y108.743 E.02673
G1 X131.832 Y109.391 E.02853
G1 X131.427 Y109.971 E.02689
G1 X130.787 Y110.703 E.03695
G1 X130.065 Y111.354 E.03695
G1 X129.27 Y111.913 E.03694
G1 X128.413 Y112.374 E.03698
G1 X127.718 Y112.654 E.02848
G1 X127.044 Y112.865 E.02684
G1 X126.089 Y113.053 E.03699
G1 X125.122 Y113.126 E.03686
G1 X125.065 Y113.122 E.00217
M204 S1000
;WIPE_START
G1 F8640
G1 X125.005 Y113.118 E-.01388
G1 X123.883 Y113.046 E-.25961
G1 X123.191 Y112.923 E-.16229
G1 X122.257 Y112.65 E-.22469
G1 X121.363 Y112.268 E-.22448
G1 X120.931 Y112.019 E-.11505
;WIPE_END
G1 Z.4 F720
G1 X128.895 Y98.624 F10800
G1 Z.2 F720
G1 E1 F2100
M204 S800
;TYPE:Solid infill
;WIDTH:0.511726
G1 F900
G1 X130.48 Y100.211 E.08743
G1 X131.013 Y100.899 E.03393
G1 X131.459 Y101.647 E.03395
G1 X131.624 Y102.016 E.01576
G1 X127.981 Y98.373 E.20083
G1 X127.658 Y98.224 E.01387
G1 X126.933 Y97.988 E.02972
G1 X132.004 Y103.059 E.27955
G1 X132.07 Y103.274 E.00877
M73 Q9 S4
G1 X132.184 Y103.903 E.02492
G1 X126.091 Y97.809 E.33592
G1 X125.352 Y97.733 E.02896
M73 P9 R4
G1 X132.265 Y104.646 E.3811
G1 X132.265 Y105.309 E.02584
G1 X124.705 Y97.75 E.41674
G1 X124.227 Y97.762 E.01864
G1 X124.079 Y97.787 E.00585
G1 X132.216 Y105.923 E.44855
G1 X132.114 Y106.484 E.02223
G1 X123.511 Y97.881 E.47427
M73 Q10 S4
G1 X122.984 Y98.018 E.02123
M73 P10 R4
G1 X131.975 Y107.009 E.49566
G1 X131.811 Y107.507 E.02044
G1 X122.478 Y98.175 E.51448
G1 X122.014 Y98.373 E.01967
G1 X131.628 Y107.987 E.53
G1 X131.412 Y108.435 E.01939
M73 P11 R4
M73 Q11 S4
G1 X127.672 Y104.694 E.20621
G1 X127.664 Y105.349 E.02553
G1 X131.167 Y108.853 E.19314
G1 X130.9 Y109.249 E.01862
G1 X127.531 Y105.879 E.18575
G1 X127.492 Y106.015 E.00552
G1 X127.402 Y106.213 E.00848
G1 X127.322 Y106.334 E.00565
G1 X130.61 Y109.621 E.18123
G1 X130.301 Y109.975 E.01832
G1 X127.058 Y106.732 E.17878
G1 X126.716 Y107.053 E.01828
G1 X129.967 Y110.304 E.17922
G1 X129.618 Y110.618 E.0183
G1 X126.334 Y107.335 E.18101
G1 X125.871 Y107.534 E.01964
G1 X129.238 Y110.902 E.18564
G1 X128.849 Y111.175 E.01853
M73 Q12 S4
G1 X125.328 Y107.654 E.19411
G1 X125.029 Y107.697 E.01178
M73 P12 R4
G1 X124.662 Y107.652 E.01441
G1 X128.573 Y111.562 E.21558
M204 S1000
;WIPE_START
G1 F8640
G1 X125.511 Y108.5 E-1
;WIPE_END
G1 Z.4 F720
G1 X125.573 Y102.595 F10800
G1 Z.2 F720
G1 E1 F2100
M204 S800
G1 F900
G1 X121.568 Y98.59 E.22079
G1 X121.147 Y98.833 E.01895
G1 X124.659 Y102.344 E.19358
G1 X124.239 Y102.412 E.01659
G1 X124.117 Y102.465 E.00519
G1 X120.753 Y99.101 E.18545
G1 X120.374 Y99.385 E.01846
G1 X123.657 Y102.668 E.18099
G1 X123.425 Y102.817 E.01075
G1 X123.277 Y102.951 E.00778
G1 X120.026 Y99.7 E.17922
G1 X119.687 Y100.024 E.01828
M73 Q13 S4
G1 X122.932 Y103.27 E.17892
G1 X122.669 Y103.67 E.01866
M73 P13 R4
G1 X119.385 Y100.385 E.18107
G1 X119.105 Y100.726 E.0172
G1 X119.088 Y100.751 E.00118
G1 X122.464 Y104.127 E.18611
G1 X122.329 Y104.655 E.02124
G1 X118.826 Y101.152 E.19311
G1 X118.595 Y101.584 E.0191
G1 X122.594 Y105.583 E.22046
M204 S1000
;WIPE_START
G1 F8640
G1 X119.532 Y102.521 E-1
;WIPE_END
G1 Z.4 F720
G1 X118.219 Y101.872 F10800
G1 Z.2 F720
G1 E1 F2100
M204 S800
G1 F900
G1 X127.983 Y111.636 E.53827
G1 X127.511 Y111.826 E.01983
M73 Q14 S4
G1 X118.176 Y102.491 E.51462
G1 X118.007 Y102.986 E.02039
M73 P14 R4
G1 X127.011 Y111.989 E.49634
G1 X126.835 Y112.044 E.00719
G1 X126.474 Y112.115 E.01434
G1 X117.883 Y103.524 E.4736
G1 X117.8 Y103.915 E.01558
G1 X117.784 Y104.088 E.00677
G1 X125.914 Y112.218 E.44819
G1 X125.297 Y112.265 E.02412
M73 P15 R4
M73 Q15 S4
G1 X117.729 Y104.697 E.41721
G1 X117.732 Y105.362 E.02592
G1 X124.616 Y112.246 E.3795
G1 X123.897 Y112.19 E.02811
G1 X117.802 Y106.095 E.33601
G1 X117.981 Y106.937 E.03356
G1 X123.043 Y111.999 E.27906
G1 X122.542 Y111.853 E.02034
M73 Q16 S4
G1 X122.003 Y111.622 E.02286
G1 X118.366 Y107.985 E.2005
G1 X118.437 Y108.155 E.00718
M73 P16 R4
G1 X118.863 Y108.919 E.0341
G1 X119.385 Y109.636 E.03457
G1 X119.595 Y109.877 E.01246
G1 X121.089 Y111.371 E.08236
M204 S1000
;LAYER_CHANGE
;Z:0.35
;HEIGHT:0.15
;BEFORE_LAYER_CHANGE
G92 E0.0
;0.35


;WIPE_START
G1 F8640
G1 X119.595 Y109.877 E-.48786
G1 X119.385 Y109.636 E-.07381
G1 X118.863 Y108.919 E-.20479
G1 X118.437 Y108.155 E-.20198
G1 X118.384 Y108.029 E-.03156
;WIPE_END
G1 Z.35 F720
;AFTER_LAYER_CHANGE
;0.35
M104 S230 ; set temperature
M140 S85 ; set bed temperature
; stop printing object Keyhole Internal Adapter.stl id:0 copy 0
G1 Z.55
G1 X118.858 Y114.702 F10800
G1 Z.35 F720
G1 E1 F2100
;TYPE:Skirt/Brim
;WIDTH:0.5
G1 F3000
G1 X118.037 Y114.152 E.02883
G1 X116.515 Y112.762 E.06013
G1 X115.743 Y111.823 E.03546
G1 X114.995 Y110.67 E.0401
G1 X114.143 Y108.792 E.06016
G1 X113.64 Y106.793 E.06014
G1 X113.508 Y105.424 E.04012
G1 X113.508 Y104.576 E.02474
G1 X113.768 Y102.531 E.06014
G1 X114.143 Y101.208 E.04012
G1 X114.604 Y100.084 E.03544
G1 X114.995 Y99.33 E.02478
G1 X115.743 Y98.177 E.0401
G1 X117.11 Y96.634 E.06014
G1 X118.037 Y95.848 E.03546
G1 X118.945 Y95.228 E.03208
G1 X119.927 Y94.681 E.03279
G1 X121.044 Y94.203 E.03545
G1 X123.035 Y93.671 E.06012
G1 X123.876 Y93.557 E.02476
G1 X125.25 Y93.505 E.04011
G1 X127.299 Y93.734 E.06015
G1 X128.627 Y94.09 E.04011
G1 X129.759 Y94.534 E.03547
G1 X131.551 Y95.552 E.06013
G1 X132.422 Y96.224 E.03209
G1 X133.245 Y96.988 E.03276
G1 X134.045 Y97.903 E.03546
G1 X134.679 Y98.801 E.03207
G1 X135.24 Y99.775 E.03279
G1 X135.735 Y100.885 E.03546
G1 X136.149 Y102.196 E.04011
G1 X136.325 Y103.026 E.02475
G1 X136.471 Y104.232 E.03544
G1 X136.48 Y105.607 E.04011
G1 X136.187 Y107.648 E.06015
G1 X135.791 Y108.965 E.04012
G1 X135.469 Y109.75 E.02475
G1 X134.91 Y110.828 E.03543
G1 X134.305 Y111.747 E.0321
G1 X133.604 Y112.625 E.03278
G1 X132.751 Y113.491 E.03546
G1 X131.11 Y114.739 E.06015
G1 X129.904 Y115.399 E.04011
G1 X129.124 Y115.733 E.02475
G1 X127.968 Y116.108 E.03546
G1 X126.893 Y116.338 E.03207
