; generated by PrusaSlicer 2.9.4 on 2026-03-18 at 00:29:07 UTC


;
;
; 

; external perimeters extrusion width = 0.45mm
; perimeters extrusion width = 0.45mm
; infill extrusion width = 0.45mm
; solid infill extrusion width = 0.45mm
; top infill extrusion width = 0.40mm
; first layer extrusion width = 0.42mm

M73 P0 R11
M73 Q0 S12
M201 X1000 Y1000 Z200 E5000 ; sets maximum accelerations, mm/sec^2
M203 X200 Y200 Z12 E120 ; sets maximum feedrates, mm / sec
M204 S1250 T1250 ; sets acceleration (S) and retract acceleration (R), mm/sec^2
M205 X8.00 Y8.00 Z0.40 E4.50 ; sets the jerk limits, mm/sec
M205 S0 T0 ; sets the minimum extruding and travel feed rate, mm/sec

; printing object Keyhole External Adapter.stl id:0 copy 0
; stop printing object Keyhole External Adapter.stl id:0 copy 0

;TYPE:Custom
M862.3 P "MK3S" ; printer model check
M862.1 P0.4 ; nozzle diameter check
M115 U3.14.1 ; tell printer latest fw version
G90 ; use absolute coordinates
M83 ; extruder relative mode
M104 S240 ; set extruder temp
M140 S90 ; set bed temp
M190 S90 ; wait for bed temp
M109 S240 ; wait for extruder temp
G28 W ; home all without mesh bed level
G80 X119.068 Y90.8482 W11.8644 H28.3003 ; mesh bed levelling

G1 Z0.2 F720
G1 Y-3 F1000 ; go outside print area
G92 E0
G1 X60 E9 F1000 ; intro line
G1 X100 E12.5 F1000 ; intro line
M73 Q0 S11

G92 E0
M221 S95

; Don't change E values below. Excessive value can damage the printer.
M907 E430 ; set extruder motor current
G21 ; set units to millimeters
G90 ; use absolute coordinates
M83 ; use relative distances for extrusion

M900 K0.08 ; Filament gcode LA 1.5
M900 K45 ; Filament gcode LA 1.0




M107
;LAYER_CHANGE
;Z:0.2
;HEIGHT:0.2
G1 E-1 F2100
G1 Z.4 F720
G1 X120.24 Y93.569 F10800
G1 Z.2 F720
M73 Q1 S11
G1 E1 F2100
M204 S800
;TYPE:Skirt/Brim
;WIDTH:0.42
G1 F1200
G1 X121.151 Y92.517 E.04363
G1 X122.026 Y91.866 E.0342
M73 P1 R11
G1 X123.008 Y91.391 E.0342
G1 X124.304 Y91.077 E.04181
G1 X125.395 Y91.048 E.03422
G1 X126.471 Y91.226 E.0342
G1 X127.272 Y91.504 E.02658
G1 X128.097 Y91.944 E.02932
G1 X128.849 Y92.517 E.02964
G1 X129.434 Y93.131 E.02659
G1 X129.893 Y93.774 E.02477
G1 X130.372 Y94.754 E.0342
G1 X130.611 Y95.568 E.0266
G1 X130.74 Y96.773 E.038
G1 X130.744 Y113.288 E.51782
G1 X130.58 Y114.563 E.04031
G1 X130.218 Y115.613 E.03482
G1 X129.659 Y116.573 E.03483
G1 X128.927 Y117.407 E.03479
G1 X128.048 Y118.085 E.03481
G1 X127.054 Y118.582 E.03484
G1 X125.983 Y118.877 E.03483
G1 X124.875 Y118.96 E.03484
G1 X123.773 Y118.829 E.0348
G1 X122.946 Y118.581 E.02707
G1 X122.217 Y118.242 E.02521
G1 X121.496 Y117.768 E.02705
G1 X120.895 Y117.234 E.02521
G1 X120.2 Y116.368 E.03482
G1 X119.684 Y115.385 E.03481
G1 X119.42 Y114.563 E.02707
G1 X119.256 Y113.288 E.04031
G1 X119.26 Y96.773 E.51782
G1 X119.389 Y95.568 E.038
G1 X119.719 Y94.528 E.03421
G1 X120.211 Y93.621 E.03235
M204 S1000
G1 X120.54 Y93.799 F10800
M204 S800
G1 F1200
G1 X120.547 Y93.787 E.00044
G1 X121.411 Y92.79 E.04137
G1 X122.23 Y92.183 E.03196
G1 X123.148 Y91.741 E.03195
G1 X124.34 Y91.452 E.03846
G1 X125.359 Y91.424 E.03196
G1 X126.365 Y91.588 E.03196
G1 X127.132 Y91.854 E.02545
G1 X128.025 Y92.346 E.03197
G1 X128.589 Y92.79 E.02251
G1 X129.149 Y93.378 E.02546
G1 X129.566 Y93.963 E.02253
G1 X130.015 Y94.878 E.03196
G1 X130.244 Y95.657 E.02546
G1 X130.363 Y96.773 E.03519
G1 X130.367 Y113.288 E.51782
G1 X130.216 Y114.465 E.03721
G1 X129.879 Y115.447 E.03255
G1 X129.359 Y116.345 E.03254
G1 X128.677 Y117.126 E.03251
G1 X127.856 Y117.761 E.03254
G1 X126.928 Y118.226 E.03255
G1 X125.929 Y118.504 E.03251
G1 X124.894 Y118.584 E.03255
G1 X123.864 Y118.463 E.03252
G1 X123.072 Y118.226 E.02592
G1 X122.409 Y117.917 E.02293
G1 X121.718 Y117.463 E.02592
G1 X121.172 Y116.977 E.02292
G1 X120.521 Y116.17 E.03251
G1 X120.037 Y115.252 E.03254
G1 X119.784 Y114.465 E.02592
G1 X119.633 Y113.288 E.03721
G1 X119.637 Y96.773 E.51782
G1 X119.756 Y95.657 E.03519
G1 X120.062 Y94.684 E.03198
G1 X120.512 Y93.852 E.02966
M204 S1000
;WIPE_START
G1 F8640
G1 X120.54 Y93.799 E-.01384
G1 X120.547 Y93.787 E-.00321
G1 X121.411 Y92.79 E-.30463
G1 X122.23 Y92.183 E-.23539
G1 X123.148 Y91.741 E-.23526
G1 X124.022 Y91.529 E-.20767
;WIPE_END
G1 Z.4 F720
; printing object Keyhole External Adapter.stl id:0 copy 0
G1 X123.039 Y108.001 F10800
M73 Q2 S11
G1 Z.2 F720
M73 P2 R11
G1 E1 F2100
M204 S800
;TYPE:Perimeter
;WIDTH:0.419999
G1 F1200
G1 X123.144 Y108.09 E.00432
G1 X123.795 Y108.441 E.02319
G1 X124.515 Y108.624 E.02329
G1 X125.229 Y108.649 E.0224
G1 X125.938 Y108.527 E.02256
G1 X126.632 Y108.242 E.02352
G1 X127.057 Y107.92 E.01672
G1 X127.006 Y108.571 E.02047
G1 X127.007 Y113.226 E.14595
G1 X126.901 Y113.831 E.01926
G1 X126.639 Y114.364 E.01862
G1 X126.408 Y114.639 E.01126
G1 X125.919 Y114.996 E.01898
G1 X125.586 Y115.132 E.01128
G1 X125 Y115.218 E.01857
G1 X124.414 Y115.132 E.01857
G1 X124.082 Y114.996 E.01125
G1 X123.592 Y114.64 E.01899
G1 X123.272 Y114.209 E.01683
G1 X123.1 Y113.814 E.01351
G1 X122.993 Y113.239 E.01834
G1 X122.993 Y108.538 E.1474
G1 X122.943 Y107.92 E.01944
G1 X122.993 Y107.962 E.00205
M204 S1000
;WIPE_START
G1 F8640
G1 X123.039 Y108.001 E-.01393
G1 X123.144 Y108.09 E-.03178
G1 X123.795 Y108.441 E-.17077
G1 X124.515 Y108.624 E-.17154
G1 X125.229 Y108.649 E-.16497
G1 X125.938 Y108.527 E-.16612
G1 X126.632 Y108.242 E-.17323
G1 X127.004 Y107.96 E-.10766
;WIPE_END
G1 Z.4 F720
G1 X122.422 Y106.542 F10800
G1 Z.2 F720
G1 E1 F2100
M204 S800
;TYPE:External perimeter
G1 F1200
G1 X122.548 Y106.78 E.00844
G1 X123.048 Y107.491 E.02725
G1 X123.331 Y107.763 E.01231
G1 X123.893 Y108.077 E.02018
G1 X124.535 Y108.247 E.02082
G1 X125.172 Y108.277 E.01999
G1 X125.801 Y108.176 E.01997
G1 X126.385 Y107.948 E.01966
G1 X126.68 Y107.756 E.01104
G1 X126.952 Y107.491 E.01191
G1 X127.278 Y107.028 E.01775
G1 X127.577 Y106.545 E.01781
G1 X127.578 Y107.138 E.01859
G1 X127.414 Y108.064 E.02949
G1 X127.384 Y108.571 E.01592
G1 X127.384 Y113.259 E.14699
G1 X127.263 Y113.949 E.02196
G1 X126.957 Y114.572 E.02176
G1 X126.667 Y114.917 E.01413
G1 X126.104 Y115.328 E.02186
G1 X125.686 Y115.498 E.01415
G1 X125 Y115.599 E.02174
G1 X124.314 Y115.498 E.02174
G1 X123.897 Y115.328 E.01412
G1 X123.333 Y114.917 E.02188
G1 X123.04 Y114.568 E.01429
G1 X122.817 Y114.166 E.01441
G1 X122.676 Y113.726 E.01449
G1 X122.616 Y113.263 E.01464
G1 X122.616 Y108.571 E.14711
G1 X122.586 Y108.064 E.01592
G1 X122.422 Y107.137 E.02952
G1 X122.422 Y106.602 E.01677
M204 S1000
;WIPE_START
G1 F8640
G1 X122.422 Y106.542 E-.01385
G1 X122.548 Y106.78 E-.06218
G1 X123.048 Y107.491 E-.2007
G1 X123.331 Y107.763 E-.09063
G1 X123.893 Y108.077 E-.14865
G1 X124.535 Y108.247 E-.15335
G1 X125.172 Y108.277 E-.14725
G1 X125.801 Y108.176 E-.1471
G1 X125.947 Y108.119 E-.03629
;WIPE_END
G1 Z.4 F720
G1 X122.939 Y102.329 F10800
G1 Z.2 F720
G1 E1 F2100
M204 S800
;TYPE:Perimeter
G1 F1200
G1 X122.987 Y101.603 E.02281
G1 X122.999 Y101.021 E.01825
G1 X122.999 Y96.819 E.13175
G1 X123.086 Y96.211 E.01926
G1 X123.327 Y95.683 E.0182
G1 X123.554 Y95.394 E.01152
G1 X123.996 Y95.056 E.01745
G1 X124.375 Y94.885 E.01304
G1 X124.892 Y94.779 E.01655
G1 X125.484 Y94.836 E.01865
G1 X125.817 Y94.951 E.01105
G1 X126.306 Y95.265 E.01822
G1 X126.687 Y95.705 E.01825
G1 X126.912 Y96.223 E.01771
G1 X127.001 Y96.806 E.01849
G1 X127.01 Y101.459 E.14589
G1 X127.061 Y102.329 E.02733
G1 X126.856 Y102.154 E.00845
G1 X126.338 Y101.858 E.01871
G1 X126.038 Y101.758 E.00992
G1 X125.485 Y101.621 E.01786
G1 X124.771 Y101.595 E.0224
G1 X124.01 Y101.738 E.02428
G1 X123.368 Y102.002 E.02176
G1 X122.987 Y102.292 E.01501
M204 S1000
;WIPE_START
G1 F8640
G1 X122.939 Y102.329 E-.01399
G1 X122.987 Y101.603 E-.168
G1 X122.999 Y101.021 E-.13441
G1 X122.999 Y98.06 E-.6836
;WIPE_END
G1 Z.4 F720
G1 X122.422 Y103.701 F10800
G1 Z.2 F720
G1 E1 F2100
M204 S800
;TYPE:External perimeter
G1 F1200
G1 X122.435 Y102.912 E.02474
G1 X122.581 Y102.155 E.02417
G1 X122.61 Y101.595 E.01758
G1 X122.622 Y96.792 E.15059
G1 X122.72 Y96.104 E.02179
G1 X123.003 Y95.485 E.02134
G1 X123.28 Y95.133 E.01404
G1 X123.621 Y94.837 E.01416
G1 X124.013 Y94.611 E.01419
G1 X124.44 Y94.463 E.01417
G1 X124.883 Y94.4 E.01403
G1 X125.565 Y94.465 E.02148
G1 X125.983 Y94.61 E.01387
G1 X126.556 Y94.977 E.02134
G1 X127.002 Y95.492 E.02136
G1 X127.207 Y95.89 E.01404
G1 X127.334 Y96.323 E.01415
G1 X127.378 Y96.788 E.01464
G1 X127.387 Y101.452 E.14624
G1 X127.419 Y102.155 E.02206
G1 X127.57 Y102.934 E.02488
G1 X127.572 Y103.69 E.0237
G1 X127.452 Y103.464 E.00802
G1 X126.952 Y102.754 E.02723
G1 X126.669 Y102.481 E.01233
G1 X126.151 Y102.185 E.01871
G1 X125.465 Y101.997 E.0223
G1 X124.828 Y101.968 E.01999
G1 X124.199 Y102.068 E.01997
G1 X123.615 Y102.296 E.01966
G1 X123.424 Y102.418 E.00711
G1 X123.071 Y102.727 E.01471
G1 X122.815 Y103.085 E.0138
G1 X122.454 Y103.651 E.02105
M204 S1000
;WIPE_START
G1 F8640
G1 X122.422 Y103.701 E-.01371
G1 X122.435 Y102.912 E-.18221
G1 X122.581 Y102.155 E-.17801
G1 X122.61 Y101.595 E-.12948
G1 X122.615 Y99.444 E-.49659
;WIPE_END
G1 Z.4 F720
G1 X126.866 Y109.053 F10800
G1 Z.2 F720
G1 E1 F2100
M204 S800
;TYPE:Solid infill
;WIDTH:0.438566
G1 F1200
G1 X126.474 Y108.661 E.01824
G1 X126.073 Y108.819 E.01418
M73 Q3 S11
G1 X126.696 Y109.442 E.02899
G1 X126.694 Y110 E.01836
G1 X125.605 Y108.911 E.05067
G1 X125.11 Y108.976 E.01642
G1 X126.693 Y110.558 E.07363
G1 X126.692 Y111.117 E.01839
M73 P3 R11
G1 X124.52 Y108.945 E.10105
G1 X124.32 Y108.916 E.00665
G1 X123.787 Y108.771 E.01817
G1 X126.69 Y111.675 E.13509
G1 X126.689 Y112.233 E.01836
G1 X123.314 Y108.858 E.15702
G1 X123.314 Y109.417 E.01839
G1 X126.688 Y112.791 E.15698
G1 X126.687 Y113.198 E.01339
G1 X126.664 Y113.327 E.00431
G1 X123.314 Y109.977 E.15586
G1 X123.314 Y110.536 E.01839
G1 X126.565 Y113.788 E.15128
G1 X126.381 Y114.163 E.01374
G1 X123.314 Y111.096 E.14269
G1 X123.313 Y111.655 E.01839
G1 X126.115 Y114.456 E.13034
G1 X125.791 Y114.692 E.01319
G1 X123.313 Y112.214 E.11529
G1 X123.313 Y112.774 E.01842
G1 X125.378 Y114.839 E.09607
G1 X125 Y114.894 E.01257
G1 X124.852 Y114.872 E.00492
G1 X123.331 Y113.351 E.07076
G1 X123.36 Y113.573 E.00737
G1 X123.461 Y113.888 E.01088
G1 X123.618 Y114.172 E.01068
G1 X123.754 Y114.333 E.00693
G1 X124.372 Y114.952 E.02878
M204 S1000
;WIPE_START
G1 F8640
G1 X123.754 Y114.333 E-.20197
G1 X123.618 Y114.172 E-.04866
G1 X123.461 Y113.888 E-.07493
G1 X123.36 Y113.573 E-.07638
G1 X123.331 Y113.351 E-.0517
G1 X124.852 Y114.872 E-.49668
G1 X125 Y114.894 E-.03455
G1 X125.065 Y114.884 E-.01513
;WIPE_END
G1 Z.4 F720
G1 X126.733 Y96.152 F10800
G1 Z.2 F720
G1 E1 F2100
M204 S800
;WIDTH:0.425887
G1 F1200
G1 X126.088 Y95.506 E.02907
G1 X125.676 Y95.242 E.01558
G1 X125.415 Y95.151 E.0088
G1 X125.168 Y95.128 E.0079
G1 X126.662 Y96.621 E.06726
G1 X126.681 Y97.182 E.01787
G1 X124.638 Y95.139 E.092
G1 X124.242 Y95.284 E.01343
G1 X126.681 Y97.724 E.10986
G1 X126.681 Y98.265 E.01723
G1 X123.918 Y95.503 E.12441
G1 X123.787 Y95.617 E.00553
G1 X123.656 Y95.782 E.00671
G1 X126.681 Y98.807 E.13623
G1 X126.681 Y99.348 E.01723
G1 X123.471 Y96.139 E.14454
G1 X123.397 Y96.302 E.0057
G1 X123.359 Y96.568 E.00856
G1 X126.681 Y99.89 E.1496
G1 X126.681 Y100.432 E.01726
G1 X123.319 Y97.07 E.1514
G1 X123.319 Y97.612 E.01726
G1 X126.681 Y100.973 E.15138
G1 X126.691 Y101.525 E.01758
G1 X123.319 Y98.153 E.15185
G1 X123.319 Y98.695 E.01726
G1 X126.054 Y101.43 E.12317
G1 X125.68 Y101.329 E.01234
G1 X125.377 Y101.294 E.00971
G1 X123.319 Y99.236 E.09268
G1 X123.319 Y99.778 E.01726
G1 X124.819 Y101.278 E.06755
G1 X124.341 Y101.341 E.01535
G1 X123.319 Y100.32 E.046
G1 X123.319 Y100.861 E.01723
G1 X123.896 Y101.438 E.02598
G1 X123.506 Y101.59 E.01333
G1 X123.145 Y101.229 E.01626
M204 S1000
;LAYER_CHANGE
;Z:0.35
;HEIGHT:0.15
;BEFORE_LAYER_CHANGE
G92 E0.0
;0.35


;WIPE_START
G1 F8640
G1 X123.506 Y101.59 E-.11788
G1 X123.896 Y101.438 E-.09665
G1 X123.319 Y100.861 E-.18842
G1 X123.319 Y100.32 E-.12492
G1 X124.341 Y101.341 E-.33357
G1 X124.819 Y101.278 E-.11133
G1 X124.736 Y101.195 E-.02723
;WIPE_END
G1 Z.35 F720
;AFTER_LAYER_CHANGE
;0.35
M104 S230 ; set temperature
M140 S85 ; set bed temperature
; stop printing object Keyhole External Adapter.stl id:0 copy 0
G1 Z.55
G1 X119.259 Y101.228 F10800
G1 Z.35 F720
M73 Q4 S11
G1 E1 F2100
;TYPE:Skirt/Brim
;WIDTH:0.42
G1 F2114
G1 X119.26 Y96.773 E.10774
G1 X119.389 Y95.568 E.02931
M73 P4 R11
G1 X119.719 Y94.528 E.02639
G1 X120.24 Y93.569 E.0264
G1 X121.151 Y92.517 E.03366
G1 X122.026 Y91.866 E.02638
G1 X123.008 Y91.391 E.02638
G1 X124.304 Y91.077 E.03225
G1 X125.395 Y91.048 E.0264
G1 X126.471 Y91.226 E.02638
G1 X127.272 Y91.504 E.02051
G1 X128.097 Y91.944 E.02261
G1 X128.849 Y92.517 E.02287
G1 X129.434 Y93.131 E.02051
G1 X129.893 Y93.774 E.01911
G1 X130.372 Y94.754 E.02638
G1 X130.611 Y95.568 E.02052
G1 X130.74 Y96.773 E.02931
G1 X130.744 Y113.288 E.39941
G1 X130.58 Y114.563 E.03109
G1 X130.218 Y115.613 E.02686
G1 X129.659 Y116.573 E.02687
G1 X128.927 Y117.407 E.02684
G1 X128.048 Y118.085 E.02685
G1 X127.054 Y118.582 E.02688
G1 X125.983 Y118.877 E.02687
G1 X124.875 Y118.96 E.02687
G1 X123.773 Y118.829 E.02684
G1 X122.946 Y118.581 E.02088
G1 X122.217 Y118.242 E.01944
G1 X121.496 Y117.768 E.02087
G1 X120.895 Y117.234 E.01944
G1 X120.2 Y116.368 E.02685
G1 X119.684 Y115.385 E.02685
G1 X119.42 Y114.563 E.02088
G1 X119.256 Y113.288 E.03109
G1 X119.259 Y101.288 E.29022
G1 X119.636 Y101.288 F10800
G1 F2114
G1 X119.637 Y96.773 E.10919
G1 X119.756 Y95.657 E.02714
G1 X120.062 Y94.684 E.02467
G1 X120.547 Y93.787 E.02466
G1 X121.411 Y92.79 E.03191
G1 X122.23 Y92.183 E.02465
G1 X123.148 Y91.741 E.02464
G1 X124.34 Y91.452 E.02966
G1 X125.359 Y91.424 E.02465
G1 X126.365 Y91.588 E.02465
G1 X127.132 Y91.854 E.01963
G1 X128.025 Y92.346 E.02466
G1 X128.589 Y92.79 E.01736
G1 X129.149 Y93.378 E.01964
G1 X129.566 Y93.963 E.01737
G1 X130.015 Y94.878 E.02465
G1 X130.244 Y95.657 E.01964
G1 X130.363 Y96.773 E.02714
G1 X130.367 Y113.288 E.39941
G1 X130.216 Y114.465 E.0287
G1 X129.879 Y115.447 E.02511
G1 X129.359 Y116.345 E.0251
G1 X128.677 Y117.126 E.02508
G1 X127.856 Y117.761 E.0251
G1 X126.928 Y118.226 E.0251
G1 X125.929 Y118.504 E.02508
G1 X124.894 Y118.584 E.02511
G1 X123.864 Y118.463 E.02508
G1 X123.072 Y118.226 E.01999
G1 X122.409 Y117.917 E.01769
G1 X121.718 Y117.463 E.02
G1 X121.172 Y116.977 E.01768
G1 X120.521 Y116.17 E.02508
G1 X120.037 Y115.252 E.0251
G1 X119.784 Y114.465 E.01999
G1 X119.633 Y113.288 E.0287
G1 X119.636 Y101.348 E.28877
;WIPE_START
G1 F8640
G1 X119.636 Y101.288 E-.01385
G1 X119.637 Y97.017 E-.98615
;WIPE_END
G1 Z.55 F720
; printing object Keyhole External Adapter.stl id:0 copy 0
G1 X127.773 Y104.488 F10800
G1 Z.35 F720
G1 E1 F2100
M204 S800
;TYPE:External perimeter
;WIDTH:0.547574
G1 F1210.653
G1 X127.789 Y104.909 E.01354
;WIDTH:0.514536
G1 F1200
G1 X127.794 Y105.032 E.0037
G1 F1172.613
G1 X127.806 Y105.33 E.00897
;WIDTH:0.484898
G1 F1170.939
G1 X127.804 Y105.368 E.00107
M204 S1000
;WIPE_START
G1 F8640
G1 X127.806 Y105.33 E-.00879
G1 X127.794 Y105.032 E-.06886
G1 X127.789 Y104.909 E-.02842
G1 X127.773 Y104.488 E-.09728
;WIPE_END
G1 E-.79665 F2100
G1 Z.55 F720
G1 X122.228 Y105.762 F10800
G1 Z.35 F720
G1 E1 F2100
M204 S800
;WIDTH:0.548656
G1 F1210.986
G1 X122.211 Y105.338 E.01367
;WIDTH:0.515035
G1 F1200
G1 X122.206 Y105.211 E.00383
G1 F1172.737
G1 X122.194 Y104.914 E.00895
;WIDTH:0.48555
G1 F1171.082
G1 X122.196 Y104.873 E.00116
M204 S1000
;WIPE_START
G1 F8640
G1 X122.194 Y104.914 E-.00948
G1 X122.206 Y105.211 E-.06863
G1 X122.211 Y105.338 E-.02935
G1 X122.228 Y105.762 E-.09798
;WIPE_END
G1 E-.79456 F2100
G1 Z.55 F720
G1 X122.718 Y107.381 F10800
G1 Z.35 F720
G1 E1 F2100
M204 S800
;TYPE:Perimeter
;WIDTH:0.449999
G1 F1493.861
G1 X122.822 Y107.487 E.00387
G1 F1500
G1 X123.329 Y107.869 E.01654
G1 X123.905 Y108.144 E.01663
G1 X124.573 Y108.309 E.01793
G1 X125.211 Y108.33 E.01663
G1 X125.888 Y108.212 E.01791
G1 X126.482 Y107.975 E.01666
G1 X126.953 Y107.675 E.01455
G1 X127.404 Y107.255 E.01606
G1 F1474.057
G1 X127.405 Y112.588 E.13896
G1 X127.405 Y113.099 E.01331
G1 F1468.961
G1 X127.346 Y113.731 E.01654
G1 F1474.843
G1 X127.203 Y114.174 E.01213
G1 F1461.442
G1 X126.978 Y114.581 E.01212
G1 F1471.205
G1 X126.68 Y114.936 E.01208
