; generated by PrusaSlicer 2.9.4 on 2026-03-18 at 00:29:31 UTC


;
;
; 

; external perimeters extrusion width = 0.45mm
; perimeters extrusion width = 0.45mm
; infill extrusion width = 0.45mm
; solid infill extrusion width = 0.45mm
; top infill extrusion width = 0.40mm
; first layer extrusion width = 0.42mm

M73 P0 R2
M73 Q0 S2
M201 X1000 Y1000 Z200 E5000 ; sets maximum accelerations, mm/sec^2
M203 X200 Y200 Z12 E120 ; sets maximum feedrates, mm / sec
M204 S1250 T1250 ; sets acceleration (S) and retract acceleration (R), mm/sec^2
M205 X8.00 Y8.00 Z0.40 E4.50 ; sets the jerk limits, mm/sec
M205 S0 T0 ; sets the minimum extruding and travel feed rate, mm/sec

; printing object Keyhole Face Insert.stl id:0 copy 0
; stop printing object Keyhole Face Insert.stl id:0 copy 0

;TYPE:Custom
M862.3 P "MK3S" ; printer model check
M862.1 P0.4 ; nozzle diameter check
M115 U3.14.1 ; tell printer latest fw version
G90 ; use absolute coordinates
M83 ; extruder relative mode
M104 S240 ; set extruder temp
M140 S90 ; set bed temp
M190 S90 ; wait for bed temp
M109 S240 ; wait for extruder temp
G28 W ; home all without mesh bed level
G80 X117.946 Y95.9449 W14.108 H18.1064 ; mesh bed levelling

G1 Z0.2 F720
G1 Y-3 F1000 ; go outside print area
G92 E0
G1 X60 E9 F1000 ; intro line
G1 X100 E12.5 F1000 ; intro line
M73 P2 R2
M73 Q2 S2

G92 E0
M221 S95

; Don't change E values below. Excessive value can damage the printer.
M907 E430 ; set extruder motor current
G21 ; set units to millimeters
G90 ; use absolute coordinates
M83 ; use relative distances for extrusion

M900 K0.08 ; Filament gcode LA 1.5
M900 K45 ; Filament gcode LA 1.0




M107
;LAYER_CHANGE
;Z:0.2
;HEIGHT:0.2
G1 E-1 F2100
M73 P3 R2
M73 Q3 S2
G1 Z.4 F720
G1 X119.469 Y98.93 F10800
G1 Z.2 F720
M73 P4 R2
M73 Q4 S2
G1 E1 F2100
M204 S800
;TYPE:Skirt/Brim
;WIDTH:0.42
G1 F1085
G1 X120.412 Y97.889 E.04404
G1 X121.548 Y97.063 E.04404
G1 X122.575 Y96.575 E.03565
G1 X123.932 Y96.216 E.04401
G1 X125.335 Y96.14 E.04405
G1 X126.723 Y96.352 E.04402
G1 X128.039 Y96.841 E.04402
G1 X129.228 Y97.588 E.04403
G1 X130.108 Y98.41 E.03776
G1 X130.935 Y99.545 E.04403
G1 X131.424 Y100.572 E.03566
G1 X131.783 Y101.93 E.04404
M73 Q5 S2
G1 X131.865 Y103.131 E.03774
G1 X131.784 Y104.065 E.02939
G1 X131.516 Y105.166 E.03553
G1 X129.549 Y110.727 E.18495
G1 X129.125 Y111.581 E.0299
M73 P5 R2
G1 X128.337 Y112.541 E.03894
G1 X127.823 Y112.963 E.02085
G1 X127.166 Y113.357 E.02402
G1 X126.091 Y113.741 E.03579
G1 X124.855 Y113.863 E.03894
G1 X123.726 Y113.695 E.03579
G1 X122.58 Y113.221 E.03888
G1 X121.663 Y112.541 E.03579
G1 X120.875 Y111.581 E.03894
G1 X120.451 Y110.727 E.0299
G1 X118.425 Y104.979 E.19109
G1 X118.216 Y104.065 E.0294
G1 X118.135 Y102.863 E.03777
G1 X118.306 Y101.469 E.04404
M73 Q6 S2
G1 X118.757 Y100.14 E.044
G1 X119.438 Y98.982 E.04212
M204 S1000
G1 X119.762 Y99.173 F10800
M204 S800
G1 F1085
G1 X119.777 Y99.147 E.00094
G1 X120.67 Y98.165 E.04162
G1 X121.744 Y97.385 E.04162
M73 P6 R2
G1 X122.701 Y96.93 E.03322
G1 X123.984 Y96.589 E.04162
G1 X125.309 Y96.517 E.04161
G1 X126.621 Y96.715 E.0416
G1 X127.866 Y97.176 E.04163
G1 X128.99 Y97.881 E.0416
G1 X129.833 Y98.667 E.03614
G1 X130.613 Y99.741 E.04162
G1 X131.068 Y100.699 E.03325
G1 X131.409 Y101.981 E.04159
G1 X131.488 Y103.131 E.03614
G1 X131.41 Y104.013 E.02776
G1 X131.16 Y105.04 E.03314
G1 X129.194 Y110.6 E.18491
G1 X128.801 Y111.387 E.02758
G1 X128.084 Y112.261 E.03545
M73 Q7 S2
G1 X127.005 Y113.016 E.04129
G1 X125.999 Y113.376 E.0335
G1 X124.874 Y113.486 E.03544
G1 X123.577 Y113.257 E.0413
G1 X122.612 Y112.8 E.03348
M73 P7 R2
G1 X121.738 Y112.083 E.03545
G1 X121.101 Y111.225 E.03351
G1 X120.806 Y110.6 E.02167
G1 X118.788 Y104.877 E.19027
G1 X118.59 Y104.013 E.02779
G1 X118.512 Y102.863 E.03614
G1 X118.675 Y101.546 E.04161
G1 X119.103 Y100.29 E.0416
G1 X119.731 Y99.224 E.03879
M204 S1000
G1 X120.055 Y99.416 F10800
M204 S800
G1 F1085
G1 X120.085 Y99.365 E.00186
G1 X120.927 Y98.441 E.0392
G1 X121.94 Y97.707 E.03922
G1 X122.828 Y97.285 E.03083
G1 X124.035 Y96.963 E.03917
G1 X125.283 Y96.893 E.03919
G1 X126.52 Y97.078 E.03922
G1 X127.692 Y97.511 E.03917
G1 X128.752 Y98.173 E.03918
M73 Q8 S2
G1 X129.557 Y98.925 E.03454
G1 X130.291 Y99.937 E.0392
G1 X130.713 Y100.825 E.03083
G1 X131.036 Y102.033 E.03921
M73 P8 R2
G1 X131.111 Y103.132 E.03454
G1 X131.036 Y103.962 E.02613
G1 X130.805 Y104.915 E.03075
G1 X128.839 Y110.473 E.18485
G1 X128.478 Y111.193 E.02525
G1 X127.83 Y111.982 E.03201
G1 X126.843 Y112.675 E.03781
G1 X125.907 Y113.01 E.03117
G1 X124.892 Y113.11 E.03198
G1 X123.704 Y112.902 E.03782
G1 X122.806 Y112.477 E.03115
G1 X122.017 Y111.83 E.03199
G1 X121.425 Y111.031 E.03118
G1 X121.161 Y110.473 E.01936
G1 X119.151 Y104.775 E.18945
G1 X118.964 Y103.962 E.02616
M73 Q9 S2
G1 X118.889 Y102.864 E.03451
G1 X119.044 Y101.623 E.03921
G1 X119.448 Y100.44 E.0392
G1 X120.024 Y99.467 E.03545
M73 P9 R2
M204 S1000
;WIPE_START
G1 F8640
G1 X120.055 Y99.416 E-.01378
G1 X120.085 Y99.365 E-.01366
G1 X120.927 Y98.441 E-.28865
G1 X121.94 Y97.707 E-.28885
G1 X122.828 Y97.285 E-.22702
G1 X123.531 Y97.097 E-.16804
;WIPE_END
G1 Z.4 F720
; printing object Keyhole Face Insert.stl id:0 copy 0
G1 X126.835 Y100.881 F10800
G1 Z.2 F720
G1 E1 F2100
M204 S800
;TYPE:Perimeter
;WIDTH:0.390469
G1 F1085
G1 X126.849 Y100.891 E.0005
G1 X127.107 Y101.134 E.01024
;WIDTH:0.383919
G1 X127.447 Y101.616 E.01672
;WIDTH:0.385295
G1 X127.681 Y102.156 E.01675
G1 X127.774 Y102.517 E.01061
;WIDTH:0.380515
G1 X127.815 Y103.051 E.01503
;WIDTH:0.379366
G1 X127.76 Y103.558 E.01427
;WIDTH:0.378646
G1 X127.615 Y104.043 E.01413
;WIDTH:0.379313
G1 X127.387 Y104.494 E.01414
;WIDTH:0.380122
G1 X127.073 Y104.904 E.01448
G1 X126.675 Y105.261 E.01499
;WIDTH:0.388314
G1 X126.242 Y105.528 E.01461
;WIDTH:0.419999
G1 X125.721 Y105.741 E.01765
G1 X125.189 Y105.828 E.0169
G1 X124.65 Y105.812 E.01691
G1 X124.124 Y105.695 E.0169
G1 X123.637 Y105.463 E.01691
;WIDTH:0.381699
G1 X123.196 Y105.16 E.01507
;WIDTH:0.379117
G1 X122.82 Y104.779 E.01496
;WIDTH:0.3833
G1 X122.541 Y104.369 E.01404
G1 X122.314 Y103.841 E.01627
;WIDTH:0.380603
G1 X122.202 Y103.318 E.01502
G1 X122.193 Y102.783 E.01502
;WIDTH:0.379229
G1 X122.285 Y102.256 E.01496
;WIDTH:0.379701
G1 X122.474 Y101.756 E.01497
;WIDTH:0.390644
G1 X122.772 Y101.302 E.0157
G1 X123.154 Y100.881 E.01644
;WIDTH:0.384882
G1 X123.625 Y100.549 E.01639
G1 X124.154 Y100.319 E.0164
;WIDTH:0.384389
G1 X124.731 Y100.2 E.01673
;WIDTH:0.384007
G1 X125.349 Y100.208 E.01753
;WIDTH:0.37852
G1 X125.871 Y100.322 E.01491
M73 Q10 S2
G1 X126.361 Y100.538 E.01494
;WIDTH:0.390469
G1 X126.786 Y100.846 E.01517
M204 S1000
G1 X126.598 Y101.155 F10800
M204 S800
;TYPE:External perimeter
;WIDTH:0.419999
G1 F1085
G1 X126.761 Y101.283 E.0065
G1 X127.079 Y101.684 E.01605
G1 X127.336 Y102.258 E.01972
G1 X127.418 Y102.551 E.00954
G1 X127.455 Y103.062 E.01606
G1 X127.412 Y103.482 E.01324
G1 X127.222 Y104.036 E.01836
M73 P10 R2
G1 X127.059 Y104.344 E.01093
G1 X126.768 Y104.709 E.01464
G1 X126.362 Y105.041 E.01644
G1 X126.005 Y105.243 E.01286
G1 X125.49 Y105.404 E.01692
G1 X125.072 Y105.455 E.0132
G1 X124.592 Y105.421 E.01509
G1 X124.179 Y105.317 E.01335
G1 X123.755 Y105.12 E.01466
G1 X123.275 Y104.74 E.0192
G1 X123.056 Y104.505 E.01007
G1 X122.843 Y104.175 E.01232
G1 X122.645 Y103.709 E.01588
G1 X122.55 Y103.215 E.01577
G1 X122.583 Y102.592 E.01956
G1 X122.645 Y102.289 E.0097
G1 X122.827 Y101.849 E.01493
G1 X123.202 Y101.322 E.02028
G1 X123.588 Y100.985 E.01607
G1 X123.995 Y100.754 E.01467
G1 X124.438 Y100.604 E.01466
G1 X124.901 Y100.541 E.01465
G1 X125.368 Y100.567 E.01467
G1 X125.864 Y100.7 E.0161
G1 X126.315 Y100.933 E.01592
G1 X126.551 Y101.118 E.0094
M204 S1000
;WIPE_START
G1 F8640
G1 X126.598 Y101.155 E-.01381
G1 X126.761 Y101.283 E-.04785
G1 X127.079 Y101.684 E-.11817
G1 X127.336 Y102.258 E-.14522
G1 X127.418 Y102.551 E-.07025
G1 X127.455 Y103.062 E-.1183
G1 X127.412 Y103.482 E-.09749
G1 X127.222 Y104.036 E-.13523
G1 X127.059 Y104.344 E-.08046
G1 X126.768 Y104.709 E-.10779
G1 X126.549 Y104.889 E-.06543
;WIPE_END
G1 Z.4 F720
G1 X126.241 Y106.034 F10800
G1 Z.2 F720
G1 E1 F2100
M204 S800
;TYPE:Perimeter
G1 F1085
G1 X126.157 Y106.148 E.00444
G1 X126.138 Y106.293 E.00459
G1 X126.129 Y109.155 E.08974
G1 X125.935 Y109.64 E.01638
G1 X125.731 Y109.86 E.00941
G1 X125.328 Y110.082 E.01443
G1 X125 Y110.13 E.01039
G1 X124.672 Y110.082 E.01039
G1 X124.284 Y109.872 E.01383
G1 X123.994 Y109.521 E.01428
M73 Q11 S2
G1 X123.87 Y109.109 E.01349
G1 X123.862 Y106.294 E.08826
G1 X123.758 Y105.975 E.01052
;WIDTH:0.411751
G1 X123.36 Y105.687 E.01507
;WIDTH:0.378816
G1 X122.886 Y105.334 E.01651
;WIDTH:0.38155
G1 X122.471 Y104.883 E.01726
G1 X122.167 Y104.377 E.01662
M73 P11 R2
;WIDTH:0.384196
G1 X121.933 Y103.733 E.01944
G1 X121.856 Y103.221 E.01469
;WIDTH:0.379656
G1 X121.871 Y102.631 E.01653
;WIDTH:0.381937
G1 X121.998 Y102.03 E.01732
G1 X122.233 Y101.504 E.01624
;WIDTH:0.390644
G1 X122.503 Y101.082 E.01449
G1 X122.943 Y100.612 E.01861
;WIDTH:0.384805
G1 X123.472 Y100.244 E.01832
G1 X124.064 Y99.99 E.01831
;WIDTH:0.384389
G1 X124.672 Y99.864 E.01763
;WIDTH:0.385195
G1 X125.123 Y99.85 E.01284
;WIDTH:0.385512
G1 X125.741 Y99.935 E.01777
G1 X126.162 Y100.068 E.01258
;WIDTH:0.383099
G1 X126.654 Y100.321 E.01565
;WIDTH:0.390469
G1 X127.061 Y100.616 E.01453
G1 X127.38 Y100.931 E.01296
;WIDTH:0.383293
G1 X127.679 Y101.349 E.01455
;WIDTH:0.376429
G1 X127.942 Y101.888 E.01663
;WIDTH:0.380515
G1 X128.111 Y102.489 E.01753
;WIDTH:0.383093
G1 X128.151 Y103.13 E.01817
G1 X128.078 Y103.67 E.01541
;WIDTH:0.379144
G1 X127.899 Y104.232 E.01649
;WIDTH:0.380758
G1 X127.608 Y104.771 E.01721
G1 X127.23 Y105.224 E.01657
;WIDTH:0.378528
G1 X126.849 Y105.55 E.01399
;WIDTH:0.391305
G1 X126.374 Y105.853 E.01632
;WIDTH:0.419999
G1 X126.277 Y105.985 E.00514
M204 S1000
G1 X126.559 Y106.214 F10800
M204 S800
;TYPE:External perimeter
G1 F1085
G1 X126.515 Y106.294 E.00286
G1 X126.506 Y109.201 E.09115
G1 X126.363 Y109.618 E.01382
G1 X126.153 Y109.969 E.01282
G1 X125.845 Y110.255 E.01318
G1 X125.439 Y110.446 E.01407
G1 X125 Y110.511 E.01391
G1 X124.561 Y110.446 E.01391
G1 X124.36 Y110.351 E.00697
G1 X124.044 Y110.163 E.01153
G1 X123.798 Y109.89 E.01152
G1 X123.601 Y109.558 E.0121
G1 X123.493 Y109.147 E.01332
G1 X123.469 Y106.219 E.09181
G1 X122.651 Y105.603 E.03211
M73 Q12 S2
G1 X122.281 Y105.216 E.01679
G1 X121.956 Y104.751 E.01779
G1 X121.73 Y104.287 E.01618
G1 X121.579 Y103.794 E.01617
G1 X121.5 Y103.233 E.01776
M73 P12 R2
G1 X121.517 Y102.594 E.02004
G1 X121.642 Y101.97 E.01995
G1 X121.825 Y101.492 E.01605
G1 X122.201 Y100.875 E.02265
G1 X122.691 Y100.35 E.02252
G1 X123.278 Y99.936 E.02252
G1 X123.937 Y99.65 E.02252
G1 X124.599 Y99.512 E.0212
G1 X125.128 Y99.487 E.0166
G1 X125.79 Y99.579 E.02096
G1 X126.286 Y99.729 E.01625
G1 X126.818 Y100.004 E.01878
G1 X127.28 Y100.327 E.01767
G1 X127.647 Y100.687 E.01612
G1 X128.063 Y101.277 E.02263
G1 X128.35 Y101.938 E.02259
G1 X128.467 Y102.465 E.01693
G1 X128.507 Y103.166 E.02202
G1 X128.467 Y103.559 E.01239
G1 X128.35 Y104.061 E.01616
G1 X128.156 Y104.539 E.01617
G1 X127.893 Y104.987 E.01629
G1 X127.482 Y105.476 E.02003
G1 X127.065 Y105.834 E.01723
G1 X126.6 Y106.138 E.01742
G1 X126.587 Y106.161 E.00083
M204 S1000
G1 X125.988 Y106.644 F10800
M204 S800
;TYPE:Solid infill
;WIDTH:0.438671
G1 F1085
G1 X125.452 Y106.109 E.02492
G1 X125.23 Y106.146 E.00741
G1 X124.927 Y106.143 E.00997
G1 X125.817 Y107.033 E.04142
G1 X125.815 Y107.591 E.01836
G1 X124.289 Y106.065 E.07102
G1 X124.129 Y106.026 E.00542
G1 X124.183 Y106.279 E.00851
G1 X124.183 Y106.519 E.0079
G1 X125.813 Y108.148 E.07583
G1 X125.81 Y108.706 E.01836
M73 Q13 S2
G1 X124.185 Y107.08 E.07565
G1 X124.187 Y107.642 E.01849
G1 X125.774 Y109.229 E.07385
G1 X125.662 Y109.467 E.00866
M73 P13 R2
G1 X125.566 Y109.581 E.0049
G1 X124.188 Y108.203 E.06413
G1 X124.19 Y108.764 E.01846
G1 X125.202 Y109.776 E.0471
G1 X125 Y109.806 E.00672
G1 X124.766 Y109.771 E.00779
G1 X124.531 Y109.661 E.00854
G1 X124.036 Y109.17 E.02294
M204 S1000
;LAYER_CHANGE
;Z:0.35
;HEIGHT:0.15
;BEFORE_LAYER_CHANGE
G92 E0.0
;0.35


;WIPE_START
G1 F8640
G1 X124.531 Y109.661 E-.16099
G1 X124.766 Y109.771 E-.05991
G1 X125 Y109.806 E-.05463
G1 X125.202 Y109.776 E-.04715
G1 X124.19 Y108.764 E-.33046
G1 X124.188 Y108.203 E-.12954
G1 X124.854 Y108.868 E-.21732
;WIPE_END
G1 Z.35 F720
;AFTER_LAYER_CHANGE
;0.35
M104 S230 ; set temperature
M140 S85 ; set bed temperature
; stop printing object Keyhole Face Insert.stl id:0 copy 0
G1 Z.55
G1 X120.359 Y110.467 F10800
G1 Z.35 F720
G1 E1 F2100
;TYPE:Skirt/Brim
;WIDTH:0.42
G1 F1040
G1 X118.425 Y104.979 E.14073
G1 X118.216 Y104.065 E.02268
G1 X118.135 Y102.863 E.02914
G1 X118.306 Y101.469 E.03397
G1 X118.757 Y100.14 E.03394
M73 Q14 S2
G1 X119.469 Y98.93 E.03395
G1 X120.412 Y97.889 E.03397
G1 X121.548 Y97.063 E.03397
M73 P14 R2
G1 X122.575 Y96.575 E.0275
G1 X123.932 Y96.216 E.03395
G1 X125.335 Y96.14 E.03398
G1 X126.723 Y96.352 E.03396
G1 X128.039 Y96.841 E.03395
G1 X129.228 Y97.588 E.03396
G1 X130.108 Y98.41 E.02912
G1 X130.935 Y99.545 E.03396
G1 X131.424 Y100.572 E.02751
G1 X131.783 Y101.93 E.03397
G1 X131.865 Y103.131 E.02911
G1 X131.784 Y104.065 E.02267
G1 X131.516 Y105.166 E.02741
G1 X129.549 Y110.727 E.14266
G1 X129.125 Y111.581 E.02306
M73 Q15 S2
G1 X128.337 Y112.541 E.03004
G1 X127.823 Y112.963 E.01608
G1 X127.166 Y113.357 E.01853
G1 X126.091 Y113.741 E.02761
G1 X124.855 Y113.863 E.03004
M73 P15 R2
G1 X123.726 Y113.695 E.02761
G1 X122.58 Y113.221 E.02999
G1 X121.663 Y112.541 E.02761
G1 X120.875 Y111.581 E.03004
G1 X120.451 Y110.727 E.02306
G1 X120.379 Y110.523 E.00523
G1 X120.735 Y110.398 F10800
G1 F1040
G1 X118.788 Y104.877 E.14158
G1 X118.59 Y104.013 E.02144
G1 X118.512 Y102.863 E.02788
G1 X118.675 Y101.546 E.03209
G1 X119.103 Y100.29 E.03209
G1 X119.777 Y99.147 E.03209
G1 X120.67 Y98.165 E.0321
G1 X121.744 Y97.385 E.0321
G1 X122.701 Y96.93 E.02563
G1 X123.984 Y96.589 E.03211
G1 X125.309 Y96.517 E.03209
M73 Q16 S2
G1 X126.621 Y96.715 E.03209
G1 X127.866 Y97.176 E.03211
G1 X128.99 Y97.881 E.03209
M73 P16 R2
G1 X129.833 Y98.667 E.02788
G1 X130.613 Y99.741 E.0321
G1 X131.068 Y100.699 E.02565
G1 X131.409 Y101.981 E.03208
G1 X131.488 Y103.131 E.02788
G1 X131.41 Y104.013 E.02141
G1 X131.16 Y105.04 E.02556
G1 X129.194 Y110.6 E.14263
G1 X128.801 Y111.387 E.02127
G1 X128.084 Y112.261 E.02734
G1 X127.005 Y113.016 E.03185
G1 X125.999 Y113.376 E.02584
G1 X124.874 Y113.486 E.02734
G1 X123.577 Y113.257 E.03185
G1 X122.612 Y112.8 E.02582
G1 X121.738 Y112.083 E.02734
G1 X121.101 Y111.225 E.02584
G1 X120.806 Y110.6 E.01671
M73 Q17 S2
G1 X120.755 Y110.454 E.00374
G1 X121.11 Y110.329 F10800
G1 F1040
G1 X119.151 Y104.775 E.14243
G1 X118.964 Y103.962 E.02018
M73 P17 R2
G1 X118.889 Y102.864 E.02662
G1 X119.044 Y101.623 E.03025
G1 X119.448 Y100.44 E.03023
G1 X120.085 Y99.365 E.03022
G1 X120.927 Y98.441 E.03023
G1 X121.94 Y97.707 E.03025
G1 X122.828 Y97.285 E.02378
G1 X124.035 Y96.963 E.03021
G1 X125.283 Y96.893 E.03023
G1 X126.52 Y97.078 E.03025
G1 X127.692 Y97.511 E.03022
G1 X128.752 Y98.173 E.03022
G1 X129.557 Y98.925 E.02664
G1 X130.291 Y99.937 E.03023
G1 X130.713 Y100.825 E.02378
G1 X131.036 Y102.033 E.03024
G1 X131.111 Y103.132 E.02664
G1 X131.036 Y103.962 E.02016
M73 Q18 S2
G1 X130.805 Y104.915 E.02372
G1 X128.839 Y110.473 E.14258
G1 X128.478 Y111.193 E.01948
M73 P18 R2
G1 X127.83 Y111.982 E.02469
G1 X126.843 Y112.675 E.02917
G1 X125.907 Y113.01 E.02404
G1 X124.892 Y113.11 E.02467
G1 X123.704 Y112.902 E.02917
G1 X122.806 Y112.477 E.02403
G1 X122.017 Y111.83 E.02468
G1 X121.425 Y111.031 E.02405
G1 X121.161 Y110.473 E.01493
G1 X121.13 Y110.385 E.00226
;WIPE_START
G1 F8640
G1 X121.11 Y110.329 E-.01373
G1 X119.689 Y106.301 E-.98627
;WIPE_END
G1 Z.55 F720
; printing object Keyhole Face Insert.stl id:0 copy 0
G1 X126.787 Y100.936 F10800
G1 Z.35 F720
G1 E1 F2100
M204 S800
;TYPE:Perimeter
;WIDTH:0.533825
G1 F1040
G1 X126.825 Y100.964 E.00148
G1 X127.242 Y101.446 E.01994
;WIDTH:0.528732
G1 X127.509 Y101.926 E.01701
;WIDTH:0.532899
G1 X127.67 Y102.42 E.01622
G1 X127.729 Y102.936 E.01622
;WIDTH:0.535204
G1 X127.695 Y103.454 E.01628
G1 X127.559 Y103.955 E.01628
