; generated by PrusaSlicer 2.9.4 on 2026-03-18 at 00:30:23 UTC


;
;
; 

; external perimeters extrusion width = 0.45mm
; perimeters extrusion width = 0.45mm
; infill extrusion width = 0.45mm
; solid infill extrusion width = 0.45mm
; top infill extrusion width = 0.40mm
; first layer extrusion width = 0.42mm

M73 P0 R4
M73 Q0 S5
M201 X1000 Y1000 Z200 E5000 ; sets maximum accelerations, mm/sec^2
M203 X200 Y200 Z12 E120 ; sets maximum feedrates, mm / sec
M204 S1250 T1250 ; sets acceleration (S) and retract acceleration (R), mm/sec^2
M205 X8.00 Y8.00 Z0.40 E4.50 ; sets the jerk limits, mm/sec
M205 S0 T0 ; sets the minimum extruding and travel feed rate, mm/sec

; printing object Keyhole Internal Adapter.stl id:0 copy 0
; stop printing object Keyhole Internal Adapter.stl id:0 copy 0

;TYPE:Custom
M862.3 P "MK3S" ; printer model check
M862.1 P0.4 ; nozzle diameter check
M115 U3.14.1 ; tell printer latest fw version
G90 ; use absolute coordinates
M83 ; extruder relative mode
M104 S240 ; set extruder temp
M140 S90 ; set bed temp
M190 S90 ; wait for bed temp
M109 S240 ; wait for extruder temp
G28 W ; home all without mesh bed level
G80 X113.434 Y93.4336 W23.1302 H23.1328 ; mesh bed levelling

G1 Z0.2 F720
G1 Y-3 F1000 ; go outside print area
G92 E0
G1 X60 E9 F1000 ; intro line
G1 X100 E12.5 F1000 ; intro line
M73 P1 R4
M73 Q1 S4

G92 E0
M221 S95

; Don't change E values below. Excessive value can damage the printer.
M907 E430 ; set extruder motor current
G21 ; set units to millimeters
G90 ; use absolute coordinates
M83 ; use relative distances for extrusion

M900 K0.08 ; Filament gcode LA 1.5
M900 K45 ; Filament gcode LA 1.0




M107
;LAYER_CHANGE
;Z:0.2
;HEIGHT:0.2
G1 E-1 F2100
M73 P2 R4
M73 Q2 S4
G1 Z.4 F720
G1 X115.838 Y98.25 F10800
G1 Z.2 F720
G1 E1 F2100
M204 S800
;TYPE:Skirt/Brim
;WIDTH:0.42
G1 F1200
G1 X117.19 Y96.723 E.06395
G1 X118.112 Y95.942 E.03789
G1 X119.008 Y95.33 E.03402
G1 X119.977 Y94.789 E.0348
G1 X121.088 Y94.315 E.03787
G1 X123.059 Y93.788 E.06397
G1 X125.245 Y93.624 E.06873
G1 X127.272 Y93.851 E.06395
G1 X128.587 Y94.203 E.04268
G1 X129.711 Y94.644 E.03786
G1 X131.485 Y95.652 E.06397
G1 X133.157 Y97.07 E.06874
G1 X134.046 Y98.101 E.04268
G1 X134.726 Y99.098 E.03784
G1 X135.677 Y101.074 E.06876
G1 X136.033 Y102.228 E.03787
G1 X136.244 Y103.293 E.03404
G1 X136.36 Y104.396 E.03477
G1 X136.36 Y105.604 E.03788
G1 X136.07 Y107.623 E.06395
G1 X135.361 Y109.698 E.06875
M73 Q3 S4
G1 X134.805 Y110.77 E.03786
G1 X134.208 Y111.676 E.03402
G1 X133.516 Y112.544 E.03481
G1 X132.668 Y113.404 E.03787
M73 P3 R4
G1 X131.044 Y114.639 E.06397
G1 X129.083 Y115.62 E.06875
G1 X127.935 Y115.993 E.03785
G1 X126.873 Y116.22 E.03405
G1 X125.772 Y116.352 E.03477
G1 X124.564 Y116.37 E.03788
G1 X122.392 Y116.076 E.06872
G1 X121.232 Y115.737 E.03789
G1 X119.977 Y115.211 E.04267
G1 X118.112 Y114.058 E.06875
G1 X116.605 Y112.683 E.06396
G1 X115.838 Y111.75 E.03787
G1 X115.098 Y110.608 E.04267
G1 X114.256 Y108.75 E.06396
G1 X113.759 Y106.772 E.06395
G1 X113.627 Y104.583 E.06876
G1 X113.885 Y102.559 E.06397
G1 X114.256 Y101.25 E.04266
G1 X114.714 Y100.132 E.03788
G1 X115.807 Y98.302 E.06683
M204 S1000
G1 X116.091 Y98.55 F10800
M204 S800
G1 F1200
G1 X117.443 Y97.003 E.06442
G1 X118.347 Y96.237 E.03715
G1 X119.206 Y95.65 E.03262
G1 X120.136 Y95.132 E.03338
G1 X121.225 Y94.666 E.03714
G1 X123.131 Y94.158 E.06185
G1 X125.228 Y94.001 E.06593
G1 X127.188 Y94.219 E.06183
G1 X128.46 Y94.558 E.04127
G1 X129.563 Y94.991 E.03715
G1 X131.277 Y95.967 E.06184
G1 X132.881 Y97.326 E.06592
G1 X133.661 Y98.219 E.03718
M73 Q4 S4
G1 X134.26 Y99.069 E.0326
G1 X134.793 Y99.991 E.03339
G1 X135.275 Y101.073 E.03714
G1 X135.834 Y103.1 E.06593
G1 X135.975 Y104.277 E.03717
M73 P4 R4
G1 X135.983 Y105.593 E.04126
G1 X135.701 Y107.545 E.06184
G1 X135.021 Y109.534 E.06591
G1 X134.475 Y110.586 E.03716
G1 X133.903 Y111.455 E.03262
G1 X133.24 Y112.287 E.03336
G1 X132.408 Y113.132 E.03718
G1 X130.837 Y114.324 E.06183
G1 X128.956 Y115.265 E.06595
G1 X127.829 Y115.631 E.03715
G1 X126.811 Y115.848 E.03264
G1 X125.755 Y115.975 E.03335
G1 X124.57 Y115.993 E.03716
G1 X122.486 Y115.711 E.06594
G1 X120.614 Y115.09 E.06184
G1 X119.554 Y114.56 E.03716
G1 X118.452 Y113.842 E.04124
G1 X116.978 Y112.53 E.06187
G1 X115.692 Y110.867 E.06591
G1 X114.794 Y109.111 E.06184
G1 X114.224 Y107.223 E.06184
G1 X114.035 Y105.921 E.04125
G1 X114 Y104.736 E.03717
G1 X114.251 Y102.649 E.06591
G1 X114.843 Y100.768 E.06183
G1 X115.358 Y99.7 E.03718
G1 X116.053 Y98.596 E.0409
M204 S1000
;WIPE_START
G1 F8640
G1 X116.091 Y98.55 E-.01378
G1 X117.443 Y97.003 E-.4744
G1 X118.347 Y96.237 E-.2736
G1 X119.199 Y95.655 E-.23822
;WIPE_END
G1 Z.4 F720
; printing object Keyhole Internal Adapter.stl id:0 copy 0
G1 X126.255 Y103.045 F10800
G1 Z.2 F720
G1 E1 F2100
M73 Q5 S4
M204 S800
;TYPE:Perimeter
;WIDTH:0.419999
G1 F1200
G1 X126.589 Y103.309 E.01335
G1 X126.813 Y103.534 E.00995
G1 X127.086 Y103.958 E.01581
G1 X127.288 Y104.567 E.02012
G1 X127.318 Y105.252 E.0215
G1 X127.153 Y105.895 E.02081
G1 X126.813 Y106.466 E.02084
G1 X126.364 Y106.886 E.01928
G1 X125.973 Y107.105 E.01405
G1 X125.578 Y107.26 E.0133
G1 X125.079 Y107.332 E.01581
M73 P5 R4
G1 X124.418 Y107.26 E.02085
G1 X123.874 Y107.037 E.01843
G1 X123.67 Y106.918 E.0074
G1 X123.288 Y106.588 E.01583
G1 X122.91 Y106.042 E.02082
G1 X122.701 Y105.412 E.02081
G1 X122.678 Y104.748 E.02083
G1 X122.843 Y104.105 E.02081
G1 X123.183 Y103.534 E.02084
G1 X123.67 Y103.082 E.02083
G1 X124.264 Y102.785 E.02082
G1 X124.835 Y102.678 E.01821
G1 X125.047 Y102.669 E.00665
G1 X125.572 Y102.739 E.01661
G1 X126.191 Y102.995 E.021
G1 X126.208 Y103.008 E.00067
M204 S1000
G1 X126.055 Y103.356 F10800
M204 S800
;TYPE:External perimeter
G1 F1200
G1 X126.461 Y103.697 E.01662
G1 X126.768 Y104.162 E.01747
G1 X126.927 Y104.674 E.01681
G1 X126.941 Y105.252 E.01813
G1 X126.791 Y105.789 E.01748
G1 X126.496 Y106.262 E.01748
G1 X126.117 Y106.601 E.01594
G1 X125.576 Y106.872 E.01897
G1 X125.025 Y106.959 E.01749
G1 X124.472 Y106.887 E.01749
G1 X123.962 Y106.662 E.01748
G1 X123.535 Y106.303 E.01749
G1 X123.227 Y105.838 E.01749
G1 X123.063 Y105.305 E.01749
G1 X123.055 Y104.748 E.01747
G1 X123.205 Y104.211 E.01748
G1 X123.5 Y103.738 E.01748
G1 X123.917 Y103.367 E.0175
G1 X124.42 Y103.128 E.01746
G1 X124.945 Y103.043 E.01668
G1 X125.522 Y103.113 E.01822
G1 X126.005 Y103.325 E.01654
M204 S1000
;WIPE_START
G1 F8640
G1 X126.055 Y103.356 E-.01358
G1 X126.461 Y103.697 E-.12243
G1 X126.768 Y104.162 E-.12866
G1 X126.927 Y104.674 E-.12379
G1 X126.941 Y105.252 E-.1335
G1 X126.791 Y105.789 E-.12874
G1 X126.496 Y106.262 E-.12872
G1 X126.117 Y106.601 E-.11741
G1 X125.717 Y106.801 E-.10317
;WIPE_END
G1 Z.4 F720
G1 X118.126 Y108.282 F10800
G1 Z.2 F720
G1 E1 F2100
M204 S800
;TYPE:Perimeter
G1 F1200
G1 X117.839 Y107.655 E.02162
G1 X117.635 Y107.035 E.02046
G1 X117.444 Y106.136 E.02882
G1 X117.375 Y105.435 E.02209
G1 X117.362 Y104.774 E.02073
G1 X117.444 Y103.861 E.02874
G1 X117.634 Y102.968 E.02863
G1 X117.928 Y102.108 E.0285
G1 X118.459 Y101.058 E.03689
G1 X118.816 Y100.512 E.02045
G1 X119.398 Y99.804 E.02874
G1 X120.059 Y99.173 E.02865
G1 X120.79 Y98.625 E.02865
G1 X121.581 Y98.168 E.02864
G1 X122.421 Y97.809 E.02864
G1 X123.298 Y97.553 E.02865
G1 X124.194 Y97.404 E.02848
G1 X125.371 Y97.374 E.03692
G1 X126.021 Y97.43 E.02046
G1 X126.92 Y97.607 E.02873
G1 X127.789 Y97.889 E.02865
G1 X128.618 Y98.273 E.02865
G1 X129.395 Y98.754 E.02865
G1 X130.109 Y99.323 E.02863
G1 X130.751 Y99.974 E.02867
G1 X131.31 Y100.697 E.02865
M73 Q6 S4
G1 X131.778 Y101.481 E.02863
G1 X132.15 Y102.316 E.02866
G1 X132.419 Y103.189 E.02864
G1 X132.512 Y103.702 E.01635
G1 X132.6 Y104.346 E.02038
G1 X132.63 Y104.899 E.01736
G1 X132.624 Y105.454 E.0174
G1 X132.514 Y106.364 E.02874
G1 X132.297 Y107.254 E.02872
M73 P6 R4
G1 X132.055 Y107.915 E.02207
G1 X131.779 Y108.518 E.02079
G1 X131.421 Y109.129 E.0222
G1 X131.043 Y109.671 E.02072
G1 X130.44 Y110.361 E.02873
G1 X129.761 Y110.972 E.02864
G1 X129.014 Y111.498 E.02865
G1 X128.207 Y111.932 E.02873
G1 X127.554 Y112.195 E.02207
G1 X126.923 Y112.393 E.02074
G1 X126.023 Y112.57 E.02876
G1 X125.118 Y112.638 E.02846
G1 X123.943 Y112.562 E.03692
G1 X123.301 Y112.448 E.02044
G1 X122.421 Y112.191 E.02874
G1 X121.581 Y111.832 E.02864
G1 X120.79 Y111.375 E.02864
G1 X120.059 Y110.827 E.02865
G1 X119.398 Y110.196 E.02865
G1 X118.818 Y109.49 E.02865
G1 X118.329 Y108.725 E.02847
G1 X118.151 Y108.337 E.01338
M204 S1000
G1 X117.791 Y108.456 F10800
M204 S800
;TYPE:External perimeter
G1 F1200
G1 X117.487 Y107.793 E.02287
G1 X117.27 Y107.134 E.02175
G1 X117.071 Y106.194 E.03013
G1 X116.998 Y105.458 E.02319
G1 X116.985 Y104.761 E.02186
G1 X117.071 Y103.805 E.0301
G1 X117.27 Y102.867 E.03006
G1 X117.58 Y101.962 E.02999
G1 X118.132 Y100.869 E.03839
G1 X118.512 Y100.289 E.02174
G1 X119.121 Y99.547 E.0301
G1 X119.814 Y98.885 E.03005
G1 X120.582 Y98.309 E.0301
G1 X121.412 Y97.83 E.03005
G1 X122.294 Y97.453 E.03007
G1 X123.214 Y97.184 E.03005
G1 X124.158 Y97.028 E.03
G1 X125.382 Y96.996 E.03839
G1 X126.073 Y97.056 E.02175
G1 X127.015 Y97.241 E.0301
G1 X127.927 Y97.537 E.03006
G1 X128.797 Y97.941 E.03008
G1 X129.613 Y98.445 E.03007
G1 X130.362 Y99.042 E.03003
G1 X131.035 Y99.726 E.03009
G1 X131.622 Y100.484 E.03006
G1 X132.114 Y101.307 E.03006
G1 X132.504 Y102.183 E.03007
G1 X132.786 Y103.099 E.03005
G1 X132.883 Y103.635 E.01708
G1 X132.976 Y104.32 E.02167
G1 X133.007 Y104.903 E.01831
G1 X133 Y105.479 E.01806
G1 X132.886 Y106.431 E.03006
G1 X132.658 Y107.364 E.03011
G1 X132.404 Y108.059 E.0232
G1 X132.114 Y108.693 E.02186
G1 X131.739 Y109.332 E.02323
G1 X131.34 Y109.903 E.02184
M73 Q7 S4
G1 X130.709 Y110.626 E.03009
G1 X129.996 Y111.268 E.03008
G1 X129.212 Y111.82 E.03006
G1 X128.367 Y112.274 E.03008
G1 X127.681 Y112.551 E.0232
G1 X127.016 Y112.759 E.02185
G1 X126.074 Y112.944 E.0301
M73 P7 R4
G1 X125.12 Y113.016 E.03
G1 X123.898 Y112.937 E.03839
G1 X123.215 Y112.816 E.02175
G1 X122.294 Y112.547 E.03008
G1 X121.412 Y112.17 E.03007
G1 X120.582 Y111.691 E.03005
G1 X119.814 Y111.115 E.0301
G1 X119.121 Y110.453 E.03005
G1 X118.512 Y109.712 E.03007
G1 X117.997 Y108.906 E.02999
G1 X117.816 Y108.511 E.01362
M204 S1000
;WIPE_START
G1 F8640
G1 X117.791 Y108.456 E-.01395
G1 X117.487 Y107.793 E-.16841
G1 X117.27 Y107.134 E-.1602
G1 X117.071 Y106.194 E-.22186
G1 X116.998 Y105.458 E-.17078
G1 X116.985 Y104.761 E-.16097
G1 X117.025 Y104.313 E-.10383
;WIPE_END
G1 Z.4 F720
G1 X129.037 Y98.71 F10800
G1 Z.2 F720
G1 E1 F2100
M204 S800
;TYPE:Solid infill
;WIDTH:0.427482
G1 F1200
G1 X130.509 Y100.185 E.06663
G1 X131.044 Y100.878 E.02799
G1 X131.493 Y101.629 E.02798
G1 X131.558 Y101.774 E.00508
G1 X128.231 Y98.447 E.15045
G1 X127.671 Y98.188 E.01973
G1 X127.311 Y98.071 E.0121
G1 X131.93 Y102.69 E.20888
G1 X132.107 Y103.265 E.01924
G1 X132.14 Y103.444 E.00582
G1 X126.558 Y97.862 E.25243
G1 X125.892 Y97.74 E.02165
G1 X132.26 Y104.108 E.28797
G1 X132.303 Y104.695 E.01882
M73 Q8 S4
G1 X125.304 Y97.696 E.31651
G1 X124.774 Y97.71 E.01695
M73 P8 R4
G1 X132.305 Y105.241 E.34056
G1 X132.303 Y105.433 E.00614
G1 X132.266 Y105.745 E.01005
G1 X124.244 Y97.723 E.36277
G1 X123.775 Y97.798 E.01519
G1 X132.207 Y106.231 E.38133
G1 X132.108 Y106.675 E.01455
G1 X123.315 Y97.882 E.39763
G1 X122.894 Y98.005 E.01402
M73 Q9 S4
G1 X132.002 Y107.113 E.41188
G1 X131.86 Y107.515 E.01363
M73 P9 R4
G1 X122.478 Y98.133 E.42427
G1 X122.097 Y98.296 E.01325
G1 X131.707 Y107.906 E.43458
G1 X131.536 Y108.279 E.01312
G1 X127.538 Y104.281 E.1808
G1 X127.449 Y103.98 E.01004
G1 X127.373 Y103.813 E.00587
G1 X127.005 Y103.255 E.02137
G1 X126.53 Y102.834 E.0203
G1 X126.348 Y102.714 E.00697
G1 X125.768 Y102.455 E.02031
G1 X125.702 Y102.445 E.00213
G1 X121.717 Y98.46 E.18021
G1 X121.372 Y98.659 E.01274
M73 Q10 S4
G1 X125.062 Y102.348 E.16684
G1 X124.85 Y102.352 E.00678
G1 X124.567 Y102.397 E.00916
M73 P10 R4
G1 X121.027 Y98.858 E.16006
G1 X120.711 Y99.085 E.01244
G1 X124.128 Y102.502 E.15452
G1 X123.751 Y102.669 E.01318
G1 X120.4 Y99.318 E.15154
G1 X120.108 Y99.569 E.01231
G1 X123.416 Y102.878 E.14962
G1 X123.13 Y103.135 E.0123
G1 X119.83 Y99.835 E.14923
G1 X119.561 Y100.111 E.01232
G1 X122.876 Y103.425 E.14989
G1 X122.661 Y103.754 E.01257
G1 X119.316 Y100.409 E.15127
G1 X119.071 Y100.708 E.01236
G1 X122.501 Y104.138 E.15511
G1 X122.381 Y104.562 E.01409
G1 X118.856 Y101.037 E.15941
G1 X118.655 Y101.38 E.01271
G1 X122.528 Y105.253 E.17514
M204 S1000
;WIPE_START
G1 F8640
M73 Q11 S4
G1 X119.466 Y102.191 E-1
;WIPE_END
G1 Z.4 F720
G1 X127.468 Y104.755 F10800
G1 Z.2 F720
M73 P11 R4
G1 E1 F2100
M204 S800
G1 F1200
G1 X131.343 Y108.629 E.17521
G1 X131.141 Y108.971 E.0127
G1 X127.61 Y105.441 E.15965
G1 X127.493 Y105.867 E.01413
G1 X130.917 Y109.291 E.15484
G1 X130.68 Y109.598 E.0124
G1 X127.332 Y106.25 E.1514
G1 X127.115 Y106.577 E.01255
G1 X130.427 Y109.889 E.14977
G1 X130.168 Y110.174 E.01231
G1 X126.864 Y106.87 E.14941
G1 X126.576 Y107.125 E.0123
G1 X129.882 Y110.432 E.14953
G1 X129.596 Y110.689 E.0123
G1 X126.241 Y107.334 E.15172
G1 X125.864 Y107.501 E.01318
G1 X129.281 Y110.918 E.15452
G1 X128.962 Y111.143 E.01248
G1 X125.418 Y107.599 E.16027
G1 X125.024 Y107.659 E.01274
M73 Q12 S4
G1 X124.921 Y107.646 E.00332
G1 X128.621 Y111.346 E.16732
G1 X128.267 Y111.536 E.01285
M73 P12 R4
G1 X124.288 Y107.557 E.17994
G1 X124.155 Y107.517 E.00444
G1 X123.548 Y107.229 E.02148
G1 X123.072 Y106.825 E.01996
G1 X122.922 Y106.653 E.0073
G1 X122.579 Y106.106 E.02065
G1 X122.465 Y105.734 E.01244
G1 X118.473 Y101.741 E.18055
G1 X118.29 Y102.103 E.01297
G1 X127.898 Y111.711 E.43449
G1 X127.511 Y111.867 E.01334
G1 X118.136 Y102.492 E.42395
G1 X117.997 Y102.897 E.01369
G1 X127.101 Y112.001 E.4117
G1 X126.671 Y112.116 E.01423
M73 P13 R4
M73 Q13 S4
G1 X117.885 Y103.329 E.39734
G1 X117.79 Y103.778 E.01468
G1 X126.217 Y112.205 E.38108
G1 X125.98 Y112.252 E.00773
G1 X125.738 Y112.27 E.00776
G1 X117.73 Y104.262 E.36213
G1 X117.685 Y104.761 E.01602
G1 X125.232 Y112.308 E.34129
G1 X125.116 Y112.316 E.00372
G1 X124.668 Y112.288 E.01435
G1 X117.693 Y105.312 E.31544
G1 X117.743 Y105.907 E.01909
M73 P14 R4
M73 Q14 S4
G1 X124.087 Y112.25 E.28686
G1 X123.44 Y112.147 E.02095
G1 X117.864 Y106.571 E.25216
G1 X117.945 Y106.951 E.01242
G1 X118.065 Y107.316 E.01229
G1 X122.683 Y111.934 E.20883
G1 X122.529 Y111.889 E.00513
G1 X121.769 Y111.564 E.02643
G1 X118.472 Y108.267 E.1491
G1 X118.611 Y108.571 E.01069
G1 X119.078 Y109.301 E.02771
G1 X119.611 Y109.95 E.02685
G1 X120.961 Y111.3 E.06105
M204 S1000
;LAYER_CHANGE
;Z:0.35
;HEIGHT:0.15
;BEFORE_LAYER_CHANGE
G92 E0.0
;0.35


;WIPE_START
G1 F8640
G1 X119.611 Y109.95 E-.44084
G1 X119.078 Y109.301 E-.19392
G1 X118.611 Y108.571 E-.2001
G1 X118.472 Y108.267 E-.07718
G1 X118.741 Y108.536 E-.08796
;WIPE_END
G1 Z.35 F720
;AFTER_LAYER_CHANGE
;0.35
M104 S230 ; set temperature
M140 S85 ; set bed temperature
; stop printing object Keyhole Internal Adapter.stl id:0 copy 0
G1 Z.55
G1 X118.941 Y114.57 F10800
G1 Z.35 F720
G1 E1 F2100
;TYPE:Skirt/Brim
;WIDTH:0.42
G1 F3000
G1 X118.112 Y114.058 E.02356
G1 X116.605 Y112.683 E.04934
G1 X115.838 Y111.75 E.02921
G1 X115.098 Y110.608 E.03291
G1 X114.256 Y108.75 E.04933
G1 X113.759 Y106.772 E.04932
G1 X113.627 Y104.583 E.05304
G1 X113.885 Y102.559 E.04935
G1 X114.256 Y101.25 E.0329
G1 X114.714 Y100.132 E.02922
G1 X115.838 Y98.25 E.05302
G1 X117.19 Y96.723 E.04933
G1 X118.112 Y95.942 E.02922
M73 Q15 S4
G1 X119.008 Y95.33 E.02624
G1 X119.977 Y94.789 E.02684
G1 X121.088 Y94.315 E.02921
G1 X123.059 Y93.788 E.04934
G1 X125.245 Y93.624 E.05302
G1 X127.272 Y93.851 E.04933
G1 X128.587 Y94.203 E.03292
G1 X129.711 Y94.644 E.0292
M73 P15 R4
G1 X131.485 Y95.652 E.04935
G1 X133.157 Y97.07 E.05302
G1 X134.046 Y98.101 E.03292
G1 X134.726 Y99.098 E.02919
G1 X135.677 Y101.074 E.05304
G1 X136.033 Y102.228 E.02921
G1 X136.244 Y103.293 E.02626
G1 X136.36 Y104.396 E.02682
G1 X136.36 Y105.604 E.02922
G1 X136.07 Y107.623 E.04933
G1 X135.361 Y109.698 E.05303
G1 X134.805 Y110.77 E.02921
G1 X134.208 Y111.676 E.02624
G1 X133.516 Y112.544 E.02685
G1 X132.668 Y113.404 E.02921
G1 X131.044 Y114.639 E.04934
G1 X129.083 Y115.62 E.05303
G1 X127.935 Y115.993 E.02919
