; generated by PrusaSlicer 2.9.4 on 2026-03-20 at 00:17:35 UTC


;
;
; 

; external perimeters extrusion width = 0.45mm
; perimeters extrusion width = 0.45mm
; infill extrusion width = 0.45mm
; solid infill extrusion width = 0.45mm
; top infill extrusion width = 0.40mm
; first layer extrusion width = 0.50mm

M73 P0 R2
M73 Q0 S2
M201 X1000 Y1000 Z200 E5000 ; sets maximum accelerations, mm/sec^2
M203 X200 Y200 Z12 E120 ; sets maximum feedrates, mm / sec
M204 S1250 T1250 ; sets acceleration (S) and retract acceleration (R), mm/sec^2
M205 X8.00 Y8.00 Z0.40 E4.50 ; sets the jerk limits, mm/sec
M205 S0 T0 ; sets the minimum extruding and travel feed rate, mm/sec

; printing object Keyhole Face Insert.stl id:0 copy 0
; stop printing object Keyhole Face Insert.stl id:0 copy 0

;TYPE:Custom
M862.3 P "MK3S" ; printer model check
M862.1 P0.4 ; nozzle diameter check
M115 U3.14.1 ; tell printer latest fw version
G90 ; use absolute coordinates
M83 ; extruder relative mode
M104 S240 ; set extruder temp
M140 S90 ; set bed temp
M190 S90 ; wait for bed temp
M109 S240 ; wait for extruder temp
G28 W ; home all without mesh bed level
G80 X117.706 Y95.7049 W14.588 H18.5861 ; mesh bed levelling

G1 Z0.2 F720
G1 Y-3 F1000 ; go outside print area
G92 E0
G1 X60 E9 F1000 ; intro line
G1 X100 E12.5 F1000 ; intro line
M73 P2 R2
M73 Q2 S2

G92 E0
M221 S95

; Don't change E values below. Excessive value can damage the printer.
M907 E430 ; set extruder motor current
G21 ; set units to millimeters
G90 ; use absolute coordinates
M83 ; use relative distances for extrusion

M900 K0.08 ; Filament gcode LA 1.5
M900 K45 ; Filament gcode LA 1.0




M107
;LAYER_CHANGE
;Z:0.2
;HEIGHT:0.2
G1 E-1 F2100
M73 P3 R2
M73 Q3 S2
G1 Z.4 F720
G1 X119.305 Y98.815 F10800
G1 Z.2 F720
M73 P4 R2
M73 Q4 S2
G1 E1 F2100
M204 S800
;TYPE:Skirt/Brim
;WIDTH:0.5
G1 F900
G1 X120.276 Y97.743 E.05497
G1 X121.444 Y96.892 E.05492
G1 X122.508 Y96.386 E.04478
G1 X123.905 Y96.018 E.05491
G1 X125.349 Y95.941 E.05496
G1 X126.777 Y96.159 E.0549
G1 X128.131 Y96.664 E.05492
G1 X129.355 Y97.433 E.05494
G1 X130.254 Y98.273 E.04676
G1 X131.106 Y99.441 E.05495
G1 X131.612 Y100.505 E.04478
G1 X131.981 Y101.903 E.05495
G1 X132.065 Y103.131 E.04678
M73 Q5 S2
G1 X131.982 Y104.092 E.03666
G1 X131.704 Y105.233 E.04463
G1 X129.738 Y110.794 E.22417
G1 X129.296 Y111.684 E.03777
M73 P5 R2
G1 X128.471 Y112.689 E.04942
G1 X127.942 Y113.123 E.02601
G1 X127.252 Y113.537 E.03058
G1 X126.139 Y113.935 E.04492
G1 X124.845 Y114.063 E.04942
G1 X123.678 Y113.889 E.04484
G1 X122.477 Y113.392 E.0494
G1 X121.529 Y112.689 E.04486
G1 X120.704 Y111.684 E.04942
G1 X120.262 Y110.794 E.03777
G1 X118.232 Y105.032 E.23219
G1 X118.018 Y104.092 E.03664
M73 Q6 S2
G1 X117.935 Y102.863 E.04682
G1 X118.11 Y101.429 E.05491
G1 X118.573 Y100.06 E.05493
M73 P6 R2
G1 X119.275 Y98.866 E.05264
M204 S1000
G1 X119.667 Y99.098 F10800
M204 S800
G1 F900
G1 X119.679 Y99.078 E.00089
G1 X120.588 Y98.077 E.05139
G1 X121.681 Y97.283 E.05134
G1 X122.661 Y96.817 E.04124
G1 X123.967 Y96.47 E.05136
G1 X125.317 Y96.397 E.05138
G1 X126.654 Y96.599 E.05139
G1 X127.921 Y97.07 E.05137
G1 X129.066 Y97.788 E.05137
G1 X129.92 Y98.586 E.04442
G1 X130.715 Y99.679 E.05137
G1 X131.181 Y100.658 E.04121
G1 X131.528 Y101.965 E.0514
G1 X131.608 Y103.131 E.04442
G1 X131.529 Y104.03 E.0343
M73 Q7 S2
G1 X131.273 Y105.08 E.04108
G1 X129.307 Y110.64 E.22414
G1 X128.904 Y111.449 E.03435
M73 P7 R2
G1 X128.164 Y112.35 E.04431
G1 X127.056 Y113.124 E.05137
G1 X126.028 Y113.492 E.0415
G1 X124.868 Y113.606 E.0443
G1 X123.789 Y113.446 E.04146
G1 X122.712 Y113 E.0443
G1 X121.836 Y112.35 E.04146
G1 X121.096 Y111.449 E.04431
G1 X120.693 Y110.64 E.03435
G1 X118.672 Y104.909 E.23096
G1 X118.471 Y104.03 E.03427
G1 X118.392 Y102.863 E.04445
M73 Q8 S2
G1 X118.557 Y101.522 E.05135
G1 X118.993 Y100.242 E.05139
G1 X119.637 Y99.149 E.04822
M204 S1000
G1 X120.029 Y99.381 F10800
M73 P8 R2
M204 S800
G1 F900
G1 X120.052 Y99.342 E.00172
G1 X120.9 Y98.411 E.04786
G1 X121.919 Y97.673 E.04782
G1 X122.814 Y97.247 E.03767
G1 X124.03 Y96.923 E.04783
G1 X125.286 Y96.853 E.04781
G1 X126.53 Y97.04 E.04781
G1 X127.711 Y97.475 E.04783
G1 X128.778 Y98.142 E.04782
G1 X129.586 Y98.898 E.04205
G1 X130.325 Y99.916 E.04781
G1 X130.751 Y100.812 E.03771
G1 X131.076 Y102.027 E.0478
G1 X131.151 Y103.131 E.04206
G1 X131.076 Y103.968 E.03194
G1 X130.843 Y104.928 E.03755
G1 X128.877 Y110.486 E.22407
G1 X128.512 Y111.214 E.03095
M73 Q9 S2
G1 X127.857 Y112.012 E.03924
M73 P9 R2
G1 X126.861 Y112.711 E.04625
G1 X125.917 Y113.049 E.03811
G1 X124.89 Y113.15 E.03922
G1 X123.691 Y112.939 E.04627
G1 X122.785 Y112.511 E.03808
G1 X121.987 Y111.857 E.03921
G1 X121.391 Y111.052 E.03807
G1 X121.123 Y110.486 E.0238
G1 X119.113 Y104.786 E.22971
G1 X118.924 Y103.968 E.03191
G1 X118.849 Y102.864 E.04206
G1 X119.005 Y101.615 E.04784
G1 X119.412 Y100.424 E.04784
G1 X119.998 Y99.433 E.04376
M204 S1000
;WIPE_START
G1 F8640
G1 X120.029 Y99.381 E-.01398
G1 X120.052 Y99.342 E-.01045
G1 X120.9 Y98.411 E-.29078
G1 X121.919 Y97.673 E-.29052
M73 Q10 S2
G1 X122.814 Y97.247 E-.22887
G1 X123.506 Y97.063 E-.1654
;WIPE_END
G1 Z.4 F720
; printing object Keyhole Face Insert.stl id:0 copy 0
G1 X125 Y105.799 F10800
G1 Z.2 F720
M73 P10 R2
G1 E1 F2100
M204 S800
;TYPE:Perimeter
;WIDTH:0.499999
G1 F900
G1 X124.566 Y105.772 E.01653
G1 X124.023 Y105.625 E.02138
;WIDTH:0.493646
G1 X123.578 Y105.389 E.01888
;WIDTH:0.449085
G1 X123.133 Y105.058 E.01873
;WIDTH:0.45134
G1 X122.788 Y104.686 E.01723
G1 X122.519 Y104.254 E.01728
;WIDTH:0.450453
G1 X122.315 Y103.722 E.01931
G1 X122.228 Y103.223 E.01716
;WIDTH:0.449263
G1 X122.24 Y102.672 E.01862
;WIDTH:0.451628
G1 X122.345 Y102.168 E.0175
G1 X122.501 Y101.782 E.01415
;WIDTH:0.459616
G1 X122.8 Y101.321 E.01904
G1 X123.176 Y100.907 E.01938
;WIDTH:0.454276
G1 X123.642 Y100.579 E.01949
G1 X124.166 Y100.352 E.01953
;WIDTH:0.453782
G1 X124.738 Y100.234 E.01995
;WIDTH:0.453464
G1 X125.333 Y100.24 E.02031
;WIDTH:0.44891
G1 X125.849 Y100.355 E.01785
;WIDTH:0.443812
G1 X126.333 Y100.563 E.01756
;WIDTH:0.459658
G1 X126.828 Y100.918 E.02111
G1 X127.078 Y101.153 E.01189
;WIDTH:0.453312
G1 X127.416 Y101.632 E.02001
;WIDTH:0.45485
G1 X127.648 Y102.169 E.02004
G1 X127.741 Y102.535 E.01293
;WIDTH:0.449932
G1 X127.779 Y103.062 E.01788
G1 X127.717 Y103.586 E.01786
;WIDTH:0.449478
G1 X127.557 Y104.09 E.01788
;WIDTH:0.45043
G1 X127.312 Y104.545 E.01751
G1 X126.968 Y104.962 E.01832
;WIDTH:0.451168
G1 X126.561 Y105.3 E.01796
;WIDTH:0.47672
G1 X126.102 Y105.566 E.01914
;WIDTH:0.499999
G1 X125.598 Y105.739 E.02025
G1 X125.068 Y105.803 E.02029
G1 X125.06 Y105.802 E.00031
M204 S1000
G1 X125 Y105.341 F10800
M204 S800
;TYPE:External perimeter
G1 F900
G1 X124.644 Y105.321 E.01355
G1 X124.211 Y105.212 E.01697
G1 X123.807 Y105.022 E.01697
G1 X123.354 Y104.665 E.02192
G1 X123.14 Y104.434 E.01197
M73 Q11 S2
G1 X122.902 Y104.056 E.01698
G1 X122.729 Y103.583 E.01914
G1 X122.659 Y103.201 E.01476
G1 X122.691 Y102.613 E.02238
G1 X122.752 Y102.316 E.01152
G1 X122.902 Y101.942 E.01531
G1 X123.278 Y101.402 E.02501
G1 X123.655 Y101.073 E.01902
G1 X124.044 Y100.853 E.01699
M73 P11 R2
G1 X124.467 Y100.711 E.01696
G1 X124.91 Y100.651 E.01699
G1 X125.356 Y100.677 E.01698
G1 X125.829 Y100.804 E.01861
G1 X126.25 Y101.02 E.01798
G1 X126.677 Y101.355 E.02063
G1 X126.988 Y101.747 E.01902
G1 X127.232 Y102.291 E.02266
G1 X127.311 Y102.576 E.01124
G1 X127.346 Y103.054 E.01822
G1 X127.303 Y103.465 E.01571
G1 X127.125 Y103.986 E.02093
G1 X126.964 Y104.287 E.01297
G1 X126.685 Y104.636 E.01698
G1 X126.305 Y104.948 E.01869
G1 X125.956 Y105.145 E.01523
G1 X125.393 Y105.307 E.02227
G1 X125.077 Y105.346 E.0121
G1 X125.06 Y105.345 E.00065
M204 S1000
;WIPE_START
G1 F8640
G1 X125 Y105.341 E-.01388
G1 X124.644 Y105.321 E-.08233
G1 X124.211 Y105.212 E-.1031
G1 X123.807 Y105.022 E-.10309
G1 X123.354 Y104.665 E-.13318
G1 X123.14 Y104.434 E-.07271
G1 X122.902 Y104.056 E-.10314
G1 X122.729 Y103.583 E-.11629
G1 X122.659 Y103.201 E-.08967
G1 X122.691 Y102.613 E-.13597
G1 X122.732 Y102.415 E-.04664
;WIPE_END
G1 Z.4 F720
G1 X124.963 Y110.154 F10800
G1 Z.2 F720
G1 E1 F2100
M204 S800
;TYPE:Perimeter
G1 F900
G1 X124.663 Y110.109 E.01153
G1 X124.265 Y109.895 E.01717
G1 X123.967 Y109.532 E.01785
G1 X123.841 Y109.112 E.01667
G1 X123.832 Y106.377 E.10395
G1 X123.776 Y106.108 E.01044
G1 X123.71 Y105.995 E.00497
;WIDTH:0.493646
G1 X123.327 Y105.709 E.01791
;WIDTH:0.449085
G1 X122.852 Y105.351 E.02009
;WIDTH:0.451228
G1 X122.434 Y104.89 E.02113
M73 Q12 S2
G1 X122.13 Y104.379 E.02019
;WIDTH:0.453809
G1 X121.899 Y103.739 E.02325
G1 X121.821 Y103.207 E.01837
;WIDTH:0.449512
G1 X121.83 Y102.688 E.01755
;WIDTH:0.448435
G1 X121.929 Y102.149 E.01848
;WIDTH:0.450281
G1 X122.138 Y101.6 E.0199
;WIDTH:0.459616
G1 X122.478 Y101.058 E.02217
M73 P12 R2
G1 X122.923 Y100.584 E.02253
;WIDTH:0.454198
G1 X123.458 Y100.212 E.02228
G1 X124.017 Y99.969 E.02084
;WIDTH:0.453782
G1 X124.337 Y99.893 E.01124
;WIDTH:0.448308
G1 X124.934 Y99.816 E.02029
;WIDTH:0.450953
G1 X125.561 Y99.862 E.02133
;WIDTH:0.45219
G1 X126.188 Y100.043 E.02221
G1 X126.678 Y100.294 E.01874
;WIDTH:0.459658
G1 X127.082 Y100.588 E.01731
G1 X127.406 Y100.909 E.0158
;WIDTH:0.453312
G1 X127.787 Y101.456 E.02275
;WIDTH:0.45485
G1 X128.035 Y102.028 E.02135
G1 X128.146 Y102.501 E.01664
;WIDTH:0.452698
G1 X128.185 Y103.136 E.02168
G1 X128.109 Y103.692 E.01912
;WIDTH:0.454777
G1 X127.88 Y104.368 E.02444
G1 X127.627 Y104.803 E.01723
;WIDTH:0.4505
G1 X127.244 Y105.258 E.02016
;WIDTH:0.451168
G1 X126.787 Y105.639 E.0202
;WIDTH:0.47672
G1 X126.348 Y105.933 E.01906
;WIDTH:0.499999
G1 X126.2 Y106.172 E.01068
G1 X126.168 Y106.377 E.00789
G1 X126.159 Y109.159 E.10573
G1 X125.958 Y109.659 E.02048
G1 X125.751 Y109.882 E.01156
G1 X125.337 Y110.109 E.01794
G1 X125.023 Y110.156 E.01207
M204 S1000
G1 X124.985 Y110.619 F10800
M204 S800
;TYPE:External perimeter
G1 F900
G1 X124.529 Y110.551 E.01752
G1 X124.314 Y110.45 E.00903
G1 X123.975 Y110.248 E.015
G1 X123.711 Y109.955 E.01499
G1 X123.499 Y109.599 E.01575
G1 X123.384 Y109.158 E.01732
G1 X123.375 Y106.379 E.10562
G1 X123.335 Y106.251 E.0051
M73 Q13 S2
G1 X122.569 Y105.676 E.0364
G1 X122.204 Y105.294 E.02008
G1 X121.864 Y104.811 E.02245
G1 X121.628 Y104.328 E.02043
G1 X121.471 Y103.813 E.02046
G1 X121.39 Y103.222 E.02267
M73 P13 R2
G1 X121.409 Y102.569 E.02483
G1 X121.535 Y101.944 E.02423
G1 X121.726 Y101.445 E.02031
G1 X122.113 Y100.809 E.0283
G1 X122.619 Y100.267 E.02818
G1 X123.224 Y99.84 E.02814
G1 X123.904 Y99.545 E.02817
G1 X124.578 Y99.405 E.02616
G1 X125.097 Y99.379 E.01975
G1 X125.612 Y99.427 E.01966
G1 X126.33 Y99.628 E.02834
G1 X126.991 Y99.971 E.0283
G1 X127.413 Y100.298 E.02029
G1 X127.76 Y100.659 E.01903
G1 X128.185 Y101.283 E.02869
G1 X128.468 Y101.959 E.02785
G1 X128.577 Y102.472 E.01993
G1 X128.616 Y103.18 E.02695
G1 X128.576 Y103.57 E.0149
G1 X128.455 Y104.094 E.02044
G1 X128.252 Y104.593 E.02047
G1 X127.972 Y105.065 E.02086
G1 X127.549 Y105.563 E.02483
G1 X127.135 Y105.918 E.02073
G1 X126.682 Y106.228 E.02086
G1 X126.625 Y106.378 E.0061
G1 X126.616 Y109.217 E.1079
G1 X126.451 Y109.685 E.01886
G1 X126.236 Y110.04 E.01577
G1 X125.906 Y110.345 E.01708
G1 X125.471 Y110.551 E.01829
G1 X125.045 Y110.615 E.01637
M204 S1000
;WIPE_START
G1 F8640
M73 Q14 S2
G1 X124.985 Y110.619 E-.01388
G1 X124.529 Y110.551 E-.10646
G1 X124.314 Y110.45 E-.05485
G1 X123.975 Y110.248 E-.09112
G1 X123.711 Y109.955 E-.09107
G1 X123.499 Y109.599 E-.09567
G1 X123.384 Y109.158 E-.10523
G1 X123.378 Y107.245 E-.44172
;WIPE_END
G1 Z.4 F720
G1 X125.99 Y106.538 F10800
G1 Z.2 F720
M73 P14 R2
G1 E1 F2100
M204 S800
;TYPE:Solid infill
;WIDTH:0.501806
G1 F900
G1 X125.577 Y106.125 E.02229
G1 X125.249 Y106.182 E.0127
G1 X124.99 Y106.187 E.00988
G1 X125.782 Y106.979 E.04274
G1 X125.778 Y107.625 E.02465
G1 X124.249 Y106.095 E.08253
G1 X124.163 Y106.074 E.00338
G1 X124.219 Y106.318 E.00955
G1 X124.221 Y106.716 E.01519
G1 X125.775 Y108.27 E.08386
G1 X125.772 Y108.916 E.02465
G1 X124.223 Y107.367 E.08359
G1 X124.226 Y108.019 E.02488
G1 X125.636 Y109.429 E.07609
G1 X125.547 Y109.546 E.00561
G1 X125.451 Y109.626 E.00477
G1 X125.269 Y109.711 E.00766
G1 X124.021 Y108.463 E.06734
M204 S1000
;LAYER_CHANGE
;Z:0.35
;HEIGHT:0.15
;BEFORE_LAYER_CHANGE
G92 E0.0
;0.35


;WIPE_START
G1 F8640
G1 X125.269 Y109.711 E-.40753
G1 X125.451 Y109.626 E-.04638
G1 X125.547 Y109.546 E-.02885
G1 X125.636 Y109.429 E-.03394
G1 X124.226 Y108.019 E-.46043
G1 X124.226 Y107.92 E-.02287
;WIPE_END
G1 Z.35 F720
;AFTER_LAYER_CHANGE
;0.35
M104 S230 ; set temperature
M140 S85 ; set bed temperature
; stop printing object Keyhole Face Insert.stl id:0 copy 0
G1 Z.55
G1 X119.947 Y109.899 F10800
M73 Q15 S2
G1 Z.35 F720
G1 E1 F2100
;TYPE:Skirt/Brim
;WIDTH:0.5
G1 F1050
G1 X118.232 Y105.032 E.15055
G1 X118.018 Y104.092 E.02813
M73 P15 R2
G1 X117.935 Y102.863 E.03594
G1 X118.11 Y101.429 E.04215
G1 X118.573 Y100.06 E.04216
G1 X119.305 Y98.815 E.04213
G1 X120.276 Y97.743 E.0422
G1 X121.444 Y96.892 E.04216
G1 X122.508 Y96.386 E.03437
G1 X123.905 Y96.018 E.04215
G1 X125.349 Y95.941 E.04219
G1 X126.777 Y96.159 E.04214
G1 X128.131 Y96.664 E.04216
G1 X129.355 Y97.433 E.04217
G1 X130.254 Y98.273 E.03589
G1 X131.106 Y99.441 E.04218
G1 X131.612 Y100.505 E.03437
G1 X131.981 Y101.903 E.04218
M73 Q16 S2
G1 X132.065 Y103.131 E.03591
G1 X131.982 Y104.092 E.02814
G1 X131.704 Y105.233 E.03426
G1 X129.738 Y110.794 E.17208
M73 P16 R2
G1 X129.296 Y111.684 E.02899
G1 X128.471 Y112.689 E.03793
G1 X127.942 Y113.123 E.01996
G1 X127.252 Y113.537 E.02348
G1 X126.139 Y113.935 E.03448
G1 X124.845 Y114.063 E.03794
G1 X123.678 Y113.889 E.03442
G1 X122.477 Y113.392 E.03792
G1 X121.529 Y112.689 E.03443
G1 X120.704 Y111.684 E.03793
G1 X120.262 Y110.794 E.02899
G1 X119.967 Y109.956 E.02592
G1 X120.398 Y109.804 F10800
G1 F1050
G1 X118.672 Y104.909 E.15142
G1 X118.471 Y104.03 E.02631
M73 Q17 S2
G1 X118.392 Y102.863 E.03412
G1 X118.557 Y101.522 E.03942
G1 X118.993 Y100.242 E.03945
G1 X119.679 Y99.078 E.03942
M73 P17 R2
G1 X120.588 Y98.077 E.03945
G1 X121.681 Y97.283 E.03941
G1 X122.661 Y96.817 E.03166
G1 X123.967 Y96.47 E.03942
G1 X125.317 Y96.397 E.03944
G1 X126.654 Y96.599 E.03945
G1 X127.921 Y97.07 E.03943
G1 X129.066 Y97.788 E.03943
G1 X129.92 Y98.586 E.0341
G1 X130.715 Y99.679 E.03943
G1 X131.181 Y100.658 E.03163
G1 X131.528 Y101.965 E.03945
G1 X131.608 Y103.131 E.0341
G1 X131.529 Y104.03 E.02633
G1 X131.273 Y105.08 E.03153
G1 X129.307 Y110.64 E.17205
G1 X128.904 Y111.449 E.02637
M73 Q18 S2
G1 X128.164 Y112.35 E.03401
G1 X127.056 Y113.124 E.03943
G1 X126.028 Y113.492 E.03185
M73 P18 R2
G1 X124.868 Y113.606 E.034
G1 X123.789 Y113.446 E.03182
G1 X122.712 Y113 E.03401
G1 X121.836 Y112.35 E.03182
G1 X121.096 Y111.449 E.03401
G1 X120.693 Y110.64 E.02637
G1 X120.418 Y109.86 E.02413
G1 X120.849 Y109.708 F10800
G1 F1050
G1 X119.113 Y104.786 E.15226
G1 X118.924 Y103.968 E.02449
G1 X118.849 Y102.864 E.03228
G1 X119.005 Y101.615 E.03672
G1 X119.412 Y100.424 E.03672
G1 X120.052 Y99.342 E.03667
G1 X120.9 Y98.411 E.03674
G1 X121.919 Y97.673 E.03671
G1 X122.814 Y97.247 E.02892
G1 X124.03 Y96.923 E.03671
G1 X125.286 Y96.853 E.0367
G1 X126.53 Y97.04 E.0367
M73 Q19 S2
G1 X127.711 Y97.475 E.03672
G1 X128.778 Y98.142 E.03671
G1 X129.586 Y98.898 E.03228
M73 P19 R2
G1 X130.325 Y99.916 E.0367
G1 X130.751 Y100.812 E.02894
G1 X131.076 Y102.027 E.03669
G1 X131.151 Y103.131 E.03228
G1 X131.076 Y103.968 E.02452
G1 X130.843 Y104.928 E.02882
G1 X128.877 Y110.486 E.17199
G1 X128.512 Y111.214 E.02376
G1 X127.857 Y112.012 E.03012
G1 X126.861 Y112.711 E.0355
G1 X125.917 Y113.049 E.02925
G1 X124.89 Y113.15 E.03011
G1 X123.691 Y112.939 E.03552
G1 X122.785 Y112.511 E.02923
G1 X121.987 Y111.857 E.0301
G1 X121.391 Y111.052 E.02922
G1 X121.123 Y110.486 E.01827
G1 X120.869 Y109.765 E.0223
;WIPE_START
G1 F8640
G1 X120.849 Y109.708 E-.01395
G1 X119.428 Y105.681 E-.98605
;WIPE_END
G1 Z.55 F720
M73 Q20 S2
; printing object Keyhole Face Insert.stl id:0 copy 0
G1 X125 Y105.678 F10800
G1 Z.35 F720
G1 E1 F2100
M73 P20 R2
M204 S800
;TYPE:Perimeter
;WIDTH:0.449999
G1 F1050
G1 X124.676 Y105.67 E.00844
G1 X124.177 Y105.561 E.01331
;WIDTH:0.494115
