; generated by PrusaSlicer 2.9.4 on 2026-03-18 at 00:30:57 UTC


;
;
; 

; external perimeters extrusion width = 0.45mm
; perimeters extrusion width = 0.45mm
; infill extrusion width = 0.45mm
; solid infill extrusion width = 0.45mm
; top infill extrusion width = 0.40mm
; first layer extrusion width = 0.42mm

M73 P0 R18
M73 Q0 S19
M201 X1000 Y1000 Z200 E5000 ; sets maximum accelerations, mm/sec^2
M203 X200 Y200 Z12 E120 ; sets maximum feedrates, mm / sec
M204 S1250 T1250 ; sets acceleration (S) and retract acceleration (R), mm/sec^2
M205 X8.00 Y8.00 Z0.40 E4.50 ; sets the jerk limits, mm/sec
M205 S0 T0 ; sets the minimum extruding and travel feed rate, mm/sec

; printing object Light Pipe Sample.stl id:0 copy 0
; stop printing object Light Pipe Sample.stl id:0 copy 0

;TYPE:Custom
M862.3 P "MK3S" ; printer model check
M862.1 P0.4 ; nozzle diameter check
M115 U3.14.1 ; tell printer latest fw version
G90 ; use absolute coordinates
M83 ; extruder relative mode
M104 S240 ; set extruder temp
M140 S90 ; set bed temp
M190 S90 ; wait for bed temp
M109 S240 ; wait for extruder temp
G28 W ; home all without mesh bed level
G80 X111.216 Y100.106 W27.5683 H9.78833 ; mesh bed levelling

G1 Z0.2 F720
G1 Y-3 F1000 ; go outside print area
G92 E0
G1 X60 E9 F1000 ; intro line
G1 X100 E12.5 F1000 ; intro line
M73 Q0 S18

G92 E0
M221 S95

; Don't change E values below. Excessive value can damage the printer.
M907 E430 ; set extruder motor current
G21 ; set units to millimeters
G90 ; use absolute coordinates
M83 ; use relative distances for extrusion

M900 K0.08 ; Filament gcode LA 1.5
M900 K45 ; Filament gcode LA 1.0




M107
;LAYER_CHANGE
;Z:0.2
;HEIGHT:0.2
G1 E-1 F2100
G1 Z.4 F720
G1 X112.287 Y101.272 F10800
G1 Z.2 F720
G1 E1 F2100
M204 S800
;TYPE:Skirt/Brim
;WIDTH:0.42
G1 F1200
G1 X112.831 Y100.819 E.0222
G1 X113.589 Y100.453 E.02639
G1 X114.57 Y100.294 E.03116
G1 X135.717 Y100.311 E.66305
G1 X136.538 Y100.498 E.0264
G1 X137.169 Y100.819 E.0222
G1 X137.713 Y101.272 E.0222
G1 X138.071 Y101.721 E.01801
G1 X138.392 Y102.352 E.0222
G1 X138.579 Y103.173 E.0264
G1 X138.596 Y106.54 E.10557
G1 X138.437 Y107.521 E.03116
G1 X138.143 Y108.165 E.0222
G1 X137.713 Y108.728 E.02221
G1 X137.169 Y109.181 E.0222
G1 X136.411 Y109.547 E.02639
G1 X135.43 Y109.706 E.03116
G1 X114.283 Y109.689 E.66305
G1 X113.589 Y109.547 E.02221
G1 X112.831 Y109.181 E.02639
G1 X112.287 Y108.728 E.0222
G1 X111.929 Y108.279 E.01801
G1 X111.563 Y107.521 E.02639
G1 X111.404 Y106.54 E.03116
G1 X111.404 Y103.46 E.09657
G1 X111.563 Y102.479 E.03116
G1 X111.857 Y101.835 E.0222
G1 X112.25 Y101.319 E.02034
M204 S1000
G1 X112.548 Y101.545 F10800
M204 S800
G1 F1200
G1 X112.553 Y101.538 E.00027
G1 X113.05 Y101.126 E.02024
G1 X113.714 Y100.809 E.02307
G1 X114.57 Y100.671 E.02719
G1 X135.675 Y100.685 E.66173
G1 X136.413 Y100.854 E.02374
M73 P1 R18
M73 Q1 S18
G1 X136.968 Y101.138 E.01955
G1 X137.447 Y101.538 E.01957
G1 X137.752 Y101.922 E.01538
G1 X138.036 Y102.477 E.01955
G1 X138.205 Y103.215 E.02374
G1 X138.219 Y106.54 E.10425
G1 X138.081 Y107.396 E.02719
G1 X137.824 Y107.965 E.01958
G1 X137.447 Y108.462 E.01956
G1 X136.968 Y108.862 E.01957
G1 X136.286 Y109.191 E.02374
G1 X135.43 Y109.329 E.02719
G1 X114.325 Y109.315 E.66173
G1 X113.714 Y109.191 E.01955
G1 X113.032 Y108.862 E.02374
G1 X112.648 Y108.557 E.01538
G1 X112.248 Y108.078 E.01957
G1 X111.919 Y107.396 E.02374
G1 X111.781 Y106.54 E.02719
G1 X111.781 Y103.46 E.09657
G1 X111.919 Y102.604 E.02719
G1 X112.176 Y102.035 E.01958
G1 X112.512 Y101.593 E.01741
M204 S1000
;WIPE_START
G1 F8640
G1 X112.548 Y101.545 E-.01385
G1 X112.553 Y101.538 E-.00199
G1 X113.05 Y101.126 E-.14906
G1 X113.714 Y100.809 E-.1699
G1 X114.57 Y100.671 E-.2002
G1 X116.584 Y100.672 E-.465
;WIPE_END
G1 Z.4 F720
; printing object Light Pipe Sample.stl id:0 copy 0
G1 X125 Y105.197 F10800
G1 Z.2 F720
G1 E1 F2100
M204 S800
;TYPE:External perimeter
;WIDTH:0.652078
G1 F1200
G1 X125 Y104.829 E.01864
M204 S1000
;WIPE_START
G1 F8640
G1 X125 Y105.197 E-.08497
;WIPE_END
G1 E-.91503 F2100
G1 Z.4 F720
G1 X127.54 Y105.197 F10800
G1 Z.2 F720
G1 E1 F2100
M204 S800
;WIDTH:0.652076
G1 F1200
G1 X127.54 Y104.829 E.01864
M204 S1000
;WIPE_START
G1 F8640
G1 X127.54 Y105.197 E-.08497
;WIPE_END
G1 E-.91503 F2100
G1 Z.4 F720
G1 X130.08 Y105.197 F10800
G1 Z.2 F720
G1 E1 F2100
M204 S800
G1 F1200
G1 X130.08 Y104.829 E.01864
M204 S1000
;WIPE_START
G1 F8640
G1 X130.08 Y105.197 E-.08497
;WIPE_END
G1 E-.91503 F2100
G1 Z.4 F720
G1 X132.62 Y105.197 F10800
G1 Z.2 F720
G1 E1 F2100
M204 S800
;WIDTH:0.652078
G1 F1200
G1 X132.62 Y104.829 E.01864
M204 S1000
;WIPE_START
G1 F8640
G1 X132.62 Y105.197 E-.08497
;WIPE_END
G1 E-.91503 F2100
G1 Z.4 F720
G1 X122.46 Y105.197 F10800
G1 Z.2 F720
G1 E1 F2100
M204 S800
G1 F1200
G1 X122.46 Y104.829 E.01864
M204 S1000
;WIPE_START
G1 F8640
G1 X122.46 Y105.197 E-.08497
;WIPE_END
G1 E-.91503 F2100
G1 Z.4 F720
G1 X119.92 Y105.197 F10800
G1 Z.2 F720
G1 E1 F2100
M204 S800
;WIDTH:0.652074
G1 F1200
G1 X119.92 Y104.829 E.01864
M204 S1000
;WIPE_START
G1 F8640
G1 X119.92 Y105.197 E-.08497
;WIPE_END
G1 E-.91503 F2100
G1 Z.4 F720
G1 X117.38 Y105.197 F10800
G1 Z.2 F720
G1 E1 F2100
M204 S800
G1 F1200
G1 X117.38 Y104.829 E.01864
M204 S1000
;WIPE_START
G1 F8640
G1 X117.38 Y105.197 E-.08497
;WIPE_END
G1 E-.91503 F2100
G1 Z.4 F720
G1 X114.995 Y105.762 F10800
G1 Z.2 F720
G1 E1 F2100
M204 S800
;WIDTH:0.419999
G1 F1200
G1 X114.91 Y105.655 E.00428
G1 X114.76 Y105.205 E.01487
;WIDTH:0.418818
G1 X114.77 Y104.731 E.01482
;WIDTH:0.419999
G1 X114.943 Y104.289 E.01488
G1 X115.257 Y103.931 E.01493
;WIDTH:0.452423
G1 X115.671 Y103.69 E.01631
G1 X116.05 Y103.643 E.013
;WIDTH:0.427126
G1 X116.396 Y103.676 E.0111
G1 X116.824 Y103.904 E.01549
;WIDTH:0.419999
G1 X117.103 Y104.27 E.01443
;WIDTH:0.464153
G1 X117.163 Y104.39 E.0047
;WIDTH:0.508307
G1 X117.222 Y104.509 E.00514
;WIDTH:0.552461
G1 X117.282 Y104.629 E.00568
;WIDTH:0.596614
G1 X117.341 Y104.748 E.00612
;WIDTH:0.623187
G1 X117.361 Y104.789 E.0022
;WIDTH:0.64976
G1 X117.38 Y104.829 E.00223
G1 X117.435 Y104.717 E.0063
;WIDTH:0.603808
G1 X117.491 Y104.606 E.0058
;WIDTH:0.557856
G1 X117.546 Y104.494 E.00534
;WIDTH:0.511904
G1 X117.601 Y104.382 E.00487
;WIDTH:0.465952
G1 X117.657 Y104.27 E.0044
;WIDTH:0.419999
G1 X117.826 Y104.013 E.00964
;WIDTH:0.420806
G1 X118.209 Y103.736 E.01485
;WIDTH:0.425756
G1 X118.586 Y103.648 E.01232
;WIDTH:0.427435
G1 X118.934 Y103.678 E.01117
G1 X119.364 Y103.904 E.01553
;WIDTH:0.419999
G1 X119.643 Y104.27 E.01443
;WIDTH:0.464152
G1 X119.703 Y104.39 E.0047
;WIDTH:0.508305
G1 X119.762 Y104.509 E.00514
;WIDTH:0.552458
G1 X119.822 Y104.629 E.00568
;WIDTH:0.596611
G1 X119.881 Y104.748 E.00612
;WIDTH:0.623185
G1 X119.901 Y104.789 E.0022
;WIDTH:0.649758
G1 X119.92 Y104.829 E.00223
G1 X119.975 Y104.717 E.0063
;WIDTH:0.603807
G1 X120.031 Y104.606 E.0058
;WIDTH:0.557855
G1 X120.086 Y104.494 E.00534
;WIDTH:0.511903
G1 X120.141 Y104.382 E.00487
;WIDTH:0.465951
G1 X120.197 Y104.27 E.0044
;WIDTH:0.419999
G1 X120.366 Y104.013 E.00964
;WIDTH:0.420771
G1 X120.749 Y103.736 E.01485
;WIDTH:0.425388
G1 X121.126 Y103.648 E.01231
;WIDTH:0.427214
G1 X121.474 Y103.678 E.01116
G1 X121.904 Y103.904 E.01552
;WIDTH:0.419999
G1 X122.183 Y104.27 E.01443
;WIDTH:0.464153
G1 X122.243 Y104.39 E.0047
;WIDTH:0.508306
G1 X122.302 Y104.509 E.00514
;WIDTH:0.55246
G1 X122.362 Y104.629 E.00568
;WIDTH:0.596613
G1 X122.421 Y104.748 E.00612
;WIDTH:0.623188
G1 X122.441 Y104.789 E.0022
;WIDTH:0.649762
G1 X122.46 Y104.829 E.00223
G1 X122.515 Y104.717 E.0063
;WIDTH:0.60381
G1 X122.571 Y104.606 E.0058
;WIDTH:0.557857
G1 X122.626 Y104.494 E.00534
;WIDTH:0.511905
G1 X122.681 Y104.382 E.00487
;WIDTH:0.465952
G1 X122.737 Y104.27 E.0044
;WIDTH:0.419999
G1 X122.906 Y104.013 E.00964
;WIDTH:0.420736
G1 X123.289 Y103.736 E.01485
;WIDTH:0.425019
G1 X123.666 Y103.649 E.01229
;WIDTH:0.426992
G1 X124.014 Y103.678 E.01115
G1 X124.444 Y103.904 E.01551
;WIDTH:0.419999
G1 X124.723 Y104.27 E.01443
;WIDTH:0.464153
G1 X124.783 Y104.39 E.0047
;WIDTH:0.508306
G1 X124.842 Y104.509 E.00514
;WIDTH:0.552459
G1 X124.902 Y104.629 E.00568
;WIDTH:0.596612
G1 X124.961 Y104.748 E.00612
;WIDTH:0.623186
G1 X124.981 Y104.789 E.0022
;WIDTH:0.64976
G1 X125 Y104.829 E.00223
G1 X125.055 Y104.717 E.0063
;WIDTH:0.603808
G1 X125.111 Y104.606 E.0058
;WIDTH:0.557856
G1 X125.166 Y104.494 E.00534
;WIDTH:0.511904
G1 X125.221 Y104.382 E.00487
;WIDTH:0.465952
G1 X125.277 Y104.27 E.0044
;WIDTH:0.419999
G1 X125.446 Y104.013 E.00964
;WIDTH:0.420701
G1 X125.829 Y103.736 E.01485
;WIDTH:0.424649
G1 X126.206 Y103.649 E.01228
;WIDTH:0.42677
G1 X126.554 Y103.678 E.01115
G1 X126.984 Y103.904 E.0155
;WIDTH:0.419999
G1 X127.263 Y104.27 E.01443
;WIDTH:0.464151
G1 X127.323 Y104.39 E.0047
;WIDTH:0.508303
G1 X127.382 Y104.509 E.00514
;WIDTH:0.552455
G1 X127.442 Y104.629 E.00568
;WIDTH:0.596607
G1 X127.501 Y104.748 E.00612
;WIDTH:0.623179
G1 X127.521 Y104.789 E.0022
;WIDTH:0.64975
G1 X127.54 Y104.829 E.00223
G1 X127.595 Y104.717 E.0063
;WIDTH:0.6038
G1 X127.651 Y104.606 E.0058
;WIDTH:0.55785
G1 X127.706 Y104.494 E.00534
;WIDTH:0.5119
G1 X127.761 Y104.382 E.00487
;WIDTH:0.46595
G1 X127.817 Y104.27 E.0044
;WIDTH:0.419999
G1 X127.986 Y104.013 E.00964
;WIDTH:0.420666
G1 X128.369 Y103.736 E.01485
;WIDTH:0.424279
G1 X128.745 Y103.649 E.01224
;WIDTH:0.426548
G1 X129.094 Y103.679 E.01117
G1 X129.524 Y103.904 E.01548
;WIDTH:0.419999
G1 X129.803 Y104.27 E.01443
;WIDTH:0.464152
G1 X129.863 Y104.39 E.0047
;WIDTH:0.508305
G1 X129.922 Y104.509 E.00514
;WIDTH:0.552458
G1 X129.982 Y104.629 E.00568
;WIDTH:0.596611
G1 X130.041 Y104.748 E.00612
;WIDTH:0.623185
G1 X130.061 Y104.789 E.0022
;WIDTH:0.649758
G1 X130.08 Y104.829 E.00223
G1 X130.135 Y104.717 E.0063
;WIDTH:0.603807
G1 X130.191 Y104.606 E.0058
;WIDTH:0.557855
G1 X130.246 Y104.494 E.00534
;WIDTH:0.511903
G1 X130.301 Y104.382 E.00487
;WIDTH:0.465951
G1 X130.357 Y104.27 E.0044
;WIDTH:0.419999
G1 X130.526 Y104.013 E.00964
;WIDTH:0.42063
G1 X130.909 Y103.736 E.01485
;WIDTH:0.423909
G1 X131.285 Y103.649 E.01223
;WIDTH:0.426325
G1 X131.634 Y103.679 E.01117
G1 X132.064 Y103.904 E.01547
;WIDTH:0.419999
G1 X132.343 Y104.27 E.01443
;WIDTH:0.464152
G1 X132.403 Y104.39 E.0047
;WIDTH:0.508305
G1 X132.462 Y104.509 E.00514
;WIDTH:0.552458
G1 X132.522 Y104.629 E.00568
;WIDTH:0.59661
G1 X132.581 Y104.748 E.00612
;WIDTH:0.623184
G1 X132.601 Y104.789 E.0022
;WIDTH:0.649758
G1 X132.62 Y104.829 E.00223
G1 X132.675 Y104.717 E.0063
;WIDTH:0.603807
G1 X132.731 Y104.606 E.0058
;WIDTH:0.557855
G1 X132.786 Y104.494 E.00534
;WIDTH:0.511903
G1 X132.841 Y104.382 E.00487
;WIDTH:0.465951
G1 X132.897 Y104.27 E.0044
;WIDTH:0.419999
G1 X133.066 Y104.013 E.00964
;WIDTH:0.420323
G1 X133.447 Y103.736 E.01478
;WIDTH:0.421065
G1 X133.819 Y103.646 E.01203
;WIDTH:0.429328
G1 X134.143 Y103.652 E.01041
G1 X134.388 Y103.727 E.00823
;WIDTH:0.421816
G1 X134.823 Y104.008 E.01632
;WIDTH:0.419999
G1 X135.09 Y104.345 E.01348
G1 X135.241 Y104.796 E.01491
;WIDTH:0.420905
G1 X135.236 Y105.254 E.0144
G1 X135.163 Y105.498 E.008
;WIDTH:0.420112
G1 X134.884 Y105.931 E.01616
;WIDTH:0.419999
G1 X134.544 Y106.2 E.01359
;WIDTH:0.424947
G1 X134.089 Y106.352 E.01524
;WIDTH:0.426569
G1 X133.604 Y106.323 E.0155
G1 X133.176 Y106.096 E.01545
;WIDTH:0.419999
G1 X132.897 Y105.73 E.01443
;WIDTH:0.468448
G1 X132.835 Y105.611 E.00475
;WIDTH:0.516897
G1 X132.774 Y105.492 E.00527
;WIDTH:0.565346
G1 X132.712 Y105.373 E.00583
;WIDTH:0.613794
G1 X132.65 Y105.254 E.00637
;WIDTH:0.652078
G1 X132.62 Y105.197 E.00326
G1 X132.565 Y105.304 E.00609
;WIDTH:0.605663
G1 X132.509 Y105.41 E.00561
;WIDTH:0.559247
G1 X132.454 Y105.517 E.00517
;WIDTH:0.512831
G1 X132.399 Y105.623 E.00467
;WIDTH:0.466415
G1 X132.343 Y105.73 E.00425
;WIDTH:0.419999
G1 X132.064 Y106.096 E.01443
;WIDTH:0.434901
G1 X131.587 Y106.341 E.01748
G1 X131.066 Y106.321 E.01699
;WIDTH:0.426721
G1 X130.636 Y106.096 E.01549
;WIDTH:0.419999
G1 X130.357 Y105.73 E.01443
;WIDTH:0.468448
G1 X130.295 Y105.611 E.00475
;WIDTH:0.516896
G1 X130.234 Y105.492 E.00527
;WIDTH:0.565345
G1 X130.172 Y105.373 E.00583
;WIDTH:0.613793
G1 X130.11 Y105.254 E.00637
;WIDTH:0.652076
G1 X130.08 Y105.197 E.00326
G1 X130.025 Y105.304 E.00609
;WIDTH:0.605661
G1 X129.969 Y105.41 E.00561
;WIDTH:0.559246
G1 X129.914 Y105.517 E.00517
;WIDTH:0.51283
G1 X129.859 Y105.623 E.00467
;WIDTH:0.466415
G1 X129.803 Y105.73 E.00425
;WIDTH:0.419999
G1 X129.524 Y106.096 E.01443
;WIDTH:0.434374
G1 X129.047 Y106.34 E.01744
G1 X128.526 Y106.321 E.01697
;WIDTH:0.426432
G1 X128.096 Y106.096 E.01548
;WIDTH:0.419999
G1 X127.817 Y105.73 E.01443
;WIDTH:0.468448
G1 X127.755 Y105.611 E.00475
;WIDTH:0.516896
G1 X127.694 Y105.492 E.00527
;WIDTH:0.565345
G1 X127.632 Y105.373 E.00583
;WIDTH:0.613793
G1 X127.57 Y105.254 E.00637
;WIDTH:0.652076
G1 X127.54 Y105.197 E.00326
G1 X127.485 Y105.304 E.00609
;WIDTH:0.605661
G1 X127.429 Y105.41 E.00561
;WIDTH:0.559246
G1 X127.374 Y105.517 E.00517
;WIDTH:0.51283
G1 X127.319 Y105.623 E.00467
;WIDTH:0.466415
G1 X127.263 Y105.73 E.00425
;WIDTH:0.419999
G1 X126.984 Y106.096 E.01443
;WIDTH:0.433848
G1 X126.507 Y106.34 E.01742
G1 X125.986 Y106.321 E.01695
;WIDTH:0.426141
G1 X125.556 Y106.096 E.01546
;WIDTH:0.419999
G1 X125.277 Y105.73 E.01443
;WIDTH:0.468448
G1 X125.215 Y105.611 E.00475
;WIDTH:0.516897
G1 X125.154 Y105.492 E.00527
;WIDTH:0.565346
G1 X125.092 Y105.373 E.00583
;WIDTH:0.613794
G1 X125.03 Y105.254 E.00637
;WIDTH:0.652078
G1 X125 Y105.197 E.00326
G1 X124.945 Y105.304 E.00609
;WIDTH:0.605663
G1 X124.889 Y105.41 E.00561
;WIDTH:0.559247
G1 X124.834 Y105.517 E.00517
;WIDTH:0.512831
G1 X124.779 Y105.623 E.00467
;WIDTH:0.466415
G1 X124.723 Y105.73 E.00425
;WIDTH:0.419999
G1 X124.444 Y106.096 E.01443
;WIDTH:0.433311
G1 X123.967 Y106.34 E.01739
G1 X123.446 Y106.321 E.01692
;WIDTH:0.42585
G1 X123.016 Y106.096 E.01545
;WIDTH:0.419999
G1 X122.737 Y105.73 E.01443
;WIDTH:0.468448
G1 X122.675 Y105.611 E.00475
;WIDTH:0.516897
G1 X122.614 Y105.492 E.00527
;WIDTH:0.565346
G1 X122.552 Y105.373 E.00583
;WIDTH:0.613794
G1 X122.49 Y105.254 E.00637
;WIDTH:0.652078
G1 X122.46 Y105.197 E.00326
G1 X122.405 Y105.304 E.00609
;WIDTH:0.605663
G1 X122.349 Y105.41 E.00561
;WIDTH:0.559247
G1 X122.294 Y105.517 E.00517
;WIDTH:0.512831
G1 X122.239 Y105.623 E.00467
;WIDTH:0.466415
G1 X122.183 Y105.73 E.00425
;WIDTH:0.419999
G1 X121.904 Y106.096 E.01443
;WIDTH:0.432801
G1 X121.427 Y106.34 E.01737
G1 X120.906 Y106.321 E.0169
;WIDTH:0.42556
G1 X120.476 Y106.096 E.01544
;WIDTH:0.419999
G1 X120.197 Y105.73 E.01443
;WIDTH:0.468448
G1 X120.135 Y105.611 E.00475
;WIDTH:0.516896
G1 X120.074 Y105.492 E.00527
;WIDTH:0.565344
G1 X120.012 Y105.373 E.00583
;WIDTH:0.613792
G1 X119.95 Y105.254 E.00637
;WIDTH:0.652074
G1 X119.92 Y105.197 E.00326
G1 X119.865 Y105.304 E.00609
;WIDTH:0.605659
G1 X119.809 Y105.41 E.00561
;WIDTH:0.559244
G1 X119.754 Y105.517 E.00517
;WIDTH:0.512829
G1 X119.699 Y105.623 E.00467
;WIDTH:0.466414
G1 X119.643 Y105.73 E.00425
;WIDTH:0.419999
G1 X119.364 Y106.096 E.01443
;WIDTH:0.432258
G1 X118.887 Y106.339 E.01733
G1 X118.366 Y106.321 E.01688
;WIDTH:0.425267
G1 X117.936 Y106.096 E.01543
;WIDTH:0.419999
G1 X117.657 Y105.73 E.01443
;WIDTH:0.468448
G1 X117.595 Y105.611 E.00475
;WIDTH:0.516896
G1 X117.534 Y105.492 E.00527
;WIDTH:0.565344
G1 X117.472 Y105.373 E.00583
;WIDTH:0.613792
G1 X117.41 Y105.254 E.00637
;WIDTH:0.652074
G1 X117.38 Y105.197 E.00326
G1 X117.325 Y105.304 E.00609
;WIDTH:0.605659
G1 X117.269 Y105.41 E.00561
;WIDTH:0.559244
G1 X117.214 Y105.517 E.00517
;WIDTH:0.512829
G1 X117.159 Y105.623 E.00467
;WIDTH:0.466414
G1 X117.103 Y105.73 E.00425
;WIDTH:0.419999
G1 X116.934 Y105.987 E.00964
G1 X116.548 Y106.265 E.01491
G1 X116.082 Y106.357 E.01489
;WIDTH:0.438705
G1 X115.608 Y106.281 E.0158
G1 X115.181 Y105.996 E.01689
;WIDTH:0.419999
G1 X115.033 Y105.809 E.00748
M204 S1000
;WIPE_START
G1 F8640
G1 X114.995 Y105.762 E-.01396
G1 X114.91 Y105.655 E-.03155
G1 X114.76 Y105.205 E-.10953
G1 X114.77 Y104.731 E-.10947
G1 X114.943 Y104.289 E-.1096
G1 X115.257 Y103.931 E-.10995
G1 X115.671 Y103.69 E-.11061
G1 X116.05 Y103.643 E-.08818
G1 X116.396 Y103.676 E-.08025
G1 X116.824 Y103.904 E-.11197
G1 X117.103 Y104.27 E-.10626
G1 X117.139 Y104.342 E-.01867
