; generated by PrusaSlicer 2.9.4 on 2026-03-29 at 20:17:38 UTC


;
;
; 

; external perimeters extrusion width = 0.45mm
; perimeters extrusion width = 0.45mm
; infill extrusion width = 0.45mm
; solid infill extrusion width = 0.45mm
; top infill extrusion width = 0.40mm
; first layer extrusion width = 0.50mm

; external perimeters extrusion width = 0.45mm
; perimeters extrusion width = 0.45mm
; infill extrusion width = 0.45mm
; solid infill extrusion width = 0.45mm
; top infill extrusion width = 0.40mm
; first layer extrusion width = 0.50mm

; external perimeters extrusion width = 0.45mm
; perimeters extrusion width = 0.45mm
; infill extrusion width = 0.45mm
; solid infill extrusion width = 0.45mm
; top infill extrusion width = 0.40mm
; first layer extrusion width = 0.50mm

M73 P0 R36
M73 Q0 S37
M201 X1000 Y1000 Z200 E5000 ; sets maximum accelerations, mm/sec^2
M203 X200 Y200 Z12 E120 ; sets maximum feedrates, mm / sec
M204 S1250 T1250 ; sets acceleration (S) and retract acceleration (R), mm/sec^2
M205 X8.00 Y8.00 Z0.40 E4.50 ; sets the jerk limits, mm/sec
M205 S0 T0 ; sets the minimum extruding and travel feed rate, mm/sec

; printing object Stand Mounting Plate.stl id:2 copy 0
; stop printing object Stand Mounting Plate.stl id:2 copy 0
; printing object Display Bracket Left.stl id:0 copy 0
; stop printing object Display Bracket Left.stl id:0 copy 0
; printing object Display Bracket Right.stl id:1 copy 0
; stop printing object Display Bracket Right.stl id:1 copy 0

;TYPE:Custom
M862.3 P "MK3S" ; printer model check
M862.1 P0.4 ; nozzle diameter check
M115 U3.14.1 ; tell printer latest fw version
G90 ; use absolute coordinates
M83 ; extruder relative mode
M104 S240 ; set extruder temp
M140 S90 ; set bed temp
M190 S90 ; wait for bed temp
M109 S240 ; wait for extruder temp
G28 W ; home all without mesh bed level
G80 X94.2926 Y68.3319 W77.752 H30.8642 ; mesh bed levelling

G1 Z0.2 F720
G1 Y-3 F1000 ; go outside print area
G92 E0
G1 X60 E9 F1000 ; intro line
G1 X100 E12.5 F1000 ; intro line
M73 Q0 S36

G92 E0
M221 S95

; Don't change E values below. Excessive value can damage the printer.
M907 E430 ; set extruder motor current
G21 ; set units to millimeters
G90 ; use absolute coordinates
M83 ; use relative distances for extrusion

M900 K0.08 ; Filament gcode LA 1.5
M900 K45 ; Filament gcode LA 1.0




M107
;LAYER_CHANGE
;Z:0.2
;HEIGHT:0.2
G1 E-1 F2100
G1 Z.4 F720
G1 X96.798 Y71.352 F10800
G1 Z.2 F720
G1 E1 F2100
M204 S800
;TYPE:Skirt/Brim
;WIDTH:0.5
G1 F900
G1 X97.338 Y70.782 E.02984
G1 X97.896 Y70.342 E.02701
G1 X99.035 Y69.752 E.04875
G1 X100.2 Y69.467 E.04558
G1 X109.407 Y68.56 E.35162
G1 X156.652 Y68.56 E1.79561
G1 X157.525 Y68.738 E.03386
G1 X168.016 Y73.234 E.4338
G1 X168.839 Y73.797 E.0379
G1 X169.353 Y74.29 E.02707
G1 X169.95 Y75.087 E.03785
G1 X170.386 Y75.984 E.03791
G1 X170.695 Y77.337 E.05275
G1 X171.793 Y89.471 E.46305
G1 X171.816 Y92.008 E.09643
G1 X171.743 Y92.957 E.03617
G1 X171.319 Y94.462 E.05943
G1 X171.009 Y95.097 E.02686
G1 X170.426 Y95.961 E.03961
G1 X169.304 Y97.051 E.05945
G1 X168.584 Y97.521 E.03268
G1 X167.635 Y97.954 E.03964
G1 X166.958 Y98.156 E.02685
G1 X165.992 Y98.309 E.03717
G1 X156.652 Y98.967 E.35586
G1 X109.407 Y98.967 E1.79561
G1 X108.57 Y98.805 E.0324
G1 X97.758 Y94.374 E.44409
G1 X96.891 Y93.79 E.03973
G1 X96.133 Y93.071 E.03971
G1 X95.329 Y91.946 E.05255
G1 X94.896 Y90.995 E.03971
G1 X94.69 Y90.3 E.02755
G1 X94.537 Y89.285 E.03901
G1 X94.531 Y86.507 E.10558
G1 X95.733 Y73.584 E.49328
G1 X96.147 Y72.371 E.04871
G1 X96.765 Y71.402 E.04368
M204 S1000
;WIPE_START
G1 F8640
G1 X96.798 Y71.352 E-.01383
G1 X97.338 Y70.782 E-.1813
G1 X97.896 Y70.342 E-.16408
G1 X99.035 Y69.752 E-.29619
G1 X100.2 Y69.467 E-.27693
G1 X100.492 Y69.438 E-.06767
;WIPE_END
G1 Z.4 F720
; printing object Display Bracket Right.stl id:1 copy 0
G1 X165.487 Y94.489 F10800
G1 Z.2 F720
G1 E1 F2100
M204 S800
;TYPE:Perimeter
;WIDTH:0.708181
G1 F900
G1 X164.908 Y94.42 E.03225
;WIDTH:0.704377
G1 X164.325 Y94.204 E.0342
;WIDTH:0.703277
G1 X163.852 Y93.876 E.03161
;WIDTH:0.713543
G1 X163.551 Y93.539 E.0252
G1 X163.248 Y93.083 E.03053
;WIDTH:0.697965
G1 X163.074 Y92.593 E.02832
;WIDTH:0.702442
G1 X163.001 Y92.041 E.03053
G1 X163.001 Y89.696 E.1286
G1 X163.02 Y88.851 E.04635
;WIDTH:0.664267
G1 X163.039 Y88.006 E.04367
;WIDTH:0.655809
G1 X163.132 Y87.314 E.03558
G1 X163.208 Y87.186 E.00759
;WIDTH:0.616857
G1 X163.285 Y87.058 E.00713
;WIDTH:0.577904
G1 X163.361 Y86.931 E.00658
;WIDTH:0.538952
G1 X163.437 Y86.803 E.00614
;WIDTH:0.499999
G1 X163.564 Y86.608 E.00884
G1 X163.939 Y86.204 E.02095
G1 X164.462 Y85.859 E.02381
G1 X165.23 Y85.644 E.03031
G1 X165.468 Y85.63 E.00906
G1 X166.055 Y85.699 E.02246
G1 X166.609 Y85.907 E.02249
G1 X167.063 Y86.221 E.02098
G1 X167.557 Y86.836 E.02998
M73 Q1 S36
;WIDTH:0.548935
G1 X167.656 Y87.009 E.00839
;WIDTH:0.597871
G1 X167.756 Y87.183 E.00926
;WIDTH:0.646807
G1 X167.855 Y87.357 E.01005
G1 X167.935 Y87.956 E.03034
;WIDTH:0.66845
G1 X167.957 Y88.918 E.05005
;WIDTH:0.710796
G1 X167.979 Y89.881 E.05349
G1 X167.979 Y91.961 E.11551
M73 P1 R36
G1 X167.927 Y92.492 E.02963
;WIDTH:0.717229
G1 X167.841 Y92.786 E.01718
G1 X167.636 Y93.256 E.02875
;WIDTH:0.719437
G1 X167.312 Y93.676 E.02984
G1 X166.938 Y94.023 E.0287
;WIDTH:0.706445
G1 X166.477 Y94.29 E.02939
;WIDTH:0.715277
G1 X165.88 Y94.451 E.03457
G1 X165.546 Y94.485 E.01877
M204 S1000
G1 X165.487 Y93.924 F10800
M204 S800
;TYPE:External perimeter
;WIDTH:0.499999
G1 F900
G1 X164.973 Y93.864 E.01967
G1 X164.501 Y93.664 E.01948
G1 X164.138 Y93.382 E.01747
G1 X163.785 Y92.908 E.02246
G1 X163.606 Y92.427 E.01951
G1 X163.559 Y91.961 E.0178
G1 X163.559 Y88.006 E.15031
G1 X163.623 Y87.526 E.0184
G1 X163.857 Y86.984 E.02244
G1 X164.274 Y86.515 E.02385
G1 X164.761 Y86.225 E.02154
G1 X165.336 Y86.089 E.02246
G1 X166.002 Y86.153 E.02543
G1 X166.474 Y86.353 E.01948
G1 X166.837 Y86.635 E.01747
G1 X167.19 Y87.109 E.02246
G1 X167.369 Y87.59 E.01951
G1 X167.416 Y88.006 E.01591
G1 X167.416 Y92.011 E.15222
G1 X167.352 Y92.491 E.0184
G1 X167.118 Y93.033 E.02244
G1 X166.701 Y93.502 E.02385
G1 X166.253 Y93.779 E.02002
G1 X165.56 Y93.933 E.02698
G1 X165.547 Y93.931 E.0005
M204 S1000
;WIPE_START
G1 F8640
G1 X165.487 Y93.924 E-.01395
G1 X164.973 Y93.864 E-.11949
G1 X164.501 Y93.664 E-.11837
G1 X164.138 Y93.382 E-.10614
G1 X163.785 Y92.908 E-.13646
G1 X163.606 Y92.427 E-.11851
G1 X163.559 Y91.961 E-.10815
G1 X163.559 Y90.753 E-.27893
;WIPE_END
G1 Z.4 F720
G1 X165.497 Y79.46 F10800
G1 Z.2 F720
G1 E1 F2100
M204 S800
G1 F900
G1 X165.07 Y79.431 E.01627
G1 X164.625 Y79.247 E.0183
G1 X164.292 Y78.982 E.01617
G1 X163.984 Y78.547 E.02026
G1 X163.818 Y77.954 E.0234
G1 X163.879 Y77.341 E.02341
G1 X164.085 Y76.892 E.01878
G1 X164.444 Y76.498 E.02026
G1 X164.989 Y76.209 E.02345
G1 X165.561 Y76.141 E.02189
G1 X166.036 Y76.222 E.01831
G1 X166.545 Y76.509 E.02221
G1 X166.944 Y76.98 E.02346
G1 X167.144 Y77.561 E.02335
G1 X167.122 Y78.176 E.02339
G1 X166.879 Y78.742 E.02341
G1 X166.557 Y79.1 E.0183
G1 X166.197 Y79.326 E.01615
G1 X165.685 Y79.472 E.02023
G1 X165.557 Y79.464 E.00487
M204 S1000
;WIPE_START
G1 F8640
G1 X165.497 Y79.46 E-.01388
G1 X165.07 Y79.431 E-.09882
G1 X164.625 Y79.247 E-.11119
G1 X164.292 Y78.982 E-.09827
G1 X163.984 Y78.547 E-.12307
G1 X163.818 Y77.954 E-.14219
G1 X163.879 Y77.341 E-.14224
G1 X164.085 Y76.892 E-.11407
G1 X164.444 Y76.498 E-.12308
G1 X164.571 Y76.431 E-.03319
;WIPE_END
G1 Z.4 F720
G1 X163.329 Y77.958 F10800
G1 Z.2 F720
G1 E1 F2100
M204 S800
;TYPE:Perimeter
;WIDTH:0.556114
G1 F900
G1 X163.412 Y77.283 E.02902
;WIDTH:0.532824
G1 X163.59 Y76.809 E.02063
;WIDTH:0.546304
G1 X163.829 Y76.46 E.0177
G1 X164.234 Y76.072 E.02348
;WIDTH:0.526868
G1 X164.779 Y75.788 E.02473
;WIDTH:0.55092
G1 X165.289 Y75.681 E.02201
G1 X165.771 Y75.685 E.02036
;WIDTH:0.526364
G1 X166.285 Y75.817 E.02133
;WIDTH:0.526672
G1 X166.78 Y76.102 E.02298
;WIDTH:0.549644
G1 X167.145 Y76.461 E.02157
G1 X167.431 Y76.911 E.02247
;WIDTH:0.52493
G1 X167.591 Y77.419 E.02135
;WIDTH:0.53751
G1 X167.63 Y77.673 E.01057
;WIDTH:0.577953
G1 X167.634 Y77.94 E.01188
;WIDTH:0.618396
G1 X167.637 Y78.208 E.01282
;WIDTH:0.621092
G1 X167.638 Y78.224 E.00077
M204 S1000
;WIPE_START
G1 F8640
G1 X167.637 Y78.208 E-.0037
G1 X167.634 Y77.94 E-.06189
G1 X167.63 Y77.673 E-.06166
G1 X167.591 Y77.419 E-.05934
G1 X167.431 Y76.911 E-.12298
G1 X167.145 Y76.461 E-.12312
G1 X166.78 Y76.102 E-.11821
G1 X166.285 Y75.817 E-.13189
G1 X165.771 Y75.685 E-.12254
G1 X165.289 Y75.681 E-.1113
G1 X164.935 Y75.755 E-.08337
;WIPE_END
G1 Z.4 F720
G1 X165.46 Y95.15 F10800
G1 Z.2 F720
G1 E1 F2100
M204 S800
;WIDTH:0.715356
G1 F900
G1 X165.006 Y95.113 E.02547
G1 X164.645 Y95.035 E.02065
;WIDTH:0.703277
G1 X164.062 Y94.809 E.03433
;WIDTH:0.706033
G1 X163.74 Y94.623 E.0205
G1 X163.344 Y94.309 E.02787
;WIDTH:0.713543
G1 X163 Y93.919 E.029
G1 X162.712 Y93.48 E.02928
;WIDTH:0.706283
G1 X162.51 Y93.007 E.02837
G1 X162.386 Y92.5 E.02879
;WIDTH:0.704487
G1 X162.341 Y91.961 E.02975
;WIDTH:0.702442
G1 X162.341 Y89.686 E.12476
G1 X162.402 Y88.792 E.04914
;WIDTH:0.664267
G1 X162.462 Y87.897 E.04634
;WIDTH:0.655809
G1 X162.545 Y87.165 E.03754
G1 X162.539 Y87.016 E.0076
;WIDTH:0.616857
G1 X162.533 Y86.867 E.00712
;WIDTH:0.577904
G1 X162.527 Y86.719 E.00659
;WIDTH:0.538952
G1 X162.521 Y86.57 E.00615
;WIDTH:0.499999
G1 X163.242 Y78.603 E.30403
;WIDTH:0.528057
G1 X163.286 Y78.281 E.01311
;WIDTH:0.556114
G1 X163.329 Y77.958 E.0139
G1 X163.356 Y78.071 E.00496
;WIDTH:0.539454
G1 X163.506 Y78.583 E.02203
;WIDTH:0.499999
G1 X163.611 Y78.812 E.00957
G1 X164.065 Y79.397 E.02814
G1 X164.495 Y79.696 E.01991
G1 X165.028 Y79.886 E.02151
G1 X165.559 Y79.935 E.02027
G1 X165.81 Y79.912 E.00958
G1 X166.513 Y79.678 E.02816
G1 X166.938 Y79.372 E.0199
G1 X167.294 Y78.933 E.02148
;WIDTH:0.540364
G1 X167.408 Y78.697 E.01084
;WIDTH:0.580728
G1 X167.523 Y78.461 E.01174
;WIDTH:0.621092
G1 X167.638 Y78.224 E.01266
G1 X167.67 Y78.355 E.00648
;WIDTH:0.580139
G1 X167.702 Y78.486 E.00602
;WIDTH:0.539186
G1 X167.77 Y79.015 E.02201
;WIDTH:0.499999
G1 X168.394 Y85.907 E.26301
;WIDTH:0.500687
G1 X168.477 Y86.827 E.03516
;WIDTH:0.549394
G1 X168.464 Y86.96 E.00563
;WIDTH:0.598101
G1 X168.452 Y87.093 E.00616
;WIDTH:0.646807
G1 X168.44 Y87.226 E.00671
G1 X168.47 Y87.468 E.01224
;WIDTH:0.62935
G1 X168.518 Y87.979 E.02503
;WIDTH:0.664967
G1 X168.582 Y88.925 E.04904
;WIDTH:0.703829
G1 X168.646 Y89.87 E.05205
;WIDTH:0.710796
G1 X168.646 Y91.994 E.11795
;WIDTH:0.712768
G1 X168.593 Y92.553 E.03127
;WIDTH:0.717229
G1 X168.459 Y93.055 E.02913
G1 X168.147 Y93.703 E.04032
;WIDTH:0.719437
G1 X167.826 Y94.115 E.02938
G1 X167.45 Y94.475 E.02928
;WIDTH:0.712854
G1 X167.017 Y94.761 E.02891
G1 X166.543 Y94.974 E.02895
;WIDTH:0.715356
G1 X166.041 Y95.104 E.02899
G1 X165.523 Y95.155 E.0291
G1 X165.52 Y95.155 E.00017
M204 S1000
G1 X165.483 Y95.72 F10800
M204 S800
;TYPE:External perimeter
;WIDTH:0.499999
G1 F900
G1 X164.885 Y95.67 E.02281
G1 X164.362 Y95.538 E.0205
G1 X163.838 Y95.321 E.02156
G1 X163.42 Y95.084 E.01826
G1 X162.982 Y94.74 E.02117
G1 X162.567 Y94.289 E.02329
G1 X162.204 Y93.721 E.02562
G1 X161.985 Y93.214 E.02099
G1 X161.834 Y92.619 E.02333
G1 X161.783 Y91.998 E.02368
G1 X161.783 Y89.656 E.08901
G1 X162.876 Y77.585 E.46065
G1 X162.975 Y77.065 E.02012
G1 X163.17 Y76.587 E.01962
G1 X163.454 Y76.156 E.01962
G1 X163.817 Y75.79 E.01959
G1 X164.293 Y75.479 E.02161
G1 X164.767 Y75.293 E.01935
G1 X165.273 Y75.199 E.01956
G1 X165.819 Y75.22 E.02077
G1 X166.253 Y75.316 E.01689
G1 X166.738 Y75.509 E.01984
G1 X167.157 Y75.789 E.01915
G1 X167.521 Y76.156 E.01965
G1 X167.805 Y76.587 E.01962
G1 X168 Y77.065 E.01962
G1 X168.099 Y77.585 E.02012
G1 X169.209 Y89.84 E.46767
G1 X169.209 Y91.998 E.08202
G1 X169.157 Y92.619 E.02368
G1 X169.007 Y93.214 E.02332
G1 X168.784 Y93.721 E.02105
G1 X168.571 Y94.084 E.016
G1 X168.227 Y94.523 E.0212
G1 X167.776 Y94.938 E.02329
G1 X167.263 Y95.273 E.02329
G1 X166.701 Y95.52 E.02333
G1 X166.107 Y95.67 E.02328
G1 X165.543 Y95.717 E.02151
M204 S1000
;WIPE_START
G1 F8640
G1 X165.483 Y95.72 E-.01387
G1 X164.885 Y95.67 E-.13856
G1 X164.362 Y95.538 E-.12455
G1 X163.838 Y95.321 E-.13096
G1 X163.42 Y95.084 E-.11095
G1 X162.982 Y94.74 E-.1286
G1 X162.567 Y94.289 E-.14152
G1 X162.204 Y93.721 E-.15565
G1 X162.109 Y93.501 E-.05534
;WIPE_END
G1 Z.4 F720
G1 X167.14 Y79.422 F10800
G1 Z.2 F720
G1 E1 F2100
M204 S800
;TYPE:Solid infill
;WIDTH:0.511737
G1 F900
G1 X167.444 Y79.727 E.01679
G1 X167.51 Y80.455 E.0285
G1 X166.925 Y79.871 E.03222
G1 X166.717 Y80.009 E.00973
G1 X166.5 Y80.109 E.00931
G1 X167.576 Y81.184 E.05929
G1 X167.642 Y81.913 E.02853
G1 X165.992 Y80.264 E.09094
G1 X165.587 Y80.327 E.01598
G1 X165.373 Y80.307 E.00838
G1 X167.708 Y82.642 E.12873
G1 X167.774 Y83.371 E.02853
G1 X164.539 Y80.136 E.17834
G1 X164.334 Y80.05 E.00867
G1 X164.123 Y79.928 E.0095
G1 X163.821 Y79.7 E.01475
G1 X163.559 Y79.411 E.01521
G1 X163.525 Y79.786 E.01468
G1 X167.84 Y84.1 E.23786
G1 X167.906 Y84.829 E.02853
G1 X163.47 Y80.394 E.24453
G1 X163.415 Y81.002 E.0238
G1 X167.972 Y85.558 E.2512
G1 X168.038 Y86.287 E.02853
G1 X163.36 Y81.61 E.25787
G1 X163.305 Y82.218 E.0238
G1 X166.542 Y85.454 E.17843
G1 X166.39 Y85.389 E.00644
G1 X166.112 Y85.314 E.01122
G1 X165.692 Y85.267 E.01647
G1 X163.25 Y82.826 E.1346
G1 X163.195 Y83.434 E.0238
G1 X165.049 Y85.288 E.10221
G1 X164.518 Y85.42 E.02133
G1 X163.14 Y84.041 E.076
G1 X163.085 Y84.649 E.0238
G1 X164.074 Y85.638 E.05452
G1 X163.88 Y85.754 E.00881
G1 X163.685 Y85.913 E.00981
G1 X163.03 Y85.257 E.03614
G1 X162.975 Y85.865 E.0238
G1 X163.363 Y86.254 E.02142
G1 X163.27 Y86.354 E.00532
G1 X163.083 Y86.637 E.01322
G1 X162.731 Y86.284 E.01943
M204 S1000
;WIPE_START
G1 F8640
G1 X163.083 Y86.637 E-.11511
G1 X163.27 Y86.354 E-.07832
G1 X163.363 Y86.254 E-.03153
G1 X162.975 Y85.865 E-.12686
G1 X163.03 Y85.257 E-.14096
G1 X163.685 Y85.913 E-.21405
G1 X163.88 Y85.754 E-.0581
G1 X164.074 Y85.638 E-.05219
G1 X163.514 Y85.078 E-.18288
;WIPE_END
G1 Z.4 F720
; stop printing object Display Bracket Right.stl id:1 copy 0
; printing object Stand Mounting Plate.stl id:2 copy 0
G1 X138.95 Y87.042 F10800
G1 Z.2 F720
G1 E1 F2100
M204 S800
;TYPE:Perimeter
;WIDTH:0.499999
G1 F900
G1 X138.48 Y86.977 E.01803
G1 X138.027 Y86.814 E.0183
G1 X137.617 Y86.561 E.01831
G1 X137.269 Y86.227 E.01833
G1 X136.998 Y85.829 E.0183
G1 X136.816 Y85.383 E.01831
G1 X136.731 Y84.908 E.01834
G1 X136.739 Y84.461 E.01699
G1 X136.86 Y83.959 E.01963
G1 X137.07 Y83.525 E.01832
G1 X137.365 Y83.144 E.01831
G1 X137.733 Y82.833 E.01831
G1 X138.158 Y82.605 E.01833
G1 X138.62 Y82.471 E.01828
G1 X139.047 Y82.438 E.01628
G1 X139.556 Y82.494 E.01946
G1 X140.032 Y82.664 E.01921
G1 X140.441 Y82.917 E.01828
G1 X140.789 Y83.251 E.01833
G1 X141.06 Y83.649 E.0183
G1 X141.257 Y84.167 E.02106
G1 X141.328 Y84.569 E.01551
G1 X141.313 Y85.051 E.01833
G1 X141.198 Y85.519 E.01832
G1 X140.988 Y85.953 E.01832
G1 X140.693 Y86.334 E.01831
G1 X140.325 Y86.645 E.01831
G1 X139.901 Y86.873 E.0183
G1 X139.347 Y87.017 E.02176
G1 X139.01 Y87.039 E.01284
M204 S1000
G1 X138.998 Y86.587 F10800
M204 S800
;TYPE:External perimeter
G1 F900
G1 X138.621 Y86.543 E.01443
G1 X138.255 Y86.418 E.0147
G1 X137.923 Y86.221 E.01467
G1 X137.639 Y85.959 E.01469
G1 X137.416 Y85.643 E.0147
G1 X137.263 Y85.288 E.01469
G1 X137.188 Y84.908 E.01472
G1 X137.191 Y84.533 E.01425
G1 X137.278 Y84.145 E.01511
G1 X137.44 Y83.794 E.01469
G1 X137.671 Y83.484 E.01469
G1 X137.962 Y83.229 E.01471
G1 X138.299 Y83.04 E.01468
G1 X138.668 Y82.925 E.01469
G1 X139.009 Y82.893 E.01302
G1 X139.437 Y82.935 E.01634
G1 X139.933 Y83.134 E.02031
G1 X140.135 Y83.257 E.00899
G1 X140.419 Y83.519 E.01469
G1 X140.643 Y83.835 E.01472
G1 X140.81 Y84.262 E.01743
G1 X140.871 Y84.739 E.01828
G1 X140.81 Y85.216 E.01828
G1 X140.622 Y85.68 E.01903
G1 X140.387 Y85.994 E.01491
G1 X140.097 Y86.249 E.01468
G1 X139.76 Y86.438 E.01468
G1 X139.299 Y86.562 E.01814
G1 X139.058 Y86.583 E.00919
M204 S1000
;WIPE_START
G1 F8640
G1 X138.998 Y86.587 E-.01388
G1 X138.621 Y86.543 E-.08764
G1 X138.255 Y86.418 E-.0893
G1 X137.923 Y86.221 E-.08914
G1 X137.639 Y85.959 E-.08922
G1 X137.416 Y85.643 E-.0893
