; generated by PrusaSlicer 2.9.4 on 2026-03-18 at 00:31:30 UTC


;
;
; 

; external perimeters extrusion width = 0.45mm
; perimeters extrusion width = 0.45mm
; infill extrusion width = 0.45mm
; solid infill extrusion width = 0.45mm
; top infill extrusion width = 0.40mm
; first layer extrusion width = 0.42mm

M73 P0 R20
M73 Q0 S20
M201 X1000 Y1000 Z200 E5000 ; sets maximum accelerations, mm/sec^2
M203 X200 Y200 Z12 E120 ; sets maximum feedrates, mm / sec
M204 S1250 T1250 ; sets acceleration (S) and retract acceleration (R), mm/sec^2
M205 X8.00 Y8.00 Z0.40 E4.50 ; sets the jerk limits, mm/sec
M205 S0 T0 ; sets the minimum extruding and travel feed rate, mm/sec

; printing object OLED Frame.stl id:0 copy 0
; stop printing object OLED Frame.stl id:0 copy 0

;TYPE:Custom
M862.3 P "MK3S" ; printer model check
M862.1 P0.4 ; nozzle diameter check
M115 U3.14.1 ; tell printer latest fw version
G90 ; use absolute coordinates
M83 ; extruder relative mode
M104 S240 ; set extruder temp
M140 S90 ; set bed temp
M190 S90 ; wait for bed temp
M109 S240 ; wait for extruder temp
G28 W ; home all without mesh bed level
G80 X107.299 Y85.5976 W35.4028 H38.8081 ; mesh bed levelling

G1 Z0.2 F720
G1 Y-3 F1000 ; go outside print area
G92 E0
G1 X60 E9 F1000 ; intro line
G1 X100 E12.5 F1000 ; intro line

G92 E0
M221 S95

; Don't change E values below. Excessive value can damage the printer.
M907 E430 ; set extruder motor current
G21 ; set units to millimeters
G90 ; use absolute coordinates
M83 ; use relative distances for extrusion

M900 K0.08 ; Filament gcode LA 1.5
M900 K45 ; Filament gcode LA 1.0




M107
;LAYER_CHANGE
;Z:0.2
;HEIGHT:0.2
G1 E-1 F2100
G1 Z.4 F720
G1 X108.281 Y87.02 F10800
G1 Z.2 F720
G1 E1 F2100
M204 S800
;TYPE:Skirt/Brim
;WIDTH:0.42
G1 F1200
G1 X108.594 Y86.69 E.01426
G1 X109.309 Y86.19 E.02736
G1 X110.162 Y85.874 E.02852
G1 X110.849 Y85.786 E.02172
G1 X139.533 Y85.82 E.89937
G1 X140.197 Y85.97 E.02134
G1 X140.691 Y86.19 E.01696
G1 X141.549 Y86.831 E.03358
G1 X141.838 Y87.169 E.01394
G1 X142.274 Y87.969 E.02857
G1 X142.499 Y88.957 E.03177
G1 X142.513 Y120.8 E.99842
G1 X142.44 Y121.468 E.02107
G1 X142.274 Y122.031 E.0184
G1 X141.719 Y122.98 E.03447
G1 X141.407 Y123.309 E.01422
G1 X140.691 Y123.81 E.0274
G1 X139.838 Y124.126 E.02852
G1 X139.152 Y124.214 E.02169
G1 X110.848 Y124.214 E.88745
G1 X109.687 Y123.989 E.03708
M73 Q1 S20
G1 X109.01 Y123.632 E.024
M73 P1 R20
G1 X108.594 Y123.31 E.01649
G1 X108.162 Y122.831 E.02022
G1 X107.726 Y122.031 E.02857
G1 X107.56 Y121.468 E.0184
G1 X107.487 Y120.8 E.02107
G1 X107.487 Y89.2 E.9908
G1 X107.56 Y88.532 E.02107
G1 X107.726 Y87.969 E.0184
G1 X108.25 Y87.072 E.03257
M204 S1000
;WIPE_START
G1 F8640
G1 X108.281 Y87.02 E-.01398
G1 X108.594 Y86.69 E-.10502
G1 X109.309 Y86.19 E-.20146
G1 X110.162 Y85.874 E-.21004
G1 X110.849 Y85.786 E-.15993
G1 X112.19 Y85.788 E-.30957
;WIPE_END
G1 Z.4 F720
; printing object OLED Frame.stl id:0 copy 0
G1 X113.757 Y116.201 F10800
G1 Z.2 F720
G1 E1 F2100
M204 S800
;TYPE:External perimeter
;WIDTH:0.625518
G1 F1200
G1 X112.984 Y116.19 E.03745
;WIDTH:0.627632
G1 X112.968 Y116.191 E.00078
M204 S1000
;WIPE_START
G1 F8640
G1 X112.984 Y116.19 E-.0037
G1 X113.757 Y116.201 E-.17851
;WIPE_END
G1 E-.81779 F2100
G1 Z.4 F720
G1 X113.729 Y121.253 F10800
G1 Z.2 F720
G1 E1 F2100
M204 S800
;WIDTH:0.38292
G1 F1200
G1 X112.965 Y121.252 E.0216
M204 S1000
;WIPE_START
G1 F8640
G1 X113.729 Y121.253 E-.17641
;WIPE_END
G1 E-.82359 F2100
G1 Z.4 F720
G1 X136.257 Y116.203 F10800
G1 Z.2 F720
G1 E1 F2100
M204 S800
;WIDTH:0.608294
G1 F1200
G1 X136.945 Y116.197 E.03234
;WIDTH:0.605868
G1 X136.97 Y116.197 E.00117
M204 S1000
;WIPE_START
G1 F8640
G1 X136.945 Y116.197 E-.00577
G1 X136.257 Y116.203 E-.15887
;WIPE_END
G1 E-.83536 F2100
G1 Z.4 F720
G1 X137.029 Y121.253 F10800
G1 Z.2 F720
G1 E1 F2100
M204 S800
;WIDTH:0.38292
G1 F1200
G1 X136.265 Y121.252 E.0216
M204 S1000
;WIPE_START
G1 F8640
G1 X137.029 Y121.253 E-.17641
;WIPE_END
G1 E-.82359 F2100
G1 Z.4 F720
G1 X111.042 Y120.649 F10800
G1 Z.2 F720
G1 E1 F2100
M204 S800
;TYPE:Perimeter
;WIDTH:0.36208
G1 F1200
G1 X110.982 Y120.684 E.00184
G1 X111.042 Y120.719 E.00184
G1 X111.062 Y120.684 E.00107
M204 S1000
;WIPE_START
G1 F8640
G1 X111.042 Y120.719 E-.00931
G1 X110.982 Y120.684 E-.01604
G1 X111.042 Y120.649 E-.01604
;WIPE_END
G1 E-.95861 F2100
G1 Z.4 F720
G1 X138.996 Y120.651 F10800
G1 Z.2 F720
G1 E1 F2100
M204 S800
;WIDTH:0.361966
G1 F1200
G1 X138.936 Y120.685 E.00183
G1 X138.996 Y120.72 E.00184
G1 X139.016 Y120.685 E.00107
M204 S1000
;WIPE_START
G1 F8640
G1 X138.996 Y120.72 E-.00931
G1 X138.936 Y120.685 E-.01604
G1 X138.996 Y120.651 E-.01592
;WIPE_END
G1 E-.95873 F2100
G1 Z.4 F720
G1 X111.119 Y89.38 F10800
G1 Z.2 F720
G1 E1 F2100
M204 S800
;WIDTH:0.419999
G1 F1200
G1 X138.92 Y89.38 E.87168
G1 X138.92 Y115.876 E.83076
G1 X138.941 Y116.736 E.02697
G1 X138.534 Y116.359 E.01739
G1 X137.988 Y116.09 E.01908
G1 X137.695 Y116.023 E.00942
G1 X137.789 Y115.907 E.00468
G1 X137.885 Y115.632 E.00913
G1 X137.955 Y115.109 E.01654
G1 X137.987 Y114.104 E.03153
G1 X137.987 Y99.309 E.46389
G1 X137.897 Y98.89 E.01344
G1 X137.767 Y98.65 E.00856
G1 X137.622 Y98.492 E.00672
G1 X137.357 Y98.314 E.01001
G1 X136.891 Y98.213 E.01495
G1 X113.109 Y98.213 E.74567
G1 X112.814 Y98.255 E.00934
G1 X112.425 Y98.449 E.01363
G1 X112.249 Y98.625 E.0078
G1 X112.055 Y99.014 E.01363
G1 X112.013 Y99.309 E.00934
G1 X112.018 Y114.628 E.48032
G1 X112.15 Y115.786 E.03654
G1 X112.285 Y116.026 E.00863
G1 X112.02 Y116.087 E.00853
G1 X111.509 Y116.327 E.0177
G1 X111.061 Y116.732 E.01894
G1 X111.076 Y116.357 E.01177
G1 X111.08 Y89.401 E.84519
M204 S1000
G1 X110.737 Y89.151 F10800
M73 P2 R19
M73 Q2 S20
M204 S800
;TYPE:External perimeter
G1 F1200
G1 X110.782 Y89.057 E.00327
G1 X110.937 Y89.003 E.00515
G1 X139.019 Y89.003 E.88049
G1 X139.217 Y89.057 E.00643
G1 X139.297 Y89.213 E.0055
G1 X139.297 Y115.867 E.83572
G1 X139.346 Y117.05 E.03712
;WIDTH:0.435895
G1 X139.503 Y118.348 E.04272
;WIDTH:0.407302
G1 X139.513 Y118.814 E.01412
;WIDTH:0.41049
G1 X139.501 Y119.317 E.01538
;WIDTH:0.43879
G1 X139.317 Y120.802 E.04926
;WIDTH:0.419999
G1 X139.208 Y120.964 E.00612
G1 X139.059 Y121.028 E.00508
G1 X138.57 Y121.141 E.01574
G1 X138.001 Y121.2 E.01794
G1 X137.457 Y121.2 E.01706
G1 X137.762 Y121.077 E.01031
G1 X138.32 Y120.76 E.02012
G1 X138.746 Y120.424 E.01701
;WIDTH:0.44385
G1 X139.002 Y119.992 E.01674
G1 X139.138 Y119.258 E.02489
;WIDTH:0.41049
G1 X139.168 Y118.854 E.01238
;WIDTH:0.407302
G1 X139.142 Y118.381 E.01435
;WIDTH:0.435895
G1 X139.031 Y117.702 E.02248
G1 X138.868 Y117.291 E.01445
;WIDTH:0.419999
G1 X138.606 Y116.916 E.01434
G1 X138.294 Y116.649 E.01288
G1 X137.833 Y116.434 E.01595
G1 X137.368 Y116.35 E.01482
;WIDTH:0.466467
G1 X137.268 Y116.312 E.00377
;WIDTH:0.512934
G1 X137.169 Y116.274 E.00414
;WIDTH:0.559401
G1 X137.07 Y116.235 E.00457
;WIDTH:0.605868
G1 X136.97 Y116.197 E.00501
G1 X137.036 Y116.157 E.00361
;WIDTH:0.569346
G1 X137.102 Y116.116 E.0034
;WIDTH:0.532824
G1 X137.168 Y116.076 E.00314
;WIDTH:0.496301
G1 X137.337 Y115.847 E.01073
;WIDTH:0.45815
G1 X137.506 Y115.617 E.00985
;WIDTH:0.419999
G1 X137.578 Y115.097 E.01646
G1 X137.61 Y114.104 E.03115
G1 X137.61 Y99.309 E.46389
G1 X137.532 Y98.985 E.01045
G1 X137.344 Y98.747 E.00951
G1 X137.179 Y98.646 E.00607
G1 X136.891 Y98.59 E.0092
G1 X113.109 Y98.59 E.74567
G1 X112.877 Y98.627 E.00737
M73 Q2 S19
G1 X112.627 Y98.768 E.009
G1 X112.453 Y99.008 E.00929
G1 X112.39 Y99.309 E.00964
G1 X112.395 Y114.606 E.47963
G1 X112.493 Y115.609 E.0316
G1 X112.586 Y115.81 E.00694
;WIDTH:0.46066
G1 X112.661 Y115.886 E.00371
;WIDTH:0.501321
G1 X112.735 Y115.963 E.00407
;WIDTH:0.541981
G1 X112.81 Y116.039 E.00443
;WIDTH:0.582642
G1 X112.885 Y116.115 E.00479
;WIDTH:0.623302
G1 X112.959 Y116.191 E.00512
G1 X112.896 Y116.221 E.00337
;WIDTH:0.586866
G1 X112.833 Y116.251 E.00316
;WIDTH:0.55043
G1 X112.769 Y116.281 E.00298
;WIDTH:0.513993
G1 X112.491 Y116.351 E.01123
;WIDTH:0.466996
G1 X112.214 Y116.42 E.01007
;WIDTH:0.419999
G1 X111.793 Y116.592 E.01426
G1 X111.428 Y116.88 E.01458
G1 X111.181 Y117.208 E.01287
;WIDTH:0.429442
G1 X110.973 Y117.702 E.01723
G1 X110.857 Y118.387 E.02233
;WIDTH:0.406759
G1 X110.832 Y118.826 E.0133
;WIDTH:0.416726
G1 X110.873 Y119.27 E.01386
;WIDTH:0.449445
G1 X111.011 Y120.025 E.02594
G1 X111.218 Y120.378 E.01383
;WIDTH:0.419999
G1 X111.594 Y120.711 E.01575
G1 X112.062 Y120.977 E.01688
G1 X112.549 Y121.2 E.01679
G1 X111.541 Y121.166 E.03162
G1 X111.004 Y121.049 E.01723
G1 X110.791 Y120.963 E.0072
G1 X110.734 Y120.88 E.00316
G1 X110.673 Y120.72 E.00537
;WIDTH:0.443606
G1 X110.545 Y119.662 E.03551
;WIDTH:0.419148
G1 X110.487 Y118.837 E.02587
;WIDTH:0.406759
G1 X110.498 Y118.332 E.01528
;WIDTH:0.436082
G1 X110.679 Y116.86 E.04848
;WIDTH:0.419999
G1 X110.699 Y116.357 E.01578
G1 X110.703 Y89.221 E.85083
G1 X110.711 Y89.205 E.00056
M204 S1000
;WIPE_START
G1 F8640
G1 X110.737 Y89.151 E-.01384
G1 X110.782 Y89.057 E-.02406
G1 X110.937 Y89.003 E-.0379
G1 X114.94 Y89.003 E-.9242
;WIPE_END
G1 Z.4 F720
G1 X115.782 Y120.663 F10800
G1 Z.2 F720
G1 E1 F2100
M204 S800
;TYPE:Perimeter
G1 F1200
G1 X116.044 Y120.325 E.01341
G1 X116.281 Y119.831 E.01718
G1 X116.404 Y119.394 E.01423
G1 X116.46 Y118.895 E.01574
G1 X116.434 Y118.389 E.01589
G1 X116.325 Y117.895 E.01586
G1 X116.164 Y117.475 E.0141
G1 X115.907 Y117.038 E.0159
G1 X115.568 Y116.663 E.01585
G1 X116.088 Y116.683 E.01632
G1 X133.912 Y116.683 E.55886
G1 X134.447 Y116.644 E.01682
G1 X134.166 Y116.943 E.01287
G1 X133.878 Y117.392 E.01673
G1 X133.684 Y117.867 E.01609
G1 X133.579 Y118.303 E.01406
G1 X133.539 Y118.803 E.01573
G1 X133.58 Y119.304 E.01576
G1 X133.705 Y119.797 E.01595
G1 X133.914 Y120.253 E.01573
G1 X134.225 Y120.664 E.01616
G1 X133.678 Y120.629 E.01719
G1 X127.425 Y120.622 E.19606
G1 X127.377 Y120.561 E.00243
M73 Q3 S19
G1 X127.236 Y120.543 E.00446
G1 X121.167 Y120.543 E.19029
G1 X121.065 Y120.622 E.00405
G1 X116.287 Y120.63 E.14981
G1 X115.842 Y120.659 E.01398
M73 P3 R19
M204 S1000
;WIPE_START
G1 F8640
G1 X115.782 Y120.663 E-.01388
G1 X116.044 Y120.325 E-.09875
G1 X116.281 Y119.831 E-.12651
G1 X116.404 Y119.394 E-.10483
G1 X116.46 Y118.895 E-.11594
G1 X116.434 Y118.389 E-.11699
G1 X116.325 Y117.895 E-.11681
G1 X116.164 Y117.475 E-.10386
G1 X115.907 Y117.038 E-.11706
G1 X115.659 Y116.763 E-.08537
;WIPE_END
G1 Z.4 F720
G1 X114.157 Y121.2 F10800
G1 Z.2 F720
G1 E1 F2100
M204 S800
;TYPE:External perimeter
G1 F1200
G1 X114.769 Y120.902 E.02134
G1 X115.454 Y120.46 E.02556
G1 X115.745 Y120.095 E.01464
G1 X115.936 Y119.678 E.01438
G1 X116.039 Y119.297 E.01237
G1 X116.084 Y118.859 E.01381
G1 X116.057 Y118.414 E.01398
G1 X115.958 Y117.981 E.01393
G1 X115.814 Y117.616 E.0123
G1 X115.584 Y117.234 E.01398
G1 X115.294 Y116.922 E.01336
;WIDTH:0.446232
G1 X114.922 Y116.662 E.01522
G1 X114.493 Y116.511 E.01525
;WIDTH:0.476056
G1 X114.309 Y116.433 E.0072
;WIDTH:0.522842
G1 X114.125 Y116.356 E.00796
;WIDTH:0.569628
G1 X113.941 Y116.279 E.00874
;WIDTH:0.616414
G1 X113.757 Y116.201 E.00953
G1 X113.843 Y116.183 E.00419
;WIDTH:0.576277
G1 X113.928 Y116.165 E.00385
;WIDTH:0.53614
G1 X114.014 Y116.146 E.00361
;WIDTH:0.496003
G1 X114.1 Y116.128 E.00331
;WIDTH:0.455866
G1 X114.579 Y116.136 E.01645
;WIDTH:0.446232
G1 X115.071 Y116.237 E.01684
G1 X115.584 Y116.285 E.01728
;WIDTH:0.419999
G1 X116.088 Y116.306 E.01582
G1 X133.912 Y116.306 E.55886
G1 X134.417 Y116.266 E.01588
;WIDTH:0.446249
G1 X134.921 Y116.238 E.01693
G1 X135.408 Y116.138 E.01667
;WIDTH:0.428909
G1 X135.789 Y116.119 E.01224
;WIDTH:0.47206
G1 X135.902 Y116.14 E.0041
;WIDTH:0.51521
G1 X136.016 Y116.162 E.00456
;WIDTH:0.558361
G1 X136.129 Y116.183 E.00493
;WIDTH:0.601511
G1 X136.242 Y116.204 E.00534
G1 X136.142 Y116.251 E.00513
;WIDTH:0.558361
G1 X136.042 Y116.299 E.00475
;WIDTH:0.51521
G1 X135.942 Y116.346 E.00434
;WIDTH:0.47206
G1 X135.842 Y116.393 E.00394
;WIDTH:0.457622
G1 X135.139 Y116.623 E.02551
G1 X134.76 Y116.874 E.01568
;WIDTH:0.419999
G1 X134.44 Y117.203 E.01439
G1 X134.2 Y117.588 E.01422
G1 X134.035 Y118.004 E.01403
G1 X133.947 Y118.386 E.01229
G1 X133.916 Y118.812 E.01339
G1 X133.955 Y119.267 E.01432
G1 X134.069 Y119.699 E.01401
G1 X134.265 Y120.112 E.01433
G1 X134.593 Y120.502 E.01598
G1 X135.533 Y121.075 E.03452
G1 X135.849 Y121.2 E.01065
G1 X135.138 Y121.2 E.02229
G1 X134.192 Y121.04 E.03008
G1 X133.678 Y121.006 E.01615
G1 X127.34 Y120.999 E.19872
G1 X127.236 Y120.92 E.00409
G1 X121.254 Y120.92 E.18756
G1 X121.15 Y120.999 E.00409
G1 X116.311 Y121.006 E.15172
G1 X115.808 Y121.04 E.01581
G1 X114.862 Y121.2 E.03008
G1 X114.217 Y121.2 E.02022
M204 S1000
;WIPE_START
G1 F8640
G1 X114.157 Y121.2 E-.01385
G1 X114.769 Y120.902 E-.15717
G1 X115.454 Y120.46 E-.18824
G1 X115.745 Y120.095 E-.10779
G1 X115.936 Y119.678 E-.10591
G1 X116.039 Y119.297 E-.09113
G1 X116.084 Y118.859 E-.10167
G1 X116.057 Y118.414 E-.10294
G1 X115.958 Y117.981 E-.10256
G1 X115.912 Y117.865 E-.02874
;WIPE_END
G1 Z.4 F720
G1 X133.282 Y116.835 F10800
G1 Z.2 F720
G1 E1 F2100
M204 S800
;TYPE:Solid infill
;WIDTH:0.425178
G1 F1200
G1 X133.63 Y117.183 E.01564
G1 X133.464 Y117.559 E.01306
G1 X132.911 Y117.005 E.02488
G1 X132.37 Y117.005 E.0172
G1 X133.331 Y117.966 E.0432
G1 X133.264 Y118.24 E.00897
G1 X133.249 Y118.424 E.00587
G1 X131.83 Y117.005 E.06378
G1 X131.289 Y117.005 E.0172
G1 X133.231 Y118.947 E.08729
G1 X133.262 Y119.343 E.01263
G1 X133.32 Y119.576 E.00763
G1 X130.748 Y117.005 E.11559
G1 X130.208 Y117.005 E.01716
G1 X133.518 Y120.315 E.14879
G1 X132.976 Y120.314 E.01723
G1 X129.667 Y117.005 E.14874
G1 X129.126 Y117.005 E.0172
G1 X132.434 Y120.313 E.1487
G1 X131.892 Y120.311 E.01723
G1 X128.586 Y117.005 E.14861
G1 X128.045 Y117.005 E.0172
G1 X131.351 Y120.31 E.14858
G1 X130.809 Y120.309 E.01723
G1 X127.504 Y117.005 E.14854
G1 X126.964 Y117.004 E.01716
G1 X130.267 Y120.308 E.14849
G1 X129.725 Y120.307 E.01723
G1 X126.423 Y117.004 E.14845
G1 X125.882 Y117.004 E.0172
G1 X129.183 Y120.305 E.14838
G1 X128.642 Y120.304 E.0172
G1 X125.342 Y117.004 E.14834
G1 X124.801 Y117.004 E.0172
G1 X128.1 Y120.303 E.14829
G1 X127.558 Y120.302 E.01723
G1 X124.26 Y117.004 E.14825
G1 X123.72 Y117.004 E.01716
G1 X126.938 Y120.222 E.14465
G1 X126.398 Y120.222 E.01716
G1 X123.179 Y117.004 E.14467
G1 X122.639 Y117.004 E.01716
G1 X125.857 Y120.222 E.14465
G1 X125.316 Y120.222 E.0172
G1 X122.098 Y117.004 E.14465
G1 X121.557 Y117.004 E.0172
G1 X124.776 Y120.222 E.14467
G1 X124.235 Y120.222 E.0172
G1 X121.017 Y117.004 E.14465
G1 X120.476 Y117.004 E.0172
G1 X123.695 Y120.222 E.14467
G1 X123.154 Y120.222 E.0172
G1 X119.935 Y117.004 E.14467
G1 X119.395 Y117.004 E.01716
G1 X122.613 Y120.222 E.14465
G1 X122.073 Y120.222 E.01716
G1 X118.854 Y117.004 E.14467
G1 X118.313 Y117.004 E.0172
G1 X121.532 Y120.222 E.14467
G1 X121.245 Y120.222 E.00912
G1 X121.02 Y120.251 E.00721
G1 X117.773 Y117.003 E.14598
G1 X117.232 Y117.003 E.0172
G1 X120.531 Y120.303 E.14831
G1 X119.992 Y120.304 E.01713
G1 X116.691 Y117.003 E.14838
G1 X116.256 Y117.003 E.01383
M73 Q4 S19
G1 X116.415 Y117.267 E.0098
G1 X119.452 Y120.305 E.13654
G1 X118.913 Y120.306 E.01713
G1 X116.695 Y118.088 E.0997
G1 X116.753 Y118.358 E.00878
M73 P4 R19
G1 X116.776 Y118.71 E.01121
G1 X118.373 Y120.307 E.07179
G1 X117.833 Y120.308 E.01716
G1 X116.748 Y119.222 E.04879
G1 X116.738 Y119.343 E.00386
G1 X116.658 Y119.673 E.01079
G1 X117.294 Y120.309 E.02859
G1 X116.754 Y120.31 E.01716
G1 X116.389 Y119.944 E.01643
M204 S1000
;WIPE_START
G1 F8640
G1 X116.754 Y120.31 E-.11935
G1 X117.294 Y120.309 E-.12469
G1 X116.658 Y119.673 E-.20768
G1 X116.738 Y119.343 E-.07841
G1 X116.748 Y119.222 E-.02803
G1 X117.833 Y120.308 E-.35447
G1 X118.211 Y120.307 E-.08737
;WIPE_END
G1 Z.4 F720
G1 X138.769 Y90.294 F10800
G1 Z.2 F720
G1 E1 F2100
M204 S800
;WIDTH:0.420211
G1 F1200
G1 X138.176 Y89.701 E.02631
G1 X137.643 Y89.701 E.01672
G1 X138.6 Y90.658 E.04246
G1 X138.6 Y91.192 E.01675
G1 X137.109 Y89.701 E.06615
G1 X136.575 Y89.701 E.01675
G1 X138.6 Y91.725 E.08982
G1 X138.601 Y92.259 E.01675
G1 X136.042 Y89.701 E.11351
G1 X135.508 Y89.701 E.01675
G1 X138.601 Y92.793 E.1372
G1 X138.601 Y93.327 E.01675
G1 X134.975 Y89.701 E.16087
G1 X134.441 Y89.701 E.01675
