; generated by PrusaSlicer 2.9.4 on 2026-03-20 at 00:19:18 UTC


;
;
; 

; external perimeters extrusion width = 0.45mm
; perimeters extrusion width = 0.45mm
; infill extrusion width = 0.45mm
; solid infill extrusion width = 0.45mm
; top infill extrusion width = 0.40mm
; first layer extrusion width = 0.50mm

M73 P0 R20
M73 Q0 S20
M201 X1000 Y1000 Z200 E5000 ; sets maximum accelerations, mm/sec^2
M203 X200 Y200 Z12 E120 ; sets maximum feedrates, mm / sec
M204 S1250 T1250 ; sets acceleration (S) and retract acceleration (R), mm/sec^2
M205 X8.00 Y8.00 Z0.40 E4.50 ; sets the jerk limits, mm/sec
M205 S0 T0 ; sets the minimum extruding and travel feed rate, mm/sec

; printing object OLED Frame.stl id:0 copy 0
; stop printing object OLED Frame.stl id:0 copy 0

;TYPE:Custom
M862.3 P "MK3S" ; printer model check
M862.1 P0.4 ; nozzle diameter check
M115 U3.14.1 ; tell printer latest fw version
G90 ; use absolute coordinates
M83 ; extruder relative mode
M104 S240 ; set extruder temp
M140 S90 ; set bed temp
M190 S90 ; wait for bed temp
M109 S240 ; wait for extruder temp
G28 W ; home all without mesh bed level
G80 X107.219 Y85.5176 W35.5628 H38.9681 ; mesh bed levelling

G1 Z0.2 F720
G1 Y-3 F1000 ; go outside print area
G92 E0
G1 X60 E9 F1000 ; intro line
G1 X100 E12.5 F1000 ; intro line

G92 E0
M221 S95

; Don't change E values below. Excessive value can damage the printer.
M907 E430 ; set extruder motor current
G21 ; set units to millimeters
G90 ; use absolute coordinates
M83 ; use relative distances for extrusion

M900 K0.08 ; Filament gcode LA 1.5
M900 K45 ; Filament gcode LA 1.0




M107
;LAYER_CHANGE
;Z:0.2
;HEIGHT:0.2
G1 E-1 F2100
G1 Z.4 F720
G1 X108.25 Y86.995 F10800
G1 Z.2 F720
G1 E1 F2100
M204 S800
;TYPE:Skirt/Brim
;WIDTH:0.5
G1 F900
G1 X108.565 Y86.662 E.01742
G1 X109.289 Y86.156 E.03357
G1 X110.155 Y85.835 E.0351
G1 X110.849 Y85.746 E.02659
G1 X139.54 Y85.78 E1.09044
G1 X140.211 Y85.932 E.02615
G1 X140.711 Y86.156 E.02082
G1 X141.577 Y86.803 E.04108
G1 X141.87 Y87.144 E.01709
G1 X142.311 Y87.953 E.03502
G1 X142.539 Y88.953 E.03898
G1 X142.553 Y120.8 E1.21039
G1 X142.48 Y121.474 E.02577
G1 X142.311 Y122.047 E.02271
G1 X141.75 Y123.005 E.04219
G1 X141.435 Y123.338 E.01742
G1 X140.711 Y123.844 E.03357
G1 X139.845 Y124.165 E.0351
G1 X139.152 Y124.254 E.02655
G1 X110.848 Y124.254 E1.07573
G1 X109.674 Y124.026 E.04545
M73 P1 R20
M73 Q1 S20
G1 X108.99 Y123.666 E.02938
G1 X108.566 Y123.338 E.02037
G1 X108.13 Y122.856 E.0247
G1 X107.689 Y122.047 E.03502
G1 X107.52 Y121.474 E.02271
G1 X107.447 Y120.8 E.02577
G1 X107.447 Y89.2 E1.201
G1 X107.52 Y88.526 E.02577
G1 X107.689 Y87.953 E.02271
G1 X108.219 Y87.047 E.03989
M204 S1000
;WIPE_START
G1 F8640
G1 X108.25 Y86.995 E-.01398
G1 X108.565 Y86.662 E-.10584
G1 X109.289 Y86.156 E-.20396
G1 X110.155 Y85.835 E-.21326
G1 X110.849 Y85.746 E-.16156
G1 X112.154 Y85.748 E-.3014
;WIPE_END
G1 Z.4 F720
; printing object OLED Frame.stl id:0 copy 0
G1 X113.796 Y116.207 F10800
G1 Z.2 F720
G1 E1 F2100
M204 S800
;TYPE:External perimeter
;WIDTH:0.614054
G1 F900
G1 X113.116 Y116.196 E.0323
;WIDTH:0.599926
G1 X113.071 Y116.196 E.00208
M204 S1000
;WIPE_START
G1 F8640
G1 X113.116 Y116.196 E-.01039
G1 X113.796 Y116.207 E-.15703
;WIPE_END
G1 E-.83258 F2100
G1 Z.4 F720
G1 X113.729 Y121.253 F10800
G1 Z.2 F720
G1 E1 F2100
M204 S800
;WIDTH:0.38292
G1 F900
G1 X112.964 Y121.252 E.02163
M204 S1000
;WIPE_START
G1 F8640
G1 X113.729 Y121.253 E-.17664
;WIPE_END
G1 E-.82336 F2100
G1 Z.4 F720
G1 X136.258 Y116.203 F10800
G1 Z.2 F720
G1 E1 F2100
M204 S800
;WIDTH:0.606462
G1 F900
G1 X136.884 Y116.197 E.02933
;WIDTH:0.596272
G1 X136.909 Y116.197 E.00115
M204 S1000
;WIPE_START
G1 F8640
G1 X136.884 Y116.197 E-.00577
G1 X136.258 Y116.203 E-.14455
;WIPE_END
G1 E-.84968 F2100
G1 Z.4 F720
G1 X137.029 Y121.253 F10800
G1 Z.2 F720
G1 E1 F2100
M204 S800
;WIDTH:0.38292
G1 F900
G1 X136.264 Y121.252 E.02163
M204 S1000
;WIPE_START
G1 F8640
G1 X137.029 Y121.253 E-.17664
;WIPE_END
G1 E-.82336 F2100
G1 Z.4 F720
G1 X111.032 Y120.655 F10800
G1 Z.2 F720
G1 E1 F2100
M204 S800
;TYPE:Perimeter
;WIDTH:0.429152
G1 F900
G1 X110.96 Y120.697 E.00268
G1 X111.032 Y120.739 E.00268
G1 X111.056 Y120.697 E.00155
M204 S1000
;WIPE_START
G1 F8640
G1 X111.032 Y120.739 E-.01117
G1 X110.96 Y120.697 E-.01925
G1 X111.032 Y120.655 E-.01925
;WIPE_END
G1 E-.95033 F2100
G1 Z.4 F720
G1 X139.016 Y120.656 F10800
G1 Z.2 F720
G1 E1 F2100
M204 S800
;WIDTH:0.42914
G1 F900
G1 X138.944 Y120.697 E.00266
G1 X139.016 Y120.739 E.00268
G1 X139.04 Y120.697 E.00155
M204 S1000
;WIPE_START
G1 F8640
G1 X139.016 Y120.739 E-.01117
G1 X138.944 Y120.697 E-.01925
G1 X139.016 Y120.656 E-.01913
;WIPE_END
G1 E-.95045 F2100
G1 Z.4 F720
G1 X125 Y98.243 F10800
G1 Z.2 F720
G1 E1 F2100
M204 S800
;WIDTH:0.499999
G1 F900
G1 X113.033 Y98.243 E.45482
G1 X112.596 Y98.374 E.01734
G1 X112.254 Y98.669 E.01717
G1 X112.078 Y99.049 E.01592
G1 X112.043 Y99.315 E.0102
G1 X112.044 Y114.605 E.58112
G1 X112.068 Y115.603 E.03794
G1 X112.177 Y115.994 E.01543
G1 X111.936 Y116.082 E.00975
G1 X111.491 Y116.349 E.01972
G1 X111.036 Y116.786 E.02398
G1 X111.05 Y116.356 E.01635
G1 X111.05 Y89.35 E1.0264
G1 X138.95 Y89.35 E1.06038
G1 X138.957 Y116.777 E1.0424
M73 P2 R20
M73 Q2 S20
G1 X138.895 Y116.698 E.00382
G1 X138.509 Y116.349 E.01978
G1 X138.186 Y116.15 E.01442
G1 X137.821 Y115.993 E.0151
G1 X137.932 Y115.604 E.01537
G1 X137.956 Y114.596 E.03832
G1 X137.957 Y99.315 E.58077
G1 X137.861 Y98.889 E.0166
G1 X137.622 Y98.538 E.01614
G1 X137.457 Y98.411 E.00791
G1 X137.151 Y98.278 E.01268
G1 X136.886 Y98.243 E.01016
G1 X125.06 Y98.243 E.44946
M204 S1000
G1 X125 Y98.7 F10800
M204 S800
;TYPE:External perimeter
G1 F900
G1 X113.114 Y98.7 E.45174
G1 X112.924 Y98.729 E.0073
G1 X112.712 Y98.841 E.00911
G1 X112.561 Y99.039 E.00946
G1 X112.5 Y99.314 E.01071
G1 X112.501 Y114.599 E.58093
G1 X112.525 Y115.593 E.03779
G1 X112.613 Y115.855 E.0105
;WIDTH:0.519272
G1 X112.827 Y116.082 E.01236
;WIDTH:0.559599
G1 X112.949 Y116.139 E.00579
;WIDTH:0.599926
G1 X113.071 Y116.196 E.00624
G1 X112.926 Y116.246 E.0071
;WIDTH:0.559599
G1 X112.781 Y116.295 E.00658
;WIDTH:0.519272
G1 X112.215 Y116.457 E.02332
;WIDTH:0.499999
G1 X111.825 Y116.67 E.01689
G1 X111.495 Y116.948 E.0164
G1 X111.196 Y117.333 E.01853
G1 X110.905 Y117.999 E.02762
G1 X110.878 Y118.223 E.00858
;WIDTH:0.450229
G1 X110.85 Y118.447 E.00765
;WIDTH:0.419842
G1 X110.861 Y119.271 E.02583
;WIDTH:0.459921
G1 X110.95 Y119.621 E.01252
;WIDTH:0.499999
G1 X111.04 Y119.972 E.01377
G1 X111.307 Y120.4 E.01917
G1 X111.872 Y120.907 E.02885
G1 X112.333 Y121.16 E.01999
G1 X111.519 Y121.16 E.03094
G1 X110.999 Y121.121 E.01982
G1 X110.729 Y121.044 E.01067
G1 X110.591 Y120.829 E.00971
G1 X110.52 Y119.525 E.04963
;WIDTH:0.453381
G1 X110.496 Y119.249 E.00946
;WIDTH:0.406763
G1 X110.495 Y118.377 E.02638
;WIDTH:0.452376
G1 X110.519 Y118.11 E.00913
;WIDTH:0.499999
G1 X110.543 Y117.842 E.01023
G1 X110.593 Y116.356 E.05651
G1 X110.593 Y89.13 E1.03476
G1 X110.717 Y88.965 E.00784
G1 X110.94 Y88.893 E.00891
G1 X139.021 Y88.893 E1.06725
G1 X139.281 Y88.962 E.01022
G1 X139.345 Y89.047 E.00404
G1 X139.407 Y89.215 E.00681
G1 X139.407 Y116.356 E1.03153
G1 X139.424 Y117.348 E.03771
M73 P3 R20
M73 Q3 S20
G1 X139.457 Y117.853 E.01923
G1 X139.482 Y118.144 E.0111
;WIDTH:0.450216
G1 X139.507 Y118.435 E.00989
;WIDTH:0.408656
G1 X139.503 Y119.277 E.02561
;WIDTH:0.454328
G1 X139.48 Y119.542 E.0091
;WIDTH:0.499999
G1 X139.409 Y120.829 E.04899
G1 X139.27 Y121.044 E.00973
G1 X139.077 Y121.116 E.00783
G1 X138.481 Y121.16 E.02271
G1 X137.642 Y121.16 E.03189
G1 X137.934 Y121.03 E.01215
G1 X138.331 Y120.738 E.01873
G1 X138.691 Y120.402 E.01872
G1 X138.937 Y120.023 E.01717
G1 X139.035 Y119.736 E.01153
G1 X139.088 Y119.484 E.00979
;WIDTH:0.453376
G1 X139.141 Y119.232 E.00879
;WIDTH:0.42075
G1 X139.152 Y118.405 E.02598
;WIDTH:0.460375
G1 X139.063 Y118.037 E.01314
M73 P3 R19
;WIDTH:0.499999
G1 X138.973 Y117.668 E.01444
G1 X138.774 Y117.284 E.01644
G1 X138.381 Y116.842 E.02248
G1 X137.96 Y116.548 E.01952
G1 X137.636 Y116.416 E.0133
;WIDTH:0.545766
G1 X137.283 Y116.306 E.01546
;WIDTH:0.591533
G1 X136.929 Y116.196 E.01691
G1 X137.094 Y116.141 E.00793
;WIDTH:0.548059
G1 X137.374 Y115.878 E.01614
;WIDTH:0.499999
G1 X137.475 Y115.593 E.01149
G1 X137.499 Y114.596 E.0379
G1 X137.5 Y99.314 E.58081
G1 X137.423 Y99.017 E.01166
G1 X137.343 Y98.9 E.00539
G1 X137.178 Y98.773 E.00791
G1 X136.886 Y98.7 E.01144
G1 X125.06 Y98.7 E.44946
M204 S1000
;WIPE_START
G1 F8640
G1 X125 Y98.7 E-.01385
G1 X120.729 Y98.7 E-.98615
;WIPE_END
G1 Z.4 F720
G1 X125.019 Y120.573 F10800
G1 Z.2 F720
G1 E1 F2100
M204 S800
;TYPE:Perimeter
G1 F900
G1 X121.299 Y120.573 E.14138
G1 X121.193 Y120.652 E.00502
G1 X116.3 Y120.656 E.18596
G1 X115.771 Y120.673 E.02012
G1 X116.032 Y120.304 E.01718
G1 X116.25 Y119.833 E.01973
G1 X116.372 Y119.396 E.01724
G1 X116.429 Y118.904 E.01882
G1 X116.405 Y118.406 E.01895
G1 X116.301 Y117.918 E.01896
G1 X116.14 Y117.495 E.0172
G1 X115.867 Y117.023 E.02072
G1 X115.534 Y116.639 E.01932
G1 X116.088 Y116.657 E.02107
G1 X134.457 Y116.648 E.69814
G1 X134.176 Y116.968 E.01619
G1 X133.907 Y117.399 E.01931
G1 X133.73 Y117.819 E.01732
G1 X133.611 Y118.296 E.01868
G1 X133.57 Y118.787 E.01873
G1 X133.609 Y119.289 E.01914
G1 X133.728 Y119.774 E.01898
G1 X133.934 Y120.247 E.01961
G1 X134.212 Y120.673 E.01933
G1 X133.677 Y120.655 E.02034
G1 X127.297 Y120.651 E.24248
G1 X127.251 Y120.593 E.00281
G1 X127.086 Y120.573 E.00632
G1 X125.079 Y120.573 E.07628
M204 S1000
G1 X125.019 Y121.03 F10800
M204 S800
;TYPE:External perimeter
G1 F900
G1 X121.367 Y121.03 E.1388
G1 X121.292 Y121.109 E.00414
G1 X116.315 Y121.112 E.18916
G1 X114.875 Y121.16 E.05476
M73 Q3 S19
G1 X114.342 Y121.16 E.02026
G1 X114.634 Y121.03 E.01215
G1 X114.792 Y120.918 E.00736
G1 X115.404 Y120.402 E.03042
G1 X115.655 Y120.045 E.01659
G1 X115.83 Y119.651 E.01639
G1 X115.93 Y119.281 E.01457
G1 X115.974 Y118.86 E.01609
G1 X115.949 Y118.436 E.01614
G1 X115.856 Y118.022 E.01613
G1 X115.716 Y117.665 E.01457
G1 X115.502 Y117.299 E.01611
G1 X115.226 Y116.974 E.01621
G1 X114.925 Y116.727 E.0148
G1 X114.511 Y116.521 E.01757
;WIDTH:0.538018
G1 X114.273 Y116.417 E.01069
;WIDTH:0.576036
G1 X114.035 Y116.312 E.01153
;WIDTH:0.614054
G1 X113.796 Y116.207 E.0124
G1 X113.923 Y116.189 E.00609
;WIDTH:0.577788
G1 X114.049 Y116.171 E.00566
;WIDTH:0.541521
G1 X114.175 Y116.153 E.00528
;WIDTH:0.505254
G1 X114.599 Y116.15 E.0163
;WIDTH:0.499999
G1 X116.088 Y116.2 E.05662
G1 X133.873 Y116.2 E.67594
G1 X135.759 Y116.15 E.07171
;WIDTH:0.534038
G1 X135.92 Y116.168 E.00662
;WIDTH:0.568077
G1 X136.081 Y116.187 E.00708
;WIDTH:0.602116
G1 X136.242 Y116.205 E.00753
G1 X136.097 Y116.259 E.00719
;WIDTH:0.568077
G1 X135.952 Y116.314 E.00677
;WIDTH:0.534038
G1 X135.808 Y116.369 E.00629
;WIDTH:0.499999
G1 X135.153 Y116.677 E.02751
G1 X134.806 Y116.944 E.01664
G1 X134.522 Y117.267 E.01635
G1 X134.3 Y117.633 E.01627
G1 X134.155 Y117.989 E.01461
G1 X134.057 Y118.399 E.01602
G1 X134.026 Y118.817 E.01593
G1 X134.064 Y119.245 E.01633
G1 X134.17 Y119.656 E.01613
G1 X134.345 Y120.045 E.01621
G1 X134.627 Y120.438 E.01838
G1 X135.175 Y120.91 E.02749
G1 X135.633 Y121.16 E.01983
G1 X133.677 Y121.112 E.07436
G1 X127.198 Y121.108 E.24624
G1 X127.141 Y121.037 E.00346
G1 X127.086 Y121.03 E.00211
G1 X125.079 Y121.03 E.07628
M204 S1000
;WIPE_START
G1 F8640
G1 X125.019 Y121.03 E-.01385
G1 X121.367 Y121.03 E-.84326
G1 X121.292 Y121.109 E-.02515
G1 X120.782 Y121.109 E-.11774
;WIPE_END
G1 Z.4 F720
G1 X133.111 Y116.839 F10800
G1 Z.2 F720
M73 Q4 S19
G1 E1 F2100
M204 S800
;TYPE:Solid infill
;WIDTH:0.505966
G1 F900
G1 X133.542 Y117.27 E.02347
G1 X133.353 Y117.736 E.01936
G1 X132.662 Y117.045 E.03763
G1 X132.007 Y117.045 E.02522
M73 P4 R19
G1 X133.226 Y118.265 E.0664
G1 X133.181 Y118.778 E.01983
G1 X133.191 Y118.884 E.0041
G1 X131.353 Y117.046 E.10008
G1 X130.698 Y117.046 E.02522
G1 X133.295 Y119.643 E.14141
G1 X133.41 Y120.036 E.01577
G1 X133.522 Y120.269 E.00995
G1 X133.266 Y120.269 E.00986
G1 X130.043 Y117.046 E.17549
G1 X129.388 Y117.046 E.02522
G1 X132.611 Y120.268 E.17547
G1 X131.955 Y120.268 E.02526
G1 X128.734 Y117.046 E.17541
G1 X128.079 Y117.046 E.02522
G1 X131.3 Y120.267 E.17539
G1 X130.644 Y120.266 E.02526
G1 X127.424 Y117.047 E.1753
G1 X126.77 Y117.047 E.02518
G1 X129.989 Y120.266 E.17528
G1 X129.333 Y120.265 E.02526
G1 X126.115 Y117.047 E.17522
G1 X125.46 Y117.047 E.02522
G1 X128.678 Y120.264 E.1752
G1 X128.022 Y120.264 E.02526
G1 X124.806 Y117.047 E.17514
G1 X124.151 Y117.047 E.02522
G1 X127.315 Y120.211 E.17228
G1 X127.096 Y120.184 E.0085
G1 X126.633 Y120.184 E.01783
G1 X123.496 Y117.047 E.17081
G1 X122.842 Y117.048 E.02518
G1 X125.978 Y120.184 E.17076
G1 X125.324 Y120.184 E.02518
G1 X122.187 Y117.048 E.17078
G1 X121.532 Y117.048 E.02522
G1 X124.669 Y120.184 E.17078
G1 X124.014 Y120.184 E.02522
G1 X120.878 Y117.048 E.17076
G1 X120.223 Y117.048 E.02522
G1 X123.359 Y120.184 E.17076
G1 X122.704 Y120.184 E.02522
G1 X119.568 Y117.048 E.17076
G1 X118.914 Y117.049 E.02518
G1 X122.049 Y120.184 E.1707
G1 X121.395 Y120.184 E.02518
G1 X118.259 Y117.049 E.17073
G1 X117.604 Y117.049 E.02522
G1 X120.819 Y120.263 E.17503
G1 X120.165 Y120.264 E.02518
G1 X116.95 Y117.049 E.17506
G1 X116.338 Y117.049 E.02356
G1 X116.399 Y117.154 E.00468
G1 X119.511 Y120.265 E.16942
G1 X118.857 Y120.266 E.02518
G1 X116.756 Y118.166 E.11437
G1 X116.819 Y118.776 E.02361
G1 X116.812 Y118.876 E.00386
G1 X118.203 Y120.267 E.07574
G1 X117.549 Y120.268 E.02518
G1 X116.747 Y119.466 E.04367
G1 X116.658 Y119.841 E.01484
G1 X116.602 Y119.976 E.00563
G1 X117.1 Y120.474 E.02712
M204 S1000
;WIPE_START
G1 F8640
G1 X116.602 Y119.976 E-.16262
G1 X116.658 Y119.841 E-.03375
G1 X116.747 Y119.466 E-.08899
G1 X117.549 Y120.268 E-.26189
G1 X118.203 Y120.267 E-.15101
G1 X117.279 Y119.343 E-.30174
;WIPE_END
G1 Z.4 F720
G1 X137.842 Y89.533 F10800
G1 Z.2 F720
G1 E1 F2100
M204 S800
;WIDTH:0.500649
G1 F900
G1 X138.562 Y90.253 E.03875
G1 X138.562 Y90.9 E.02463
G1 X137.4 Y89.739 E.06252
G1 X136.753 Y89.739 E.02463
G1 X138.562 Y91.548 E.09737
G1 X138.562 Y92.195 E.02463
G1 X136.106 Y89.739 E.1322
G1 X135.458 Y89.739 E.02466
G1 X138.562 Y92.842 E.16705
G1 X138.562 Y93.49 E.02466
G1 X134.811 Y89.739 E.2019
G1 X134.163 Y89.739 E.02466
G1 X138.562 Y94.137 E.23675
G1 X138.562 Y94.784 E.02463
G1 X133.516 Y89.739 E.27158
G1 X132.869 Y89.739 E.02463
M73 Q5 S19
G1 X138.562 Y95.432 E.30643
G1 X138.562 Y96.079 E.02463
M73 P5 R19
G1 X132.221 Y89.739 E.34128
G1 X131.574 Y89.739 E.02463
G1 X138.562 Y96.726 E.37611
G1 X138.562 Y97.374 E.02466
G1 X130.927 Y89.739 E.41096
G1 X130.279 Y89.739 E.02466
G1 X138.562 Y98.021 E.44581
G1 X138.562 Y98.668 E.02463
G1 X129.632 Y89.739 E.48063
G1 X128.985 Y89.739 E.02463
G1 X137.13 Y97.884 E.43841
G1 X137.231 Y97.896 E.00387
G1 X137.678 Y98.091 E.01856
G1 X137.879 Y98.246 E.00966
G1 X138.227 Y98.755 E.02347
G1 X138.312 Y99.066 E.01227
G1 X138.767 Y99.521 E.02449
M204 S1000
G1 X138.14 Y99.541 F10800
M204 S800
G1 F900
G1 X138.562 Y99.963 E.02271
G1 X138.562 Y100.61 E.02463
G1 X138.346 Y100.394 E.01163
G1 X138.345 Y101.041 E.02463
G1 X138.562 Y101.258 E.01168
G1 X138.562 Y101.905 E.02463
G1 X138.345 Y101.689 E.01165
G1 X138.345 Y102.336 E.02463
G1 X138.562 Y102.552 E.01165
G1 X138.562 Y103.2 E.02466
G1 X138.345 Y102.983 E.01168
G1 X138.345 Y103.631 E.02466
G1 X138.562 Y103.847 E.01165
G1 X138.562 Y104.494 E.02463
G1 X138.345 Y104.278 E.01165
G1 X138.345 Y104.925 E.02463
G1 X138.562 Y105.142 E.01168
G1 X138.562 Y105.789 E.02463
G1 X138.345 Y105.572 E.01168
G1 X138.345 Y106.22 E.02466
G1 X138.562 Y106.436 E.01165
G1 X138.562 Y107.084 E.02466
G1 X138.345 Y106.867 E.01168
G1 X138.345 Y107.514 E.02463
G1 X138.562 Y107.731 E.01168
G1 X138.562 Y108.378 E.02463
G1 X138.345 Y108.161 E.01168
G1 X138.345 Y108.809 E.02466
G1 X138.562 Y109.026 E.01168
G1 X138.562 Y109.673 E.02463
G1 X138.345 Y109.456 E.01168
G1 X138.345 Y110.103 E.02463
G1 X138.562 Y110.32 E.01168
G1 X138.562 Y110.968 E.02466
G1 X138.345 Y110.751 E.01168
G1 X138.345 Y111.398 E.02463
G1 X138.562 Y111.615 E.01168
G1 X138.562 Y112.262 E.02463
G1 X138.345 Y112.045 E.01168
G1 X138.345 Y112.692 E.02463
G1 X138.562 Y112.91 E.01171
