; generated by PrusaSlicer 2.9.4 on 2026-03-20 at 00:21:24 UTC


;
;
; 

; external perimeters extrusion width = 0.45mm
; perimeters extrusion width = 0.45mm
; infill extrusion width = 0.45mm
; solid infill extrusion width = 0.45mm
; top infill extrusion width = 0.40mm
; first layer extrusion width = 0.50mm

M73 P0 R11
M73 Q0 S11
M201 X1000 Y1000 Z200 E5000 ; sets maximum accelerations, mm/sec^2
M203 X200 Y200 Z12 E120 ; sets maximum feedrates, mm / sec
M204 S1250 T1250 ; sets acceleration (S) and retract acceleration (R), mm/sec^2
M205 X8.00 Y8.00 Z0.40 E4.50 ; sets the jerk limits, mm/sec
M205 S0 T0 ; sets the minimum extruding and travel feed rate, mm/sec

; printing object Rear Foot.stl id:0 copy 0
; stop printing object Rear Foot.stl id:0 copy 0

;TYPE:Custom
M862.3 P "MK3S" ; printer model check
M862.1 P0.4 ; nozzle diameter check
M115 U3.14.1 ; tell printer latest fw version
G90 ; use absolute coordinates
M83 ; extruder relative mode
M104 S240 ; set extruder temp
M140 S90 ; set bed temp
M190 S90 ; wait for bed temp
M109 S240 ; wait for extruder temp
G28 W ; home all without mesh bed level
G80 X115.59 Y95.5918 W18.8199 H18.8165 ; mesh bed levelling

G1 Z0.2 F720
G1 Y-3 F1000 ; go outside print area
G92 E0
G1 X60 E9 F1000 ; intro line
G1 X100 E12.5 F1000 ; intro line

G92 E0
M221 S95

; Don't change E values below. Excessive value can damage the printer.
M907 E430 ; set extruder motor current
G21 ; set units to millimeters
G90 ; use absolute coordinates
M83 ; use relative distances for extrusion

M900 K0.08 ; Filament gcode LA 1.5
M900 K45 ; Filament gcode LA 1.0




M107
;LAYER_CHANGE
;Z:0.2
;HEIGHT:0.2
G1 E-1 F2100
G1 Z.4 F720
G1 X117.735 Y99.388 F10800
G1 Z.2 F720
M73 P1 R11
M73 Q1 S11
G1 E1 F2100
M204 S800
;TYPE:Skirt/Brim
;WIDTH:0.5
G1 F900
G1 X118.963 Y98.081 E.06816
G1 X120.338 Y97.09 E.06442
G1 X122.026 Y96.313 E.07063
G1 X123.673 Y95.914 E.06441
G1 X125.365 Y95.825 E.0644
G1 X126.327 Y95.914 E.03672
G1 X127.336 Y96.122 E.03915
G1 X129.018 Y96.744 E.06816
G1 X130.467 Y97.623 E.06441
G1 X131.841 Y98.876 E.07067
G1 X132.85 Y100.237 E.06439
G1 X133.591 Y101.76 E.06437
G1 X134.04 Y103.394 E.0644
G1 X134.169 Y104.517 E.04296
G1 X134.169 Y105.483 E.03671
G1 X133.924 Y107.159 E.06438
G1 X133.307 Y108.912 E.07063
G1 X132.85 Y109.763 E.03671
G1 X132.265 Y110.612 E.03919
G1 X131.037 Y111.919 E.06816
G1 X129.662 Y112.91 E.06442
G1 X127.974 Y113.687 E.07063
G1 X126.327 Y114.086 E.06441
G1 X124.635 Y114.175 E.0644
G1 X123.673 Y114.086 E.03672
G1 X122.664 Y113.878 E.03915
G1 X120.982 Y113.256 E.06816
G1 X119.533 Y112.377 E.06441
G1 X118.27 Y111.247 E.06441
G1 X117.15 Y109.763 E.07066
G1 X116.409 Y108.24 E.06437
G1 X116.076 Y107.159 E.04299
G1 X115.898 Y106.21 E.0367
G1 X115.831 Y104.517 E.0644
G1 X116.076 Y102.841 E.06438
G1 X116.693 Y101.087 E.07067
G1 X117.15 Y100.237 E.03668
G1 X117.701 Y99.437 E.03692
M204 S1000
G1 X118.077 Y99.697 F10800
M204 S800
G1 F900
G1 X118.1 Y99.663 E.00156
G1 X119.271 Y98.419 E.06493
G1 X120.578 Y97.479 E.06119
G1 X122.165 Y96.749 E.06639
G1 X123.73 Y96.368 E.06122
G1 X125.337 Y96.282 E.06116
G1 X126.27 Y96.368 E.03561
G1 X127.225 Y96.565 E.03706
G1 X128.827 Y97.159 E.06494
G1 X130.203 Y97.996 E.06121
G1 X131.401 Y99.072 E.0612
G1 X132.454 Y100.465 E.06637
G1 X133.16 Y101.912 E.06119
G1 X133.589 Y103.464 E.0612
G1 X133.704 Y104.394 E.03562
G1 X133.712 Y105.469 E.04086
G1 X133.478 Y107.062 E.06119
G1 X132.897 Y108.709 E.06638
G1 X132.454 Y109.535 E.03562
G1 X131.9 Y110.337 E.03705
G1 X130.729 Y111.581 E.06493
G1 X129.422 Y112.521 E.06119
G1 X127.835 Y113.251 E.06639
G1 X126.27 Y113.632 E.06122
G1 X124.663 Y113.718 E.06116
M73 Q2 S11
G1 X123.73 Y113.632 E.03561
G1 X122.775 Y113.435 E.03706
G1 X121.173 Y112.841 E.06494
G1 X119.797 Y112.004 E.06121
M73 P2 R11
G1 X118.599 Y110.928 E.0612
G1 X117.618 Y109.651 E.0612
G1 X116.84 Y108.088 E.06636
G1 X116.522 Y107.062 E.04082
G1 X116.35 Y106.14 E.03565
G1 X116.288 Y104.531 E.0612
G1 X116.522 Y102.938 E.06119
G1 X117.103 Y101.291 E.06638
G1 X117.546 Y100.465 E.03562
G1 X118.042 Y99.746 E.0332
M204 S1000
;WIPE_START
G1 F8640
G1 X118.077 Y99.697 E-.0139
G1 X118.1 Y99.663 E-.00948
G1 X119.271 Y98.419 E-.39448
G1 X120.578 Y97.479 E-.37174
G1 X121.406 Y97.098 E-.2104
;WIPE_END
G1 Z.4 F720
; printing object Rear Foot.stl id:0 copy 0
G1 X125.032 Y108.496 F10800
G1 Z.2 F720
G1 E1 F2100
M204 S800
;TYPE:Perimeter
;WIDTH:0.499999
G1 F900
G1 X124.419 Y108.456 E.02335
G1 X123.801 Y108.293 E.02429
G1 X123.209 Y108.012 E.02491
G1 X122.677 Y107.624 E.02503
G1 X122.079 Y106.931 E.03479
G1 X121.756 Y106.327 E.02603
G1 X121.601 Y105.824 E.02
G1 X121.532 Y105.463 E.01397
G1 X121.494 Y104.958 E.01925
G1 X121.542 Y104.427 E.02026
G1 X121.709 Y103.793 E.02492
G1 X122.05 Y103.108 E.02908
G1 X122.368 Y102.685 E.02011
G1 X122.768 Y102.304 E.021
G1 X123.383 Y101.89 E.02818
G1 X123.995 Y101.643 E.02508
G1 X124.897 Y101.5 E.03471
G1 X125.581 Y101.544 E.02605
G1 X126.199 Y101.707 E.02429
G1 X126.791 Y101.988 E.02491
G1 X127.323 Y102.376 E.02503
G1 X127.921 Y103.069 E.03479
G1 X128.244 Y103.673 E.02603
G1 X128.399 Y104.176 E.02
G1 X128.468 Y104.537 E.01397
G1 X128.506 Y105.042 E.01925
G1 X128.458 Y105.573 E.02026
G1 X128.291 Y106.207 E.02492
G1 X127.95 Y106.892 E.02908
G1 X127.632 Y107.315 E.02011
G1 X127.232 Y107.696 E.021
G1 X126.617 Y108.11 E.02818
G1 X126.005 Y108.357 E.02508
G1 X125.103 Y108.5 E.03471
G1 X125.092 Y108.5 E.00042
M204 S1000
G1 X125.013 Y108.045 F10800
M204 S800
;TYPE:External perimeter
G1 F900
G1 X124.461 Y108.001 E.02105
G1 X123.925 Y107.853 E.02113
G1 X123.412 Y107.603 E.02169
G1 X122.953 Y107.26 E.02178
G1 X122.431 Y106.639 E.03083
G1 X122.165 Y106.122 E.0221
G1 X122.005 Y105.573 E.02173
G1 X121.951 Y105.021 E.02108
G1 X121.998 Y104.469 E.02106
G1 X122.149 Y103.918 E.02171
G1 X122.393 Y103.419 E.02111
G1 X122.733 Y102.96 E.02171
G1 X123.141 Y102.583 E.02111
G1 X123.624 Y102.279 E.02169
G1 X124.158 Y102.07 E.02179
G1 X124.96 Y101.952 E.03081
G1 X125.539 Y101.999 E.02208
G1 X126.074 Y102.147 E.0211
G1 X126.588 Y102.397 E.02172
G1 X127.047 Y102.74 E.02178
G1 X127.569 Y103.361 E.03083
G1 X127.835 Y103.878 E.0221
G1 X127.995 Y104.427 E.02173
G1 X128.049 Y104.979 E.02108
G1 X128.002 Y105.531 E.02106
G1 X127.851 Y106.082 E.02171
G1 X127.607 Y106.581 E.02111
G1 X127.267 Y107.04 E.02171
G1 X126.859 Y107.417 E.02111
G1 X126.376 Y107.721 E.02169
G1 X125.842 Y107.93 E.02179
G1 X125.072 Y108.043 E.02958
M204 S1000
;WIPE_START
G1 F8640
G1 X125.013 Y108.045 E-.01363
G1 X124.461 Y108.001 E-.12786
G1 X123.925 Y107.853 E-.1284
G1 X123.412 Y107.603 E-.13177
G1 X122.953 Y107.26 E-.13231
G1 X122.431 Y106.639 E-.18732
G1 X122.165 Y106.122 E-.13425
G1 X122.005 Y105.573 E-.13204
G1 X122 Y105.519 E-.01242
;WIPE_END
G1 Z.4 F720
G1 X125 Y110.559 F10800
G1 Z.2 F720
G1 E1 F2100
M204 S800
;TYPE:Perimeter
G1 F900
G1 X124.145 Y110.506 E.03256
G1 X123.148 Y110.255 E.03907
G1 X122.204 Y109.821 E.03949
G1 X121.649 Y109.454 E.02529
G1 X120.882 Y108.754 E.03947
G1 X120.262 Y107.933 E.0391
G1 X119.799 Y107.003 E.03948
G1 X119.594 Y106.36 E.02565
G1 X119.468 Y105.685 E.0261
G1 X119.426 Y105 E.02608
G1 X119.468 Y104.315 E.02608
G1 X119.594 Y103.64 E.0261
G1 X119.802 Y102.986 E.02608
G1 X120.085 Y102.372 E.0257
G1 X120.659 Y101.506 E.03949
G1 X121.382 Y100.761 E.03946
G1 X121.913 Y100.36 E.02529
G1 X122.838 Y99.863 E.03991
G1 X123.474 Y99.639 E.02563
G1 X124.145 Y99.492 E.02611
G1 X124.818 Y99.43 E.02569
G1 X125.865 Y99.494 E.03987
G1 X126.525 Y99.639 E.02568
G1 X127.163 Y99.863 E.0257
G1 X128.088 Y100.36 E.03991
G1 X128.626 Y100.767 E.02564
G1 X129.112 Y101.238 E.02572
G1 X129.738 Y102.067 E.03948
G1 X130.081 Y102.755 E.02922
G1 X130.266 Y103.2 E.01832
G1 X130.442 Y103.833 E.02497
G1 X130.536 Y104.379 E.02106
G1 X130.57 Y105.064 E.02607
G1 X130.532 Y105.685 E.02365
M73 Q3 S11
G1 X130.406 Y106.36 E.0261
G1 X130.198 Y107.014 E.02608
G1 X129.915 Y107.628 E.0257
G1 X129.341 Y108.494 E.03949
G1 X128.618 Y109.239 E.03946
G1 X128.087 Y109.64 E.02529
M73 P3 R11
G1 X127.162 Y110.137 E.03991
G1 X126.526 Y110.361 E.02563
G1 X125.855 Y110.508 E.02611
G1 X125.182 Y110.57 E.02569
G1 X125.06 Y110.563 E.00464
M204 S1000
G1 X125 Y111.017 F10800
M204 S800
;TYPE:External perimeter
G1 F900
G1 X124.075 Y110.96 E.03522
G1 X122.995 Y110.688 E.04233
G1 X121.981 Y110.222 E.04241
M73 P3 R10
G1 X121.368 Y109.815 E.02797
G1 X120.543 Y109.063 E.04243
G1 X119.872 Y108.175 E.0423
G1 X119.374 Y107.176 E.04242
G1 X119.15 Y106.471 E.02811
G1 X119.014 Y105.741 E.02822
G1 X118.968 Y105 E.02822
G1 X119.014 Y104.259 E.02822
G1 X119.15 Y103.529 E.02822
G1 X119.375 Y102.821 E.02823
G1 X119.684 Y102.149 E.02811
G1 X120.301 Y101.219 E.04242
G1 X121.078 Y100.417 E.04244
G1 X121.666 Y99.974 E.02798
G1 X122.652 Y99.444 E.04254
G1 X123.349 Y99.198 E.02809
G1 X124.075 Y99.039 E.02825
G1 X124.811 Y98.971 E.02809
G1 X125.929 Y99.04 E.04257
G1 X126.651 Y99.198 E.02809
G1 X127.348 Y99.444 E.02809
G1 X128.335 Y99.974 E.04258
G1 X128.924 Y100.419 E.02806
G1 X129.455 Y100.934 E.02811
G1 X130.128 Y101.825 E.04244
G1 X130.492 Y102.555 E.031
G1 X130.701 Y103.062 E.02084
G1 X130.891 Y103.749 E.02709
G1 X130.992 Y104.351 E.0232
G1 X131.026 Y105.092 E.02819
M73 Q3 S10
G1 X130.986 Y105.741 E.02471
G1 X130.85 Y106.471 E.02822
G1 X130.625 Y107.179 E.02823
G1 X130.316 Y107.851 E.02811
G1 X129.699 Y108.781 E.04242
G1 X128.922 Y109.583 E.04244
G1 X128.334 Y110.026 E.02798
G1 X127.348 Y110.556 E.04254
G1 X126.651 Y110.802 E.02809
G1 X125.925 Y110.961 E.02825
G1 X125.189 Y111.029 E.02809
G1 X125.06 Y111.021 E.00491
M204 S1000
;WIPE_START
G1 F8640
G1 X125 Y111.017 E-.01388
G1 X124.075 Y110.96 E-.21399
G1 X122.995 Y110.688 E-.25716
G1 X121.981 Y110.222 E-.25768
G1 X121.368 Y109.815 E-.1699
G1 X121.088 Y109.56 E-.08739
;WIPE_END
G1 Z.4 F720
G1 X127.645 Y100.33 F10800
G1 Z.2 F720
G1 E1 F2100
M204 S800
;TYPE:Solid infill
;WIDTH:0.513076
G1 F900
G1 X128.847 Y101.532 E.06645
G1 X129.406 Y102.272 E.03626
G1 X129.861 Y103.211 E.04079
G1 X126.797 Y100.146 E.16943
G1 X126.419 Y100.013 E.01567
G1 X125.881 Y99.895 E.02153
G1 X130.099 Y104.113 E.2332
G1 X130.145 Y104.363 E.00994
G1 X130.176 Y104.855 E.01927
G1 X125.16 Y99.84 E.27729
G1 X124.885 Y99.823 E.01077
G1 X124.508 Y99.853 E.01478
G1 X125.876 Y101.22 E.0756
G1 X125.654 Y101.16 E.00899
G1 X125.113 Y101.122 E.0212
G1 X123.928 Y99.937 E.06551
G1 X123.581 Y100.013 E.01389
G1 X123.402 Y100.076 E.00742
G1 X124.491 Y101.166 E.06023
G1 X124.005 Y101.234 E.01918
G1 X123.925 Y101.264 E.00334
G1 X122.921 Y100.26 E.05551
G1 X122.488 Y100.492 E.0192
G1 X123.438 Y101.442 E.05252
G1 X123.184 Y101.557 E.0109
G1 X123.002 Y101.671 E.0084
G1 X122.064 Y100.733 E.05186
G1 X121.685 Y101.019 E.01856
G1 X122.602 Y101.936 E.0507
G1 X122.253 Y102.252 E.01841
G1 X121.351 Y101.35 E.04987
G1 X121.024 Y101.688 E.01839
G1 X121.945 Y102.609 E.05092
G1 X121.667 Y102.995 E.0186
G1 X120.747 Y102.076 E.05084
G1 X120.482 Y102.476 E.01876
G1 X121.444 Y103.438 E.05319
G1 X121.367 Y103.592 E.00673
G1 X121.271 Y103.93 E.01374
G1 X120.261 Y102.919 E.05587
G1 X120.165 Y103.127 E.00896
G1 X120.078 Y103.401 E.01124
M73 Q4 S10
G1 X121.152 Y104.475 E.05938
G1 X121.104 Y105 E.02061
G1 X121.113 Y105.101 E.00396
G1 X119.937 Y103.925 E.06502
G1 X119.855 Y104.363 E.01742
G1 X119.846 Y104.499 E.00533
G1 X121.507 Y106.16 E.09183
M73 P4 R10
M204 S1000
;WIPE_START
G1 F8640
G1 X119.846 Y104.499 E-.54239
G1 X119.855 Y104.363 E-.03147
G1 X119.937 Y103.925 E-.10289
G1 X120.927 Y104.915 E-.32325
;WIPE_END
G1 Z.4 F720
G1 X128.492 Y103.837 F10800
G1 Z.2 F720
G1 E1 F2100
M204 S800
G1 F900
G1 X130.154 Y105.498 E.09186
G1 X130.145 Y105.637 E.00545
G1 X130.064 Y106.073 E.01734
G1 X128.887 Y104.896 E.06507
G1 X128.896 Y105 E.00408
G1 X128.848 Y105.523 E.02053
G1 X129.922 Y106.597 E.05938
G1 X129.835 Y106.873 E.01131
G1 X129.74 Y107.079 E.00887
G1 X128.729 Y106.068 E.05589
G1 X128.633 Y106.408 E.01381
G1 X128.557 Y106.561 E.00668
G1 X129.519 Y107.523 E.05319
G1 X129.254 Y107.923 E.01876
G1 X128.334 Y107.003 E.05086
G1 X128.056 Y107.39 E.01863
G1 X128.977 Y108.311 E.05092
G1 X128.65 Y108.649 E.01839
G1 X127.748 Y107.747 E.04987
G1 X127.4 Y108.063 E.01838
G1 X128.316 Y108.98 E.05067
G1 X127.938 Y109.266 E.01853
G1 X126.999 Y108.328 E.05189
G1 X126.816 Y108.443 E.00845
G1 X126.564 Y108.558 E.01083
G1 X127.514 Y109.507 E.05249
G1 X127.081 Y109.739 E.0192
G1 X126.077 Y108.736 E.05548
G1 X125.995 Y108.766 E.00341
G1 X125.511 Y108.834 E.01911
G1 X126.6 Y109.923 E.06021
G1 X126.419 Y109.987 E.00751
G1 X126.074 Y110.062 E.0138
G1 X124.89 Y108.878 E.06546
G1 X124.361 Y108.841 E.02073
G1 X124.127 Y108.78 E.00945
G1 X125.498 Y110.151 E.0758
G1 X125.176 Y110.181 E.01264
G1 X124.842 Y110.16 E.01308
G1 X119.824 Y105.142 E.27743
G1 X119.855 Y105.637 E.01939
G1 X119.901 Y105.884 E.00982
G1 X124.115 Y110.098 E.23298
G1 X123.277 Y109.887 E.03378
G1 X123.207 Y109.855 E.00301
G1 X120.138 Y106.785 E.1697
G1 X120.594 Y107.728 E.04095
G1 X121.145 Y108.458 E.03576
G1 X122.395 Y109.708 E.06911
M204 S1000
;LAYER_CHANGE
;Z:0.35
;HEIGHT:0.15
;BEFORE_LAYER_CHANGE
G92 E0.0
;0.35


;WIPE_START
G1 F8640
G1 X121.145 Y108.458 E-.40818
G1 X120.594 Y107.728 E-.21118
G1 X120.138 Y106.785 E-.24186
G1 X120.563 Y107.21 E-.13878
;WIPE_END
G1 Z.35 F720
;AFTER_LAYER_CHANGE
;0.35
M104 S230 ; set temperature
M140 S85 ; set bed temperature
; stop printing object Rear Foot.stl id:0 copy 0
G1 Z.55
G1 X120.441 Y112.928 F10800
G1 Z.35 F720
G1 E1 F2100
;TYPE:Skirt/Brim
;WIDTH:0.5
G1 F1846
G1 X119.533 Y112.377 E.03099
G1 X118.27 Y111.247 E.04944
G1 X117.15 Y109.763 E.05424
G1 X116.409 Y108.24 E.04941
G1 X116.076 Y107.159 E.033
G1 X115.898 Y106.21 E.02817
G1 X115.831 Y104.517 E.04943
G1 X116.076 Y102.841 E.04942
G1 X116.693 Y101.087 E.05424
G1 X117.15 Y100.237 E.02815
G1 X117.735 Y99.388 E.03008
G1 X118.963 Y98.081 E.05232
G1 X120.338 Y97.09 E.04945
G1 X122.026 Y96.313 E.05421
G1 X123.673 Y95.914 E.04944
G1 X125.365 Y95.825 E.04943
G1 X126.327 Y95.914 E.02819
G1 X127.336 Y96.122 E.03006
G1 X129.018 Y96.744 E.05232
G1 X130.467 Y97.623 E.04944
G1 X131.841 Y98.876 E.05425
G1 X132.85 Y100.237 E.04943
G1 X133.591 Y101.76 E.04941
G1 X134.04 Y103.394 E.04944
G1 X134.169 Y104.517 E.03298
G1 X134.169 Y105.483 E.02818
G1 X133.924 Y107.159 E.04942
G1 X133.307 Y108.912 E.05422
G1 X132.85 Y109.763 E.02818
G1 X132.265 Y110.612 E.03008
G1 X131.037 Y111.919 E.05232
G1 X129.662 Y112.91 E.04945
G1 X127.974 Y113.687 E.05421
G1 X126.327 Y114.086 E.04944
G1 X124.635 Y114.175 E.04943
G1 X123.673 Y114.086 E.02819
M73 Q5 S10
G1 X122.664 Y113.878 E.03006
G1 X120.982 Y113.256 E.05232
G1 X120.493 Y112.959 E.01669
G1 X120.729 Y112.571 F10800
G1 F1846
G1 X119.797 Y112.004 E.03183
G1 X118.599 Y110.928 E.04698
G1 X117.618 Y109.651 E.04698
G1 X116.84 Y108.088 E.05094
M73 P5 R10
G1 X116.522 Y107.062 E.03134
G1 X116.35 Y106.14 E.02736
G1 X116.288 Y104.531 E.04698
G1 X116.522 Y102.938 E.04697
G1 X117.103 Y101.291 E.05095
G1 X117.546 Y100.465 E.02734
G1 X118.1 Y99.663 E.02844
G1 X119.271 Y98.419 E.04984
G1 X120.578 Y97.479 E.04697
G1 X122.165 Y96.749 E.05096
G1 X123.73 Y96.368 E.04699
G1 X125.337 Y96.282 E.04695
G1 X126.27 Y96.368 E.02733
G1 X127.225 Y96.565 E.02845
G1 X128.827 Y97.159 E.04985
G1 X130.203 Y97.996 E.04699
G1 X131.401 Y99.072 E.04698
G1 X132.454 Y100.465 E.05094
G1 X133.16 Y101.912 E.04697
G1 X133.589 Y103.464 E.04698
G1 X133.704 Y104.394 E.02734
G1 X133.712 Y105.469 E.03136
G1 X133.478 Y107.062 E.04697
G1 X132.897 Y108.709 E.05095
G1 X132.454 Y109.535 E.02734
G1 X131.9 Y110.337 E.02844
G1 X130.729 Y111.581 E.04984
G1 X129.422 Y112.521 E.04697
G1 X127.835 Y113.251 E.05096
G1 X126.27 Y113.632 E.04699
G1 X124.663 Y113.718 E.04695
G1 X123.73 Y113.632 E.02733
G1 X122.775 Y113.435 E.02845
G1 X121.173 Y112.841 E.04985
G1 X120.78 Y112.602 E.01342
;WIPE_START
G1 F8640
G1 X120.729 Y112.571 E-.01378
G1 X119.797 Y112.004 E-.2519
G1 X118.599 Y110.928 E-.37182
G1 X117.643 Y109.683 E-.3625
;WIPE_END
G1 Z.55 F720
; printing object Rear Foot.stl id:0 copy 0
G1 X125 Y108.184 F10800
G1 Z.35 F720
G1 E1 F2100
M204 S800
;TYPE:Perimeter
;WIDTH:0.449999
G1 F1500
G1 X124.562 Y108.176 E.01141
G1 X123.911 Y108.025 E.01741
G1 X123.356 Y107.763 E.01599
