; generated by PrusaSlicer 2.9.4 on 2026-03-20 at 00:19:54 UTC


;
;
; 

; external perimeters extrusion width = 0.45mm
; perimeters extrusion width = 0.45mm
; infill extrusion width = 0.45mm
; solid infill extrusion width = 0.45mm
; top infill extrusion width = 0.40mm
; first layer extrusion width = 0.50mm

M73 P0 R11
M73 Q0 S11
M201 X1000 Y1000 Z200 E5000 ; sets maximum accelerations, mm/sec^2
M203 X200 Y200 Z12 E120 ; sets maximum feedrates, mm / sec
M204 S1250 T1250 ; sets acceleration (S) and retract acceleration (R), mm/sec^2
M205 X8.00 Y8.00 Z0.40 E4.50 ; sets the jerk limits, mm/sec
M205 S0 T0 ; sets the minimum extruding and travel feed rate, mm/sec

; printing object Rear Foot 1.stl id:0 copy 0
; stop printing object Rear Foot 1.stl id:0 copy 0

;TYPE:Custom
M862.3 P "MK3S" ; printer model check
M862.1 P0.4 ; nozzle diameter check
M115 U3.14.1 ; tell printer latest fw version
G90 ; use absolute coordinates
M83 ; extruder relative mode
M104 S240 ; set extruder temp
M140 S90 ; set bed temp
M190 S90 ; wait for bed temp
M109 S240 ; wait for extruder temp
G28 W ; home all without mesh bed level
G80 X115.59 Y95.5917 W18.8199 H18.8165 ; mesh bed levelling

G1 Z0.2 F720
G1 Y-3 F1000 ; go outside print area
G92 E0
G1 X60 E9 F1000 ; intro line
G1 X100 E12.5 F1000 ; intro line

G92 E0
M221 S95

; Don't change E values below. Excessive value can damage the printer.
M907 E430 ; set extruder motor current
G21 ; set units to millimeters
G90 ; use absolute coordinates
M83 ; use relative distances for extrusion

M900 K0.08 ; Filament gcode LA 1.5
M900 K45 ; Filament gcode LA 1.0




M107
;LAYER_CHANGE
;Z:0.2
;HEIGHT:0.2
G1 E-1 F2100
G1 Z.4 F720
G1 X117.554 Y99.628 F10800
G1 Z.2 F720
M73 P1 R11
M73 Q1 S11
G1 E1 F2100
M204 S800
;TYPE:Skirt/Brim
;WIDTH:0.5
G1 F900
G1 X118.668 Y98.351 E.06441
G1 X119.401 Y97.723 E.03668
G1 X120.253 Y97.142 E.03919
G1 X121.871 Y96.368 E.06817
G1 X123.51 Y95.94 E.06438
G1 X125.365 Y95.825 E.07064
G1 X127.045 Y96.049 E.06442
G1 X128.655 Y96.577 E.0644
G1 X129.519 Y97.007 E.03668
G1 X130.467 Y97.623 E.04297
G1 X131.73 Y98.753 E.06441
G1 X132.85 Y100.237 E.07066
G1 X133.591 Y101.76 E.06437
G1 X134.04 Y103.394 E.0644
G1 X134.159 Y104.352 E.03669
G1 X134.169 Y105.483 E.04299
G1 X133.924 Y107.159 E.06438
G1 X133.307 Y108.913 E.07067
G1 X132.446 Y110.372 E.06439
G1 X131.73 Y111.247 E.04297
G1 X131.036 Y111.919 E.03672
G1 X129.662 Y112.91 E.06439
G1 X128.13 Y113.632 E.06437
G1 X126.327 Y114.086 E.07066
G1 X124.635 Y114.175 E.0644
G1 X122.955 Y113.951 E.06442
G1 X121.345 Y113.423 E.0644
G1 X119.86 Y112.608 E.06438
G1 X119.089 Y112.026 E.03671
G1 X118.27 Y111.247 E.04296
G1 X117.237 Y109.904 E.0644
G1 X116.409 Y108.24 E.07064
G1 X116.116 Y107.32 E.0367
G1 X115.898 Y106.21 E.04299
G1 X115.831 Y104.517 E.0644
G1 X116.076 Y102.841 E.06438
G1 X116.693 Y101.087 E.07067
G1 X117.523 Y99.679 E.06212
M204 S1000
G1 X117.915 Y99.909 F10800
M204 S800
G1 F900
G1 X117.919 Y99.903 E.00027
G1 X118.976 Y98.689 E.06118
G1 X119.687 Y98.079 E.0356
G1 X120.493 Y97.531 E.03704
G1 X122.036 Y96.794 E.06499
G1 X123.594 Y96.389 E.06118
G1 X125.337 Y96.282 E.06637
G1 X126.934 Y96.492 E.06122
G1 X128.464 Y96.992 E.06118
G1 X129.303 Y97.41 E.03563
G1 X130.203 Y97.996 E.04082
G1 X131.401 Y99.072 E.0612
G1 X132.382 Y100.349 E.0612
G1 X133.16 Y101.912 E.06636
G1 X133.589 Y103.464 E.0612
G1 X133.704 Y104.394 E.03562
G1 X133.712 Y105.469 E.04086
G1 X133.478 Y107.062 E.06119
G1 X132.897 Y108.709 E.06638
G1 X132.081 Y110.097 E.06119
G1 X131.401 Y110.929 E.04084
G1 X130.729 Y111.581 E.03559
G1 X129.422 Y112.521 E.06119
G1 X127.964 Y113.206 E.06122
G1 X126.27 Y113.632 E.06639
G1 X124.663 Y113.718 E.06116
M73 Q2 S11
G1 X123.066 Y113.508 E.06122
G1 X121.536 Y113.008 E.06118
G1 X120.697 Y112.59 E.03563
M73 P2 R11
G1 X119.878 Y112.061 E.03706
G1 X118.599 Y110.928 E.06494
G1 X117.618 Y109.651 E.0612
G1 X116.84 Y108.088 E.06636
G1 X116.556 Y107.195 E.03561
G1 X116.35 Y106.14 E.04085
G1 X116.288 Y104.531 E.0612
G1 X116.522 Y102.938 E.06119
G1 X117.103 Y101.291 E.06638
G1 X117.884 Y99.961 E.05862
M204 S1000
;WIPE_START
G1 F8640
G1 X117.915 Y99.909 E-.01398
G1 X117.919 Y99.903 E-.00167
G1 X118.976 Y98.689 E-.37168
G1 X119.687 Y98.079 E-.21631
G1 X120.493 Y97.531 E-.22505
G1 X121.162 Y97.211 E-.17131
;WIPE_END
G1 Z.4 F720
; printing object Rear Foot 1.stl id:0 copy 0
G1 X125.032 Y108.496 F10800
G1 Z.2 F720
G1 E1 F2100
M204 S800
;TYPE:Perimeter
;WIDTH:0.499999
G1 F900
G1 X124.419 Y108.456 E.02335
G1 X123.801 Y108.293 E.02429
G1 X123.209 Y108.012 E.02491
G1 X122.677 Y107.624 E.02503
G1 X122.082 Y106.935 E.0346
G1 X121.756 Y106.327 E.02622
G1 X121.601 Y105.824 E.02
G1 X121.535 Y105.489 E.01298
G1 X121.496 Y104.937 E.02103
G1 X121.542 Y104.427 E.01946
G1 X121.709 Y103.793 E.02492
G1 X121.984 Y103.216 E.02429
G1 X122.368 Y102.685 E.02491
G1 X122.749 Y102.322 E.02
G1 X123.383 Y101.89 E.02916
G1 X123.995 Y101.643 E.02508
G1 X124.897 Y101.5 E.03471
G1 X125.581 Y101.544 E.02605
G1 X126.199 Y101.707 E.02429
G1 X126.791 Y101.988 E.02491
G1 X127.323 Y102.376 E.02503
G1 X127.921 Y103.069 E.03479
G1 X128.192 Y103.57 E.02165
G1 X128.316 Y103.882 E.01276
G1 X128.458 Y104.427 E.0214
G1 X128.504 Y104.937 E.01946
G1 X128.468 Y105.462 E.02
G1 X128.291 Y106.207 E.0291
G1 X128.016 Y106.784 E.02429
G1 X127.632 Y107.315 E.02491
G1 X127.252 Y107.677 E.01995
G1 X126.617 Y108.11 E.02921
G1 X126.005 Y108.357 E.02508
G1 X125.103 Y108.5 E.03471
G1 X125.092 Y108.5 E.00042
M204 S1000
G1 X125.013 Y108.045 F10800
M204 S800
;TYPE:External perimeter
G1 F900
G1 X124.46 Y108.001 E.02108
G1 X123.926 Y107.853 E.02106
G1 X123.412 Y107.603 E.02172
G1 X122.953 Y107.26 E.02178
G1 X122.434 Y106.643 E.03064
G1 X122.165 Y106.123 E.02225
G1 X122.005 Y105.573 E.02177
G1 X121.951 Y105.021 E.02108
G1 X121.998 Y104.469 E.02106
G1 X122.149 Y103.918 E.02171
G1 X122.393 Y103.419 E.02111
G1 X122.733 Y102.96 E.02171
G1 X123.141 Y102.583 E.02111
G1 X123.624 Y102.279 E.02169
G1 X124.158 Y102.07 E.02179
G1 X124.96 Y101.952 E.03081
G1 X125.54 Y101.999 E.02212
G1 X126.074 Y102.147 E.02106
G1 X126.588 Y102.397 E.02172
G1 X127.047 Y102.74 E.02178
G1 X127.569 Y103.361 E.03083
G1 X127.835 Y103.877 E.02206
G1 X127.995 Y104.427 E.02177
G1 X128.049 Y104.979 E.02108
G1 X128.002 Y105.531 E.02106
G1 X127.851 Y106.082 E.02171
G1 X127.607 Y106.581 E.02111
G1 X127.267 Y107.04 E.02171
G1 X126.859 Y107.417 E.02111
G1 X126.376 Y107.721 E.02169
G1 X125.842 Y107.93 E.02179
G1 X125.072 Y108.043 E.02958
M204 S1000
;WIPE_START
G1 F8640
G1 X125.013 Y108.045 E-.01363
G1 X124.46 Y108.001 E-.12809
G1 X123.926 Y107.853 E-.12795
G1 X123.412 Y107.603 E-.13198
G1 X122.953 Y107.26 E-.13231
G1 X122.434 Y106.643 E-.18617
G1 X122.165 Y106.123 E-.13518
G1 X122.005 Y105.573 E-.13226
G1 X122 Y105.519 E-.01243
;WIPE_END
G1 Z.4 F720
G1 X125 Y110.559 F10800
G1 Z.2 F720
G1 E1 F2100
M204 S800
;TYPE:Perimeter
G1 F900
G1 X124.135 Y110.506 E.03294
G1 X123.485 Y110.363 E.02529
G1 X122.506 Y109.984 E.0399
G1 X121.93 Y109.652 E.02527
G1 X121.121 Y109 E.03949
G1 X120.445 Y108.211 E.03949
G1 X120.089 Y107.637 E.02567
G1 X119.802 Y107.014 E.02607
G1 X119.594 Y106.36 E.02608
G1 X119.47 Y105.695 E.02571
G1 X119.438 Y104.657 E.03947
G1 X119.596 Y103.641 E.03908
G1 X119.941 Y102.661 E.03949
G1 X120.256 Y102.075 E.02529
G1 X120.888 Y101.237 E.03989
G1 X121.373 Y100.767 E.02567
G1 X121.913 Y100.36 E.0257
G1 X122.828 Y99.868 E.03948
G1 X123.808 Y99.557 E.03908
G1 X124.829 Y99.43 E.0391
G1 X125.865 Y99.494 E.03945
G1 X126.515 Y99.637 E.02529
G1 X127.494 Y100.016 E.0399
G1 X128.079 Y100.354 E.02568
G1 X128.632 Y100.772 E.02635
G1 X129.112 Y101.238 E.02543
G1 X129.744 Y102.075 E.03986
G1 X130.064 Y102.67 E.02568
G1 X130.308 Y103.301 E.02571
G1 X130.537 Y104.405 E.04285
G1 X130.57 Y105.064 E.02508
G1 X130.532 Y105.685 E.02365
M73 Q3 S11
G1 X130.407 Y106.349 E.02568
G1 X130.062 Y107.329 E.03949
G1 X129.543 Y108.229 E.03949
G1 X129.119 Y108.755 E.02568
G1 X128.627 Y109.233 E.02607
G1 X128.079 Y109.646 E.02608
G1 X127.485 Y109.99 E.02609
M73 P3 R11
G1 X126.862 Y110.253 E.0257
G1 X125.844 Y110.509 E.0399
G1 X125.182 Y110.57 E.02527
G1 X125.06 Y110.563 E.00464
M204 S1000
G1 X125 Y111.017 F10800
M204 S800
;TYPE:External perimeter
G1 F900
G1 X124.071 Y110.96 E.03537
G1 X123.352 Y110.802 E.02798
G1 X122.308 Y110.398 E.04255
G1 X121.671 Y110.03 E.02796
G1 X120.801 Y109.33 E.04244
G1 X120.075 Y108.482 E.04243
G1 X119.686 Y107.854 E.02808
G1 X119.375 Y107.179 E.02825
G1 X119.15 Y106.471 E.02823
G1 X119.014 Y105.744 E.02811
G1 X118.98 Y104.628 E.04243
G1 X119.151 Y103.529 E.04227
G1 X119.522 Y102.476 E.04243
G1 X119.87 Y101.827 E.02799
G1 X120.545 Y100.934 E.04254
G1 X121.076 Y100.419 E.02811
G1 X121.666 Y99.974 E.02809
G1 X122.649 Y99.446 E.04241
G1 X123.71 Y99.108 E.04232
G1 X124.815 Y98.971 E.04232
G1 X125.929 Y99.04 E.04242
M73 P3 R10
G1 X126.648 Y99.198 E.02798
G1 X127.692 Y99.602 E.04255
G1 X128.332 Y99.972 E.0281
G1 X128.93 Y100.425 E.02851
G1 X129.455 Y100.934 E.02779
G1 X130.13 Y101.828 E.04257
G1 X130.48 Y102.479 E.02809
G1 X130.747 Y103.168 E.02808
G1 X130.993 Y104.377 E.04689
G1 X131.026 Y105.092 E.0272
G1 X130.986 Y105.741 E.02471
G1 X130.85 Y106.468 E.02811
G1 X130.479 Y107.521 E.04243
G1 X129.921 Y108.488 E.04243
G1 X129.457 Y109.064 E.02811
G1 X128.925 Y109.58 E.02817
G1 X128.332 Y110.028 E.02825
G1 X127.689 Y110.4 E.02823
G1 X127.008 Y110.688 E.0281
G1 X125.922 Y110.961 E.04256
G1 X125.189 Y111.029 E.02798
G1 X125.06 Y111.021 E.00491
M204 S1000
;WIPE_START
G1 F8640
G1 X125 Y111.017 E-.01388
G1 X124.071 Y110.96 E-.21491
G1 X123.352 Y110.802 E-.16998
G1 X122.308 Y110.398 E-.25848
G1 X121.671 Y110.03 E-.16987
G1 X121.088 Y109.56 E-.17288
;WIPE_END
G1 Z.4 F720
G1 X129.707 Y102.392 F10800
G1 Z.2 F720
G1 E1 F2100
M204 S800
;TYPE:Solid infill
;WIDTH:0.5133
G1 F900
G1 X128.379 Y101.068 E.07335
G1 X127.864 Y100.678 E.02527
G1 X127.325 Y100.367 E.02434
G1 X126.822 Y100.172 E.0211
M73 Q3 S10
G1 X129.854 Y103.204 E.16771
G1 X129.935 Y103.413 E.00877
G1 X130.085 Y104.101 E.02754
G1 X125.88 Y99.895 E.23262
G1 X125.159 Y99.84 E.02828
G1 X130.176 Y104.857 E.27751
G1 X130.185 Y105 E.0056
G1 X130.154 Y105.5 E.01959
G1 X128.788 Y104.134 E.07556
G1 X128.826 Y104.264 E.0053
G1 X128.887 Y104.898 E.02491
G1 X130.064 Y106.075 E.0651
G1 X130.031 Y106.249 E.00693
G1 X129.912 Y106.588 E.01405
G1 X128.848 Y105.525 E.05883
G1 X128.831 Y105.707 E.00715
G1 X128.73 Y106.071 E.01477
G1 X129.738 Y107.08 E.05578
G1 X129.708 Y107.166 E.00356
G1 X129.507 Y107.514 E.01572
G1 X128.555 Y106.562 E.05266
G1 X128.337 Y107.009 E.01945
G1 X129.263 Y107.935 E.05122
G1 X128.976 Y108.313 E.01856
G1 X128.051 Y107.388 E.05116
G1 X127.839 Y107.667 E.01371
G1 X127.747 Y107.75 E.00485
G1 X128.658 Y108.661 E.05039
G1 X128.314 Y108.982 E.0184
G1 X127.398 Y108.065 E.05069
G1 X126.992 Y108.325 E.01886
G1 X127.935 Y109.268 E.05216
G1 X127.864 Y109.322 E.00349
G1 X127.522 Y109.52 E.01546
G1 X126.561 Y108.559 E.05316
G1 X126.076 Y108.739 E.02023
G1 X127.077 Y109.74 E.05537
G1 X126.738 Y109.884 E.01441
G1 X126.592 Y109.92 E.00588
G1 X125.506 Y108.834 E.06007
G1 X125.149 Y108.886 E.01411
M73 Q4 S10
G1 X124.895 Y108.889 E.00994
G1 X126.06 Y110.054 E.06444
G1 X125.779 Y110.125 E.01134
G1 X125.492 Y110.151 E.01127
G1 X123.829 Y108.488 E.09199
M204 S1000
;WIPE_START
G1 F8640
M73 P4 R10
G1 X125.492 Y110.151 E-.54305
G1 X125.779 Y110.125 E-.06654
G1 X126.06 Y110.054 E-.06692
G1 X125.069 Y109.063 E-.32349
;WIPE_END
G1 Z.4 F720
G1 X126.165 Y101.51 F10800
G1 Z.2 F720
G1 E1 F2100
M204 S800
G1 F900
G1 X124.515 Y99.861 E.09124
G1 X123.923 Y99.934 E.02333
G1 X125.111 Y101.123 E.06574
G1 X124.917 Y101.106 E.00762
G1 X124.494 Y101.17 E.01673
G1 X123.414 Y100.09 E.05974
G1 X122.98 Y100.228 E.01781
G1 X122.919 Y100.261 E.00271
G1 X123.917 Y101.258 E.05517
G1 X123.435 Y101.442 E.02018
G1 X122.486 Y100.493 E.05249
G1 X122.123 Y100.688 E.01612
G1 X122.062 Y100.734 E.00299
G1 X123 Y101.672 E.05188
G1 X122.6 Y101.937 E.01877
G1 X121.683 Y101.02 E.05072
G1 X121.339 Y101.342 E.01843
G1 X122.252 Y102.254 E.05047
G1 X122.131 Y102.364 E.0064
G1 X121.944 Y102.612 E.01215
G1 X121.029 Y101.696 E.05064
G1 X120.742 Y102.075 E.01859
G1 X121.663 Y102.995 E.05092
G1 X121.444 Y103.442 E.01947
G1 X120.48 Y102.478 E.05332
G1 X120.298 Y102.818 E.01508
G1 X120.261 Y102.924 E.00439
G1 X121.27 Y103.934 E.05584
G1 X121.164 Y104.321 E.01569
G1 X121.15 Y104.479 E.0062
G1 X120.087 Y103.416 E.0588
G1 X119.974 Y103.736 E.01327
G1 X119.943 Y103.937 E.00795
G1 X121.111 Y105.105 E.06461
G1 X121.169 Y105.709 E.02373
G1 X121.218 Y105.877 E.00684
G1 X119.854 Y104.513 E.07545
G1 X119.828 Y104.681 E.00665
G1 X119.843 Y105.167 E.01902
G1 X124.836 Y110.16 E.27618
G1 X124.114 Y110.103 E.02833
G1 X119.902 Y105.892 E.23295
G1 X119.972 Y106.265 E.01484
G1 X120.141 Y106.795 E.02176
G1 X123.17 Y109.825 E.16757
G1 X122.675 Y109.633 E.02077
G1 X122.15 Y109.33 E.02371
G1 X121.433 Y108.753 E.036
G1 X120.283 Y107.603 E.06361
M204 S1000
;LAYER_CHANGE
;Z:0.35
;HEIGHT:0.15
;BEFORE_LAYER_CHANGE
G92 E0.0
;0.35


;WIPE_START
G1 F8640
G1 X121.433 Y108.753 E-.37553
G1 X122.15 Y109.33 E-.21251
G1 X122.675 Y109.633 E-.13996
G1 X123.17 Y109.825 E-.12259
G1 X122.712 Y109.367 E-.14941
;WIPE_END
G1 Z.35 F720
;AFTER_LAYER_CHANGE
;0.35
M104 S230 ; set temperature
M140 S85 ; set bed temperature
; stop printing object Rear Foot 1.stl id:0 copy 0
G1 Z.55
G1 X116.924 Y109.276 F10800
G1 Z.35 F720
G1 E1 F2100
;TYPE:Skirt/Brim
;WIDTH:0.5
G1 F1843
G1 X116.409 Y108.24 E.03375
G1 X116.116 Y107.32 E.02817
G1 X115.898 Y106.21 E.033
G1 X115.831 Y104.517 E.04943
G1 X116.076 Y102.841 E.04942
G1 X116.693 Y101.087 E.05424
G1 X117.554 Y99.628 E.04942
G1 X118.668 Y98.351 E.04944
G1 X119.401 Y97.723 E.02816
G1 X120.253 Y97.142 E.03009
G1 X121.871 Y96.368 E.05233
G1 X123.51 Y95.94 E.04942
G1 X125.365 Y95.825 E.05422
G1 X127.045 Y96.049 E.04945
G1 X128.655 Y96.577 E.04943
G1 X129.519 Y97.007 E.02816
G1 X130.467 Y97.623 E.03298
G1 X131.73 Y98.753 E.04944
G1 X132.85 Y100.237 E.05424
G1 X133.591 Y101.76 E.04941
G1 X134.04 Y103.394 E.04944
G1 X134.159 Y104.352 E.02816
G1 X134.169 Y105.483 E.033
G1 X133.924 Y107.159 E.04942
G1 X133.307 Y108.913 E.05424
G1 X132.446 Y110.372 E.04942
G1 X131.73 Y111.247 E.03298
G1 X131.036 Y111.919 E.02818
G1 X129.662 Y112.91 E.04942
G1 X128.13 Y113.632 E.04941
G1 X126.327 Y114.086 E.05424
G1 X124.635 Y114.175 E.04943
G1 X122.955 Y113.951 E.04945
G1 X121.345 Y113.423 E.04943
G1 X119.86 Y112.608 E.04942
G1 X119.089 Y112.026 E.02818
G1 X118.27 Y111.247 E.03298
G1 X117.237 Y109.904 E.04943
G1 X116.951 Y109.329 E.01874
M73 Q5 S10
G1 X117.357 Y109.127 F10800
G1 F1843
G1 X116.84 Y108.088 E.03386
G1 X116.556 Y107.195 E.02734
G1 X116.35 Y106.14 E.03136
G1 X116.288 Y104.531 E.04698
G1 X116.522 Y102.938 E.04697
G1 X117.103 Y101.291 E.05095
M73 P5 R10
G1 X117.919 Y99.903 E.04697
G1 X118.976 Y98.689 E.04696
G1 X119.687 Y98.079 E.02733
G1 X120.493 Y97.531 E.02843
G1 X122.036 Y96.794 E.04989
G1 X123.594 Y96.389 E.04696
G1 X125.337 Y96.282 E.05095
G1 X126.934 Y96.492 E.04699
G1 X128.464 Y96.992 E.04696
G1 X129.303 Y97.41 E.02735
G1 X130.203 Y97.996 E.03133
G1 X131.401 Y99.072 E.04698
G1 X132.382 Y100.349 E.04698
G1 X133.16 Y101.912 E.05094
G1 X133.589 Y103.464 E.04698
G1 X133.704 Y104.394 E.02734
G1 X133.712 Y105.469 E.03136
G1 X133.478 Y107.062 E.04697
G1 X132.897 Y108.709 E.05095
G1 X132.081 Y110.097 E.04697
G1 X131.401 Y110.929 E.03135
G1 X130.729 Y111.581 E.02732
G1 X129.422 Y112.521 E.04697
G1 X127.964 Y113.206 E.047
G1 X126.27 Y113.632 E.05096
G1 X124.663 Y113.718 E.04695
G1 X123.066 Y113.508 E.04699
G1 X121.536 Y113.008 E.04696
G1 X120.697 Y112.59 E.02735
G1 X119.878 Y112.061 E.02844
G1 X118.599 Y110.928 E.04985
G1 X117.618 Y109.651 E.04698
G1 X117.384 Y109.181 E.01532
;WIPE_START
G1 F8640
G1 X117.357 Y109.127 E-.01394
G1 X116.84 Y108.088 E-.26797
G1 X116.556 Y107.195 E-.21637
G1 X116.35 Y106.14 E-.2482
G1 X116.307 Y105.043 E-.25352
;WIPE_END
G1 Z.55 F720
; printing object Rear Foot 1.stl id:0 copy 0
G1 X125 Y108.184 F10800
G1 Z.35 F720
G1 E1 F2100
M204 S800
;TYPE:Perimeter
;WIDTH:0.449999
G1 F1500
G1 X124.499 Y108.173 E.01306
G1 X123.911 Y108.025 E.0158
G1 X123.356 Y107.763 E.01599
