; generated by PrusaSlicer 2.9.4 on 2026-03-18 at 00:31:59 UTC


;
;
; 

; external perimeters extrusion width = 0.45mm
; perimeters extrusion width = 0.45mm
; infill extrusion width = 0.45mm
; solid infill extrusion width = 0.45mm
; top infill extrusion width = 0.40mm
; first layer extrusion width = 0.42mm

M73 P0 R10
M73 Q0 S10
M201 X1000 Y1000 Z200 E5000 ; sets maximum accelerations, mm/sec^2
M203 X200 Y200 Z12 E120 ; sets maximum feedrates, mm / sec
M204 S1250 T1250 ; sets acceleration (S) and retract acceleration (R), mm/sec^2
M205 X8.00 Y8.00 Z0.40 E4.50 ; sets the jerk limits, mm/sec
M205 S0 T0 ; sets the minimum extruding and travel feed rate, mm/sec

; printing object Rear Foot 1.stl id:0 copy 0
; stop printing object Rear Foot 1.stl id:0 copy 0

;TYPE:Custom
M862.3 P "MK3S" ; printer model check
M862.1 P0.4 ; nozzle diameter check
M115 U3.14.1 ; tell printer latest fw version
G90 ; use absolute coordinates
M83 ; extruder relative mode
M104 S240 ; set extruder temp
M140 S90 ; set bed temp
M190 S90 ; wait for bed temp
M109 S240 ; wait for extruder temp
G28 W ; home all without mesh bed level
G80 X115.373 Y95.3747 W19.2539 H19.2507 ; mesh bed levelling

G1 Z0.2 F720
G1 Y-3 F1000 ; go outside print area
G92 E0
G1 X60 E9 F1000 ; intro line
G1 X100 E12.5 F1000 ; intro line

G92 E0
M221 S95

; Don't change E values below. Excessive value can damage the printer.
M907 E430 ; set extruder motor current
G21 ; set units to millimeters
G90 ; use absolute coordinates
M83 ; use relative distances for extrusion

M900 K0.08 ; Filament gcode LA 1.5
M900 K45 ; Filament gcode LA 1.0




M107
;LAYER_CHANGE
;Z:0.2
;HEIGHT:0.2
G1 E-1 F2100
G1 Z.4 F720
G1 X117.244 Y99.621 F10800
G1 Z.2 F720
M73 P1 R10
M73 Q1 S10
G1 E1 F2100
M204 S800
;TYPE:Skirt/Brim
;WIDTH:0.42
G1 F1200
G1 X118.495 Y98.161 E.06028
G1 X119.24 Y97.523 E.03075
G1 X120.117 Y96.924 E.0333
G1 X121.778 Y96.128 E.05775
G1 X123.642 Y95.659 E.06027
G1 X125.381 Y95.569 E.0546
G1 X127.108 Y95.799 E.05463
G1 X128.762 Y96.343 E.05459
G1 X129.641 Y96.781 E.03079
G1 X130.616 Y97.413 E.03643
G1 X131.914 Y98.574 E.0546
G1 X133.072 Y100.108 E.06026
G1 X133.834 Y101.675 E.05463
G1 X134.294 Y103.355 E.05461
G1 X134.415 Y104.329 E.03077
G1 X134.426 Y105.491 E.03644
G1 X134.176 Y107.214 E.05459
G1 X133.537 Y109.027 E.06027
G1 X132.651 Y110.527 E.05462
G1 X132.036 Y111.292 E.03078
G1 X131.21 Y112.109 E.03643
G1 X129.798 Y113.129 E.05462
G1 X128.222 Y113.872 E.05463
G1 X126.537 Y114.313 E.05461
G1 X124.619 Y114.431 E.06025
G1 X122.892 Y114.201 E.05463
G1 X121.238 Y113.657 E.05459
G1 X120.359 Y113.219 E.03079
G1 X119.466 Y112.644 E.0333
G1 X118.086 Y111.426 E.05771
G1 X117.023 Y110.046 E.05462
G1 X116.166 Y108.325 E.06028
G1 X115.869 Y107.39 E.03076
G1 X115.644 Y106.25 E.03643
G1 X115.574 Y104.509 E.05463
G1 X115.824 Y102.786 E.05459
G1 X116.388 Y101.137 E.05464
G1 X117.214 Y99.673 E.0527
M204 S1000
G1 X117.549 Y99.87 F10800
M204 S800
G1 F1200
G1 X117.65 Y99.7 E.0062
G1 X118.749 Y98.44 E.05242
G1 X119.476 Y97.816 E.03004
G1 X120.316 Y97.244 E.03186
G1 X121.914 Y96.48 E.05554
G1 X123.688 Y96.034 E.05735
G1 X125.358 Y95.945 E.05244
G1 X127.016 Y96.165 E.05244
G1 X128.605 Y96.686 E.05243
G1 X129.462 Y97.113 E.03002
G1 X130.398 Y97.721 E.035
G1 X131.643 Y98.837 E.05242
G1 X132.746 Y100.297 E.05737
G1 X133.478 Y101.8 E.05242
G1 X133.922 Y103.413 E.05246
G1 X134.04 Y104.363 E.03002
G1 X134.049 Y105.479 E.03499
G1 X133.807 Y107.134 E.05244
G1 X133.199 Y108.859 E.05735
G1 X132.35 Y110.3 E.05244
G1 X131.75 Y111.046 E.03002
G1 X130.956 Y111.83 E.03499
G1 X129.599 Y112.808 E.05245
G1 X128.086 Y113.52 E.05243
G1 X126.468 Y113.942 E.05243
G1 X124.642 Y114.055 E.05736
G1 X123.688 Y113.966 E.03004
G1 X122.693 Y113.762 E.03185
G1 X121.032 Y113.147 E.05553
G1 X119.602 Y112.279 E.05245
G1 X118.25 Y111.046 E.05737
G1 X117.254 Y109.703 E.05243
G1 X116.801 Y108.859 E.03003
M73 Q2 S10
G1 X116.422 Y107.916 E.03187
G1 X116.017 Y106.192 E.05553
G1 X115.951 Y104.521 E.05243
G1 X116.193 Y102.866 E.05244
G1 X116.801 Y101.141 E.05735
M73 P2 R10
G1 X117.519 Y99.922 E.04436
M204 S1000
G1 X117.836 Y100.102 F10800
M204 S800
G1 F1200
G1 X117.873 Y100.037 E.00235
G1 X119.003 Y98.718 E.05446
G1 X119.713 Y98.11 E.02931
G1 X120.514 Y97.565 E.03038
G1 X122.05 Y96.831 E.05338
G1 X123.601 Y96.428 E.05025
G1 X125.335 Y96.322 E.05447
G1 X126.924 Y96.531 E.05025
G1 X128.447 Y97.029 E.05024
G1 X129.284 Y97.445 E.02931
G1 X130.18 Y98.029 E.03353
G1 X131.373 Y99.099 E.05025
G1 X132.348 Y100.371 E.05025
G1 X133.123 Y101.926 E.05448
G1 X133.549 Y103.47 E.05022
G1 X133.672 Y104.533 E.03355
G1 X133.672 Y105.467 E.02928
G1 X133.439 Y107.053 E.05026
G1 X132.862 Y108.691 E.05445
G1 X132.049 Y110.073 E.05027
G1 X131.373 Y110.901 E.03351
G1 X130.702 Y111.551 E.02929
G1 X129.401 Y112.487 E.05025
G1 X127.95 Y113.169 E.05027
G1 X126.399 Y113.572 E.05025
G1 X124.665 Y113.678 E.05447
G1 X123.734 Y113.592 E.02932
G1 X122.785 Y113.396 E.03038
G1 X121.189 Y112.804 E.05337
G1 X119.713 Y111.89 E.05443
G1 X118.537 Y110.801 E.05025
G1 X117.581 Y109.515 E.05024
G1 X116.877 Y108.074 E.05029
G1 X116.594 Y107.184 E.02928
G1 X116.389 Y106.134 E.03354
G1 X116.328 Y104.533 E.05023
G1 X116.561 Y102.947 E.05026
G1 X117.082 Y101.431 E.05026
G1 X117.806 Y100.154 E.04603
M204 S1000
;WIPE_START
G1 F8640
G1 X117.836 Y100.102 E-.01386
G1 X117.873 Y100.037 E-.01727
G1 X119.003 Y98.718 E-.40104
G1 X119.713 Y98.11 E-.21584
G1 X120.514 Y97.565 E-.2237
G1 X121.015 Y97.326 E-.12829
;WIPE_END
G1 Z.4 F720
; printing object Rear Foot 1.stl id:0 copy 0
G1 X126.268 Y101.706 F10800
G1 Z.2 F720
G1 E1 F2100
M204 S800
;TYPE:Perimeter
;WIDTH:0.419999
G1 F1200
G1 X126.817 Y101.967 E.01906
G1 X127.345 Y102.357 E.02058
G1 X127.908 Y103.007 E.02696
G1 X128.23 Y103.579 E.02058
G1 X128.467 Y104.312 E.02415
G1 X128.535 Y104.948 E.02005
G1 X128.497 Y105.465 E.01625
G1 X128.315 Y106.228 E.02459
G1 X128.038 Y106.807 E.02012
G1 X127.647 Y107.344 E.02083
G1 X127.271 Y107.699 E.01621
G1 X126.621 Y108.142 E.02466
G1 X126.147 Y108.334 E.01603
G1 X125.855 Y108.425 E.00959
G1 X125.09 Y108.531 E.02422
G1 X124.402 Y108.484 E.02162
G1 X123.783 Y108.319 E.02009
G1 X123.183 Y108.033 E.02084
G1 X122.644 Y107.635 E.02101
G1 X122.255 Y107.189 E.01856
G1 X121.976 Y106.83 E.01426
G1 X121.723 Y106.326 E.01768
G1 X121.573 Y105.832 E.01619
G1 X121.505 Y105.489 E.01096
G1 X121.465 Y104.948 E.01701
G1 X121.514 Y104.414 E.01681
G1 X121.685 Y103.772 E.02083
G1 X121.962 Y103.193 E.02012
G1 X122.353 Y102.656 E.02083
G1 X122.729 Y102.3 E.01624
G1 X123.379 Y101.858 E.02465
G1 X124.003 Y101.609 E.02107
G1 X124.91 Y101.469 E.02878
G1 X125.598 Y101.516 E.02162
G1 X126.214 Y101.68 E.01999
M204 S1000
G1 X126.134 Y102.053 F10800
M204 S800
;TYPE:External perimeter
G1 F1200
G1 X126.649 Y102.305 E.01798
G1 X127.117 Y102.657 E.01836
G1 X127.618 Y103.248 E.02429
G1 X127.893 Y103.748 E.01789
G1 X128.104 Y104.415 E.02193
G1 X128.16 Y104.983 E.0179
G1 X128.111 Y105.552 E.01791
G1 X127.952 Y106.126 E.01868
G1 X127.701 Y106.639 E.01791
G1 X127.345 Y107.117 E.01869
G1 X126.925 Y107.505 E.01793
G1 X126.422 Y107.822 E.01864
G1 X125.863 Y108.039 E.0188
G1 X125.038 Y108.158 E.02613
G1 X124.436 Y108.109 E.01894
G1 X123.886 Y107.956 E.0179
G1 X123.351 Y107.695 E.01866
G1 X122.872 Y107.335 E.01879
G1 X122.313 Y106.661 E.02746
G1 X122.061 Y106.158 E.01764
G1 X121.896 Y105.585 E.0187
G1 X121.84 Y105.017 E.0179
G1 X121.889 Y104.448 E.01791
G1 X122.048 Y103.874 E.01868
G1 X122.299 Y103.361 E.01791
G1 X122.655 Y102.883 E.01869
G1 X123.075 Y102.495 E.01793
G1 X123.578 Y102.178 E.01864
G1 X124.137 Y101.961 E.0188
G1 X124.962 Y101.842 E.02613
G1 X125.564 Y101.891 E.01894
G1 X126.078 Y102.034 E.01673
M204 S1000
;WIPE_START
G1 F8640
G1 X126.134 Y102.053 E-.01365
G1 X126.649 Y102.305 E-.13239
G1 X127.117 Y102.657 E-.13522
G1 X127.618 Y103.248 E-.1789
G1 X127.893 Y103.748 E-.13176
G1 X128.104 Y104.415 E-.16153
G1 X128.16 Y104.983 E-.13179
G1 X128.117 Y105.478 E-.11476
;WIPE_END
G1 Z.4 F720
G1 X125.155 Y99.48 F10800
G1 Z.2 F720
G1 E1 F2100
M204 S800
;TYPE:Perimeter
G1 F1200
G1 X125.859 Y99.523 E.02211
G1 X126.509 Y99.666 E.02087
G1 X127.479 Y100.041 E.03261
M73 Q3 S10
G1 X128.063 Y100.379 E.02116
G1 X128.61 Y100.792 E.02149
G1 X129.097 Y101.265 E.02129
G1 X129.52 Y101.79 E.02114
G1 X130.04 Y102.691 E.03262
G1 X130.28 Y103.311 E.02085
G1 X130.507 Y104.405 E.03503
G1 X130.54 Y105.062 E.02063
M73 P3 R10
G1 X130.502 Y105.681 E.01944
G1 X130.378 Y106.344 E.02115
G1 X130.035 Y107.317 E.03235
G1 X129.52 Y108.21 E.03232
G1 X129.097 Y108.735 E.02114
G1 X128.607 Y109.21 E.0214
G1 X128.062 Y109.622 E.02142
G1 X127.471 Y109.963 E.02139
G1 X126.843 Y110.229 E.02138
G1 X126.194 Y110.413 E.02115
G1 X125.162 Y110.541 E.03261
G1 X124.489 Y110.521 E.02111
G1 X123.822 Y110.417 E.02117
G1 X122.831 Y110.102 E.0326
G1 X122.228 Y109.801 E.02113
G1 X121.659 Y109.424 E.0214
G1 X121.14 Y108.98 E.02142
G1 X120.681 Y108.476 E.02137
G1 X120.291 Y107.925 E.02117
G1 X119.828 Y106.994 E.0326
G1 X119.623 Y106.352 E.02113
G1 X119.499 Y105.69 E.02112
G1 X119.468 Y104.658 E.03237
G1 X119.626 Y103.639 E.03233
G1 X119.828 Y103.005 E.02086
G1 X120.288 Y102.082 E.03233
G1 X120.909 Y101.259 E.03233
G1 X121.393 Y100.79 E.02113
G1 X121.931 Y100.384 E.02113
G1 X122.84 Y99.896 E.03235
G1 X123.815 Y99.585 E.03209
G1 X124.83 Y99.46 E.03206
G1 X125.095 Y99.476 E.00832
M204 S1000
G1 X125.178 Y99.104 F10800
M204 S800
;TYPE:External perimeter
G1 F1200
G1 X125.911 Y99.149 E.02303
G1 X126.618 Y99.304 E.02269
G1 X127.642 Y99.7 E.03442
G1 X128.271 Y100.064 E.02279
G1 X128.856 Y100.505 E.02297
G1 X129.376 Y101.01 E.02273
G1 X129.832 Y101.576 E.02279
G1 X130.381 Y102.528 E.03446
G1 X130.642 Y103.202 E.02266
G1 X130.884 Y104.382 E.03777
G1 X130.917 Y105.085 E.02207
G1 X130.877 Y105.727 E.02017
G1 X130.744 Y106.442 E.0228
G1 X130.379 Y107.475 E.03435
G1 X129.832 Y108.424 E.03434
G1 X129.376 Y108.99 E.02279
G1 X128.853 Y109.497 E.02284
G1 X128.271 Y109.936 E.02286
G1 X127.64 Y110.301 E.02286
G1 X126.968 Y110.585 E.02287
G1 X126.269 Y110.784 E.02279
G1 X125.179 Y110.919 E.03444
G1 X124.454 Y110.897 E.02274
G1 X123.736 Y110.785 E.02278
G1 X122.689 Y110.452 E.03445
G1 X122.039 Y110.129 E.02276
G1 X121.431 Y109.726 E.02287
G1 X120.877 Y109.251 E.02288
G1 X120.387 Y108.713 E.02282
G1 X119.967 Y108.12 E.02278
G1 X119.477 Y107.136 E.03447
G1 X119.257 Y106.444 E.02277
G1 X119.123 Y105.73 E.02278
G1 X119.09 Y104.635 E.03435
G1 X119.258 Y103.553 E.03433
G1 X119.477 Y102.863 E.0227
G1 X119.966 Y101.882 E.03437
G1 X120.626 Y101.008 E.03434
G1 X121.147 Y100.503 E.02275
G1 X121.727 Y100.065 E.02279
G1 X122.692 Y99.547 E.03434
G1 X123.734 Y99.216 E.03428
G1 X124.818 Y99.081 E.03425
G1 X125.118 Y99.1 E.00943
M204 S1000
;WIPE_START
G1 F8640
G1 X125.178 Y99.104 E-.01388
G1 X125.911 Y99.149 E-.16957
G1 X126.618 Y99.304 E-.16713
G1 X127.642 Y99.7 E-.25351
G1 X128.271 Y100.064 E-.1678
G1 X128.856 Y100.505 E-.16916
G1 X129.039 Y100.683 E-.05895
;WIPE_END
G1 Z.4 F720
G1 X127.737 Y100.365 F10800
G1 Z.2 F720
G1 E1 F2100
M204 S800
;TYPE:Solid infill
;WIDTH:0.429254
G1 F1200
G1 X128.886 Y101.514 E.0522
G1 X129.255 Y101.972 E.01889
G1 X129.75 Y102.83 E.03182
G1 X129.809 Y102.984 E.0053
G1 X127.042 Y100.216 E.12573
G1 X126.416 Y99.974 E.02156
G1 X126.207 Y99.928 E.00687
G1 X130.053 Y103.774 E.17472
G1 X130.189 Y104.456 E.02234
G1 X125.559 Y99.826 E.21034
G1 X124.977 Y99.79 E.01873
G1 X126.781 Y101.594 E.08196
G1 X127.012 Y101.708 E.00828
G1 X127.631 Y102.178 E.02497
G1 X128.283 Y102.974 E.03305
G1 X128.404 Y103.218 E.00875
G1 X130.381 Y105.194 E.08979
M204 S1000
;WIPE_START
G1 F8640
G1 X128.404 Y103.218 E-.64542
G1 X128.283 Y102.974 E-.06289
G1 X127.631 Y102.178 E-.23759
G1 X127.444 Y102.036 E-.0541
;WIPE_END
G1 Z.4 F720
G1 X128.491 Y103.851 F10800
G1 Z.2 F720
G1 E1 F2100
M204 S800
G1 F1200
G1 X130.189 Y105.549 E.07714
G1 X130.113 Y106.019 E.01529
G1 X128.834 Y104.74 E.0581
G1 X128.858 Y105 E.00839
G1 X128.832 Y105.285 E.00919
G1 X130 Y106.452 E.05304
G1 X129.858 Y106.856 E.01376
G1 X128.773 Y105.772 E.04927
G1 X128.654 Y106.199 E.01424
G1 X129.704 Y107.249 E.0477
G1 X129.504 Y107.596 E.01287
G1 X128.499 Y106.591 E.04566
M73 Q4 S10
G1 X128.32 Y106.957 E.01309
G1 X129.304 Y107.942 E.04473
G1 X129.071 Y108.256 E.01256
G1 X128.091 Y107.275 E.04454
G1 X127.855 Y107.585 E.01252
G1 X128.823 Y108.554 E.044
M73 P4 R10
G1 X128.546 Y108.823 E.0124
G1 X127.576 Y107.853 E.04407
G1 X127.281 Y108.105 E.01246
G1 X128.253 Y109.076 E.04414
G1 X127.942 Y109.311 E.01252
G1 X126.942 Y108.312 E.04541
G1 X126.674 Y108.475 E.01008
G1 X126.591 Y108.507 E.00286
G1 X127.602 Y109.518 E.04593
G1 X127.247 Y109.71 E.01297
G1 X126.194 Y108.656 E.04786
G1 X126.034 Y108.717 E.0055
G1 X125.747 Y108.756 E.0093
G1 X126.863 Y109.872 E.0507
G1 X126.452 Y110.007 E.0139
G1 X125.266 Y108.821 E.05388
G1 X124.992 Y108.858 E.00888
G1 X124.733 Y108.834 E.00836
G1 X126.012 Y110.113 E.0581
G1 X125.525 Y110.173 E.01576
G1 X123.844 Y108.491 E.07639
M204 S1000
;WIPE_START
G1 F8640
G1 X125.525 Y110.173 E-.54909
G1 X126.012 Y110.113 E-.1133
G1 X124.978 Y109.079 E-.33761
;WIPE_END
G1 Z.4 F720
G1 X126.148 Y101.508 F10800
G1 Z.2 F720
G1 E1 F2100
M204 S800
G1 F1200
G1 X124.468 Y99.828 E.07632
G1 X123.982 Y99.888 E.01573
G1 X125.267 Y101.173 E.05838
G1 X124.922 Y101.144 E.01112
G1 X124.722 Y101.174 E.0065
G1 X123.553 Y100.005 E.05311
G1 X123.138 Y100.137 E.01399
G1 X124.246 Y101.245 E.05034
G1 X123.942 Y101.29 E.00987
G1 X123.8 Y101.345 E.00489
G1 X122.758 Y100.303 E.04734
G1 X122.403 Y100.494 E.01295
G1 X123.404 Y101.495 E.04548
G1 X123.055 Y101.693 E.01289
G1 X122.054 Y100.692 E.04548
G1 X121.743 Y100.927 E.01252
G1 X122.714 Y101.898 E.04411
G1 X122.421 Y102.151 E.01244
G1 X121.45 Y101.181 E.04409
G1 X121.173 Y101.45 E.0124
G1 X122.139 Y102.416 E.04389
G1 X121.904 Y102.727 E.01252
G1 X120.934 Y101.757 E.04407
G1 X120.699 Y102.069 E.01255
G1 X121.68 Y103.049 E.04454
G1 X121.498 Y103.414 E.0131
G1 X120.486 Y102.402 E.04598
G1 X120.305 Y102.767 E.01309
G1 X121.345 Y103.808 E.04727
G1 X121.227 Y104.235 E.01423
G1 X120.124 Y103.132 E.05011
G1 X119.992 Y103.547 E.01399
G1 X121.168 Y104.723 E.05343
G1 X121.142 Y105.024 E.00971
G1 X121.165 Y105.266 E.00781
G1 X119.895 Y103.996 E.0577
G1 X119.821 Y104.469 E.01538
G1 X121.522 Y106.17 E.07728
M204 S1000
;WIPE_START
G1 F8640
G1 X119.821 Y104.469 E-.55545
G1 X119.895 Y103.996 E-.11055
G1 X120.918 Y105.019 E-.334
;WIPE_END
G1 Z.4 F720
G1 X119.624 Y104.818 F10800
G1 Z.2 F720
G1 E1 F2100
M204 S800
G1 F1200
G1 X121.609 Y106.803 E.09018
G1 X121.755 Y107.086 E.01023
G1 X122.344 Y107.796 E.02963
G1 X122.947 Y108.267 E.02458
G1 X123.194 Y108.388 E.00884
G1 X125.022 Y110.216 E.08305
G1 X124.45 Y110.19 E.01839
G1 X119.816 Y105.557 E.2105
G1 X119.819 Y105.655 E.00315
G1 X119.923 Y106.21 E.01814
G1 X123.781 Y110.067 E.17525
G1 X122.979 Y109.812 E.02703
G1 X120.21 Y107.043 E.1258
G1 X120.567 Y107.76 E.02573
G1 X120.931 Y108.275 E.02026
G1 X121.302 Y108.681 E.01767
G1 X122.266 Y109.646 E.04382
M204 S1000
;LAYER_CHANGE
;Z:0.35
;HEIGHT:0.15
;BEFORE_LAYER_CHANGE
G92 E0.0
;0.35


;WIPE_START
G1 F8640
G1 X121.302 Y108.681 E-.31495
G1 X120.931 Y108.275 E-.12699
G1 X120.567 Y107.76 E-.14562
G1 X120.21 Y107.043 E-.18494
G1 X120.907 Y107.74 E-.2275
;WIPE_END
G1 Z.35 F720
;AFTER_LAYER_CHANGE
;0.35
M104 S230 ; set temperature
M140 S85 ; set bed temperature
; stop printing object Rear Foot 1.stl id:0 copy 0
G1 Z.55
G1 X120.082 Y113.041 F10800
G1 Z.35 F720
G1 E1 F2100
;TYPE:Skirt/Brim
;WIDTH:0.42
G1 F2245
G1 X119.466 Y112.644 E.01772
G1 X118.086 Y111.426 E.04452
G1 X117.023 Y110.046 E.04213
G1 X116.166 Y108.325 E.0465
M73 Q5 S10
G1 X115.869 Y107.39 E.02373
G1 X115.644 Y106.25 E.0281
G1 X115.574 Y104.509 E.04214
G1 X115.824 Y102.786 E.04211
G1 X116.388 Y101.137 E.04215
G1 X117.244 Y99.621 E.04211
G1 X118.495 Y98.161 E.0465
M73 P5 R10
G1 X119.24 Y97.523 E.02372
G1 X120.117 Y96.924 E.02569
G1 X121.778 Y96.128 E.04455
G1 X123.642 Y95.659 E.04649
G1 X125.381 Y95.569 E.04211
G1 X127.108 Y95.799 E.04214
G1 X128.762 Y96.343 E.04211
G1 X129.641 Y96.781 E.02375
G1 X130.616 Y97.413 E.0281
G1 X131.914 Y98.574 E.04212
G1 X133.072 Y100.108 E.04648
G1 X133.834 Y101.675 E.04214
