; generated by PrusaSlicer 2.9.4 on 2026-03-18 at 00:34:11 UTC


;
;
; 

; external perimeters extrusion width = 0.45mm
; perimeters extrusion width = 0.45mm
; infill extrusion width = 0.45mm
; solid infill extrusion width = 0.45mm
; top infill extrusion width = 0.40mm
; first layer extrusion width = 0.42mm

M73 P0 R10
M73 Q0 S10
M201 X1000 Y1000 Z200 E5000 ; sets maximum accelerations, mm/sec^2
M203 X200 Y200 Z12 E120 ; sets maximum feedrates, mm / sec
M204 S1250 T1250 ; sets acceleration (S) and retract acceleration (R), mm/sec^2
M205 X8.00 Y8.00 Z0.40 E4.50 ; sets the jerk limits, mm/sec
M205 S0 T0 ; sets the minimum extruding and travel feed rate, mm/sec

; printing object Rear Foot.stl id:0 copy 0
; stop printing object Rear Foot.stl id:0 copy 0

;TYPE:Custom
M862.3 P "MK3S" ; printer model check
M862.1 P0.4 ; nozzle diameter check
M115 U3.14.1 ; tell printer latest fw version
G90 ; use absolute coordinates
M83 ; extruder relative mode
M104 S240 ; set extruder temp
M140 S90 ; set bed temp
M190 S90 ; wait for bed temp
M109 S240 ; wait for extruder temp
G28 W ; home all without mesh bed level
G80 X115.373 Y95.3747 W19.2539 H19.2506 ; mesh bed levelling

G1 Z0.2 F720
G1 Y-3 F1000 ; go outside print area
G92 E0
G1 X60 E9 F1000 ; intro line
G1 X100 E12.5 F1000 ; intro line

G92 E0
M221 S95

; Don't change E values below. Excessive value can damage the printer.
M907 E430 ; set extruder motor current
G21 ; set units to millimeters
G90 ; use absolute coordinates
M83 ; use relative distances for extrusion

M900 K0.08 ; Filament gcode LA 1.5
M900 K45 ; Filament gcode LA 1.0




M107
;LAYER_CHANGE
;Z:0.2
;HEIGHT:0.2
G1 E-1 F2100
G1 Z.4 F720
G1 X117.53 Y99.233 F10800
G1 Z.2 F720
M73 P1 R10
M73 Q1 S10
G1 E1 F2100
M204 S800
;TYPE:Skirt/Brim
;WIDTH:0.42
G1 F1200
G1 X118.79 Y97.891 E.05772
G1 X120.359 Y96.781 E.06026
G1 X121.948 Y96.068 E.05461
G1 X123.642 Y95.659 E.05464
G1 X125.381 Y95.569 E.0546
G1 X126.358 Y95.659 E.03076
G1 X127.399 Y95.873 E.03332
G1 X129.126 Y96.511 E.05773
G1 X130.616 Y97.413 E.05461
G1 X131.914 Y98.574 E.0546
G1 X133.072 Y100.108 E.06026
G1 X133.834 Y101.675 E.05463
G1 X134.294 Y103.355 E.05461
G1 X134.415 Y104.329 E.03077
G1 X134.426 Y105.491 E.03644
G1 X134.175 Y107.214 E.05459
G1 X133.537 Y109.027 E.06026
G1 X133.072 Y109.892 E.03079
G1 X132.47 Y110.767 E.0333
G1 X131.21 Y112.109 E.05772
G1 X129.798 Y113.129 E.05462
G1 X128.052 Y113.932 E.06026
G1 X126.358 Y114.341 E.05464
G1 X124.619 Y114.431 E.0546
G1 X123.642 Y114.341 E.03076
G1 X122.601 Y114.127 E.03332
G1 X120.874 Y113.489 E.05773
G1 X119.384 Y112.587 E.05461
G1 X118.086 Y111.426 E.0546
G1 X116.928 Y109.892 E.06026
G1 X116.166 Y108.325 E.05463
G1 X115.869 Y107.39 E.03076
G1 X115.644 Y106.25 E.03643
G1 X115.574 Y104.509 E.05463
G1 X115.825 Y102.786 E.05459
G1 X116.463 Y100.973 E.06026
G1 X116.928 Y100.108 E.03079
G1 X117.496 Y99.283 E.03141
M204 S1000
G1 X117.806 Y99.496 F10800
M204 S800
G1 F1200
G1 X117.831 Y99.46 E.00137
G1 X119.044 Y98.17 E.05552
G1 X120.538 Y97.113 E.05738
G1 X122.063 Y96.427 E.05243
G1 X123.688 Y96.034 E.05242
G1 X125.358 Y95.945 E.05244
G1 X126.312 Y96.034 E.03004
G1 X127.307 Y96.238 E.03185
G1 X128.968 Y96.853 E.05553
G1 X130.398 Y97.721 E.05245
G1 X131.643 Y98.837 E.05242
G1 X132.746 Y100.297 E.05737
G1 X133.478 Y101.8 E.05242
G1 X133.922 Y103.413 E.05246
G1 X134.049 Y104.521 E.03497
G1 X134.049 Y105.479 E.03004
G1 X133.807 Y107.134 E.05244
G1 X133.199 Y108.859 E.05735
G1 X132.746 Y109.703 E.03003
G1 X132.169 Y110.54 E.03188
G1 X130.956 Y111.83 E.05552
G1 X129.599 Y112.808 E.05245
G1 X127.937 Y113.573 E.05737
G1 X126.312 Y113.966 E.05242
G1 X124.642 Y114.055 E.05244
G1 X123.688 Y113.966 E.03004
G1 X122.693 Y113.762 E.03185
G1 X121.032 Y113.147 E.05553
G1 X119.602 Y112.279 E.05245
G1 X118.357 Y111.163 E.05242
G1 X117.254 Y109.703 E.05737
G1 X116.522 Y108.2 E.05242
M73 Q2 S10
G1 X116.231 Y107.287 E.03005
G1 X116.017 Y106.192 E.03498
G1 X115.951 Y104.521 E.05243
G1 X116.193 Y102.866 E.05244
G1 X116.801 Y101.141 E.05735
M73 P2 R10
G1 X117.254 Y100.297 E.03003
G1 X117.772 Y99.546 E.02861
M204 S1000
G1 X118.082 Y99.76 F10800
M204 S800
G1 F1200
G1 X118.131 Y99.688 E.00273
G1 X119.298 Y98.449 E.05337
G1 X120.716 Y97.445 E.05448
G1 X122.177 Y96.787 E.05024
G1 X123.734 Y96.408 E.05024
G1 X125.335 Y96.322 E.05027
G1 X126.266 Y96.408 E.02932
G1 X127.215 Y96.604 E.03038
G1 X128.811 Y97.196 E.05337
G1 X130.18 Y98.029 E.05025
G1 X131.373 Y99.099 E.05025
G1 X132.419 Y100.485 E.05444
G1 X133.123 Y101.926 E.05029
G1 X133.549 Y103.47 E.05022
G1 X133.664 Y104.398 E.02932
G1 X133.672 Y105.467 E.03352
G1 X133.439 Y107.053 E.05026
G1 X132.862 Y108.691 E.05445
G1 X132.419 Y109.515 E.02933
G1 X131.869 Y110.312 E.03036
G1 X130.702 Y111.551 E.05337
G1 X129.401 Y112.487 E.05025
G1 X127.823 Y113.213 E.05446
G1 X126.266 Y113.592 E.05024
G1 X124.665 Y113.678 E.05027
G1 X123.734 Y113.592 E.02932
G1 X122.785 Y113.396 E.03038
G1 X121.189 Y112.804 E.05337
G1 X119.82 Y111.971 E.05025
G1 X118.627 Y110.901 E.05025
G1 X117.581 Y109.515 E.05444
G1 X116.877 Y108.074 E.05029
G1 X116.594 Y107.184 E.02928
G1 X116.389 Y106.134 E.03354
G1 X116.328 Y104.533 E.05023
G1 X116.594 Y102.816 E.05448
G1 X117.138 Y101.309 E.05024
G1 X117.581 Y100.485 E.02933
G1 X118.048 Y99.809 E.02576
M204 S1000
;WIPE_START
G1 F8640
G1 X118.082 Y99.76 E-.01377
G1 X118.131 Y99.688 E-.02011
G1 X119.298 Y98.449 E-.39301
G1 X120.716 Y97.445 E-.40118
G1 X121.395 Y97.139 E-.17193
;WIPE_END
G1 Z.4 F720
; printing object Rear Foot.stl id:0 copy 0
G1 X126.268 Y101.706 F10800
G1 Z.2 F720
G1 E1 F2100
M204 S800
;TYPE:Perimeter
;WIDTH:0.419999
G1 F1200
G1 X126.817 Y101.967 E.01906
G1 X127.342 Y102.355 E.02047
G1 X127.954 Y103.062 E.02932
G1 X128.276 Y103.672 E.02163
G1 X128.427 Y104.168 E.01626
G1 X128.497 Y104.534 E.01168
G1 X128.536 Y105.035 E.01576
G1 X128.486 Y105.586 E.01735
G1 X128.315 Y106.228 E.02083
G1 X128.038 Y106.807 E.02012
G1 X127.727 Y107.237 E.01664
G1 X127.253 Y107.716 E.02113
G1 X126.621 Y108.142 E.0239
G1 X125.997 Y108.391 E.02107
G1 X125.09 Y108.531 E.02878
G1 X124.402 Y108.484 E.02162
G1 X123.783 Y108.319 E.02009
G1 X123.184 Y108.033 E.02081
G1 X122.657 Y107.645 E.02052
G1 X122.046 Y106.938 E.0293
G1 X121.724 Y106.328 E.02163
G1 X121.573 Y105.832 E.01626
G1 X121.505 Y105.489 E.01096
G1 X121.465 Y104.948 E.01701
G1 X121.514 Y104.414 E.01681
G1 X121.685 Y103.772 E.02083
G1 X121.962 Y103.193 E.02012
G1 X122.273 Y102.763 E.01664
G1 X122.747 Y102.284 E.02113
G1 X123.379 Y101.858 E.0239
G1 X124.003 Y101.609 E.02107
G1 X124.91 Y101.469 E.02878
G1 X125.598 Y101.516 E.02162
G1 X126.214 Y101.68 E.01999
M204 S1000
G1 X126.134 Y102.054 F10800
M204 S800
;TYPE:External perimeter
G1 F1200
G1 X126.649 Y102.305 E.01796
G1 X127.114 Y102.655 E.01825
G1 X127.663 Y103.303 E.02663
G1 X127.939 Y103.841 E.01896
G1 X128.104 Y104.415 E.01873
G1 X128.16 Y104.983 E.0179
G1 X128.111 Y105.552 E.01791
G1 X127.952 Y106.126 E.01868
G1 X127.701 Y106.639 E.01791
G1 X127.345 Y107.117 E.01869
G1 X126.925 Y107.505 E.01793
G1 X126.422 Y107.821 E.01863
G1 X125.863 Y108.039 E.01881
G1 X125.038 Y108.158 E.02613
G1 X124.436 Y108.109 E.01894
G1 X123.885 Y107.956 E.01793
G1 X123.351 Y107.695 E.01864
G1 X122.886 Y107.345 E.01825
G1 X122.337 Y106.697 E.02663
G1 X122.061 Y106.159 E.01896
G1 X121.896 Y105.585 E.01873
G1 X121.84 Y105.017 E.0179
G1 X121.889 Y104.448 E.01791
G1 X122.048 Y103.874 E.01868
G1 X122.299 Y103.361 E.01791
G1 X122.655 Y102.883 E.01869
G1 X123.075 Y102.495 E.01793
G1 X123.578 Y102.179 E.01863
G1 X124.137 Y101.961 E.01881
G1 X124.962 Y101.842 E.02613
G1 X125.564 Y101.891 E.01894
G1 X126.078 Y102.034 E.01673
M204 S1000
;WIPE_START
G1 F8640
G1 X126.134 Y102.054 E-.01373
G1 X126.649 Y102.305 E-.13229
G1 X127.114 Y102.655 E-.13439
G1 X127.663 Y103.303 E-.1961
G1 X127.939 Y103.841 E-.13962
G1 X128.104 Y104.415 E-.13791
G1 X128.16 Y104.983 E-.13179
G1 X128.117 Y105.475 E-.11417
;WIPE_END
G1 Z.4 F720
G1 X125.155 Y99.48 F10800
G1 Z.2 F720
G1 E1 F2100
M204 S800
;TYPE:Perimeter
G1 F1200
G1 X125.859 Y99.523 E.02211
G1 X126.517 Y99.668 E.02113
G1 X127.153 Y99.892 E.02114
M73 Q3 S10
G1 X128.07 Y100.384 E.03263
G1 X128.607 Y100.79 E.02111
G1 X129.091 Y101.259 E.02113
G1 X129.518 Y101.824 E.02221
G1 X129.809 Y102.276 E.01686
G1 X130.233 Y103.197 E.03179
G1 X130.416 Y103.856 E.02144
G1 X130.506 Y104.381 E.0167
G1 X130.54 Y105.062 E.02138
M73 P3 R10
G1 X130.502 Y105.681 E.01944
G1 X130.377 Y106.352 E.0214
G1 X130.17 Y107.003 E.02142
G1 X129.888 Y107.615 E.02113
G1 X129.318 Y108.475 E.03235
G1 X128.6 Y109.216 E.03235
G1 X128.069 Y109.616 E.02084
G1 X127.153 Y110.109 E.03262
G1 X126.518 Y110.332 E.0211
G1 X125.85 Y110.479 E.02145
G1 X125.179 Y110.541 E.02113
G1 X124.141 Y110.477 E.03261
G1 X123.483 Y110.333 E.02112
G1 X122.847 Y110.108 E.02115
G1 X121.931 Y109.616 E.0326
G1 X121.393 Y109.21 E.02113
G1 X120.909 Y108.741 E.02113
G1 X120.287 Y107.918 E.03235
G1 X119.828 Y106.994 E.03235
G1 X119.623 Y106.352 E.02113
G1 X119.499 Y105.69 E.02112
G1 X119.468 Y104.658 E.03237
G1 X119.626 Y103.639 E.03233
G1 X119.83 Y102.997 E.02112
G1 X120.112 Y102.385 E.02113
G1 X120.682 Y101.525 E.03235
G1 X121.4 Y100.785 E.03233
G1 X121.931 Y100.383 E.02088
G1 X122.847 Y99.891 E.0326
G1 X123.486 Y99.667 E.02123
G1 X124.15 Y99.521 E.02132
G1 X124.821 Y99.459 E.02113
G1 X125.095 Y99.476 E.00861
M204 S1000
G1 X125.178 Y99.104 F10800
M204 S800
;TYPE:External perimeter
G1 F1200
G1 X125.911 Y99.149 E.02303
G1 X126.621 Y99.304 E.02279
G1 X127.306 Y99.546 E.02278
G1 X128.274 Y100.065 E.03444
G1 X128.853 Y100.503 E.02276
G1 X129.374 Y101.009 E.02277
G1 X130.035 Y101.883 E.03436
G1 X130.4 Y102.617 E.0257
G1 X130.593 Y103.083 E.01581
G1 X130.786 Y103.787 E.02289
G1 X130.882 Y104.357 E.01812
G1 X130.917 Y105.085 E.02285
G1 X130.877 Y105.727 E.02017
G1 X130.743 Y106.444 E.02287
G1 X130.522 Y107.139 E.02287
G1 X130.218 Y107.799 E.02278
G1 X129.613 Y108.713 E.03437
G1 X128.851 Y109.499 E.03432
G1 X128.273 Y109.935 E.0227
G1 X127.305 Y110.455 E.03445
G1 X126.621 Y110.696 E.02274
G1 X125.908 Y110.852 E.02288
G1 X125.185 Y110.919 E.02277
G1 X124.088 Y110.851 E.03446
G1 X123.38 Y110.696 E.02272
G1 X122.694 Y110.454 E.02281
G1 X121.727 Y109.935 E.03441
G1 X121.147 Y109.497 E.02279
G1 X120.626 Y108.991 E.02277
G1 X119.965 Y108.117 E.03436
G1 X119.477 Y107.136 E.03435
G1 X119.257 Y106.444 E.02277
G1 X119.123 Y105.73 E.02278
G1 X119.09 Y104.635 E.03435
G1 X119.258 Y103.553 E.03433
G1 X119.478 Y102.861 E.02277
G1 X119.782 Y102.201 E.02278
G1 X120.387 Y101.287 E.03437
G1 X121.149 Y100.501 E.03432
G1 X121.727 Y100.065 E.0227
G1 X122.695 Y99.545 E.03445
G1 X123.383 Y99.303 E.02287
G1 X124.092 Y99.148 E.02276
G1 X124.815 Y99.081 E.02277
G1 X125.118 Y99.1 E.00952
M204 S1000
;WIPE_START
G1 F8640
G1 X125.178 Y99.104 E-.01388
G1 X125.911 Y99.149 E-.16957
G1 X126.621 Y99.304 E-.1678
G1 X127.306 Y99.546 E-.16775
G1 X128.274 Y100.065 E-.25361
G1 X128.853 Y100.503 E-.16764
G1 X129.039 Y100.683 E-.05975
;WIPE_END
G1 Z.4 F720
G1 X127.762 Y100.39 F10800
G1 Z.2 F720
G1 E1 F2100
M204 S800
;TYPE:Solid infill
;WIDTH:0.429059
G1 F1200
G1 X128.869 Y101.497 E.05027
G1 X129.439 Y102.252 E.03037
G1 X129.797 Y102.971 E.02579
G1 X127.005 Y100.179 E.12678
G1 X126.429 Y99.976 E.01961
G1 X126.208 Y99.928 E.00726
G1 X130.079 Y103.799 E.17577
G1 X130.189 Y104.456 E.02139
G1 X125.56 Y99.826 E.21021
G1 X124.978 Y99.79 E.01872
G1 X126.783 Y101.595 E.08196
G1 X126.992 Y101.697 E.00747
G1 X127.63 Y102.177 E.02563
G1 X128.231 Y102.895 E.03006
G1 X128.393 Y103.206 E.01126
G1 X130.381 Y105.193 E.09025
M204 S1000
;WIPE_START
G1 F8640
G1 X128.393 Y103.206 E-.64901
G1 X128.231 Y102.895 E-.08097
G1 X127.63 Y102.177 E-.2162
G1 X127.444 Y102.037 E-.05382
;WIPE_END
G1 Z.4 F720
G1 X128.48 Y103.839 F10800
G1 Z.2 F720
G1 E1 F2100
M204 S800
G1 F1200
G1 X130.189 Y105.548 E.0776
G1 X130.113 Y106.018 E.01529
G1 X128.835 Y104.739 E.05805
G1 X128.858 Y105 E.00841
G1 X128.833 Y105.283 E.00912
G1 X130.007 Y106.457 E.05331
G1 X129.875 Y106.872 E.01398
G1 X128.774 Y105.77 E.05002
G1 X128.654 Y106.196 E.01421
G1 X129.704 Y107.247 E.0477
G1 X129.607 Y107.459 E.00749
M73 Q4 S10
G1 X129.513 Y107.601 E.00547
G1 X128.5 Y106.589 E.04597
G1 X128.318 Y106.953 E.01307
G1 X129.295 Y107.93 E.04436
G1 X129.077 Y108.258 E.01265
G1 X128.095 Y107.276 E.04459
G1 X127.859 Y107.586 E.01251
G1 X128.811 Y108.538 E.04323
M73 P4 R10
G1 X128.542 Y108.815 E.0124
G1 X127.578 Y107.851 E.04377
G1 X127.284 Y108.103 E.01243
G1 X128.255 Y109.074 E.04409
G1 X127.944 Y109.309 E.01252
G1 X126.943 Y108.308 E.04545
G1 X126.594 Y108.505 E.01287
G1 X127.596 Y109.507 E.0455
G1 X127.24 Y109.698 E.01297
G1 X126.195 Y108.652 E.04747
G1 X125.989 Y108.728 E.00705
G1 X125.757 Y108.761 E.00752
G1 X126.866 Y109.87 E.05036
G1 X126.462 Y110.012 E.01375
G1 X125.279 Y108.828 E.05374
G1 X124.962 Y108.856 E.01022
G1 X124.739 Y108.834 E.00719
G1 X126.018 Y110.114 E.0581
G1 X125.801 Y110.161 E.00713
G1 X125.543 Y110.185 E.00832
G1 X123.852 Y108.494 E.07678
M204 S1000
;WIPE_START
G1 F8640
G1 X125.543 Y110.185 E-.55219
G1 X125.801 Y110.161 E-.05983
G1 X126.018 Y110.114 E-.05127
G1 X124.987 Y109.083 E-.33671
;WIPE_END
G1 Z.4 F720
G1 X126.148 Y101.506 F10800
G1 Z.2 F720
G1 E1 F2100
M204 S800
G1 F1200
G1 X124.46 Y99.818 E.07665
G1 X124.198 Y99.839 E.00844
G1 X123.982 Y99.886 E.0071
G1 X125.27 Y101.174 E.05848
G1 X124.911 Y101.145 E.01156
G1 X124.722 Y101.172 E.00613
G1 X123.538 Y99.988 E.05376
G1 X123.134 Y100.13 E.01375
G1 X124.243 Y101.239 E.05036
G1 X124.011 Y101.272 E.00752
G1 X123.805 Y101.348 E.00705
G1 X122.76 Y100.302 E.04747
G1 X122.404 Y100.493 E.01297
G1 X123.406 Y101.495 E.0455
G1 X123.057 Y101.692 E.01287
G1 X122.056 Y100.691 E.04545
G1 X121.745 Y100.926 E.01252
G1 X122.716 Y101.897 E.04409
G1 X122.422 Y102.149 E.01243
G1 X121.458 Y101.185 E.04377
G1 X121.189 Y101.462 E.0124
G1 X122.141 Y102.414 E.04323
G1 X121.905 Y102.724 E.01251
G1 X120.923 Y101.742 E.04459
G1 X120.705 Y102.07 E.01265
G1 X121.682 Y103.047 E.04436
G1 X121.5 Y103.411 E.01307
G1 X120.487 Y102.399 E.04597
G1 X120.393 Y102.541 E.00547
G1 X120.295 Y102.753 E.0075
G1 X121.347 Y103.804 E.04775
G1 X121.228 Y104.231 E.01423
G1 X120.125 Y103.128 E.05008
G1 X119.993 Y103.543 E.01398
G1 X121.168 Y104.718 E.05335
G1 X121.142 Y105.024 E.00986
G1 X121.164 Y105.26 E.00761
G1 X119.896 Y103.991 E.0576
G1 X119.822 Y104.464 E.01537
G1 X121.52 Y106.162 E.0771
M204 S1000
;WIPE_START
G1 F8640
G1 X119.822 Y104.464 E-.55447
G1 X119.896 Y103.991 E-.11055
G1 X120.922 Y105.017 E-.33498
;WIPE_END
G1 Z.4 F720
G1 X119.623 Y104.811 F10800
G1 Z.2 F720
G1 E1 F2100
M204 S800
G1 F1200
G1 X121.607 Y106.795 E.09009
G1 X121.769 Y107.105 E.01123
G1 X122.37 Y107.823 E.03006
G1 X123.008 Y108.303 E.02563
G1 X123.217 Y108.405 E.00747
G1 X125.022 Y110.21 E.08196
G1 X124.44 Y110.174 E.01872
G1 X119.816 Y105.55 E.20996
G1 X119.819 Y105.655 E.00337
G1 X119.921 Y106.201 E.01783
G1 X123.792 Y110.072 E.17577
G1 X123.571 Y110.024 E.00726
G1 X122.995 Y109.821 E.01961
G1 X120.203 Y107.029 E.12678
G1 X120.561 Y107.748 E.02579
G1 X121.131 Y108.503 E.03037
G1 X122.238 Y109.61 E.05027
M204 S1000
;LAYER_CHANGE
;Z:0.35
;HEIGHT:0.15
;BEFORE_LAYER_CHANGE
G92 E0.0
;0.35


;WIPE_START
G1 F8640
G1 X121.131 Y108.503 E-.36149
G1 X120.561 Y107.748 E-.21844
G1 X120.203 Y107.029 E-.18546
G1 X120.921 Y107.747 E-.23461
;WIPE_END
G1 Z.35 F720
;AFTER_LAYER_CHANGE
;0.35
M104 S230 ; set temperature
M140 S85 ; set bed temperature
; stop printing object Rear Foot.stl id:0 copy 0
G1 Z.55
G1 X120.152 Y113.052 F10800
G1 Z.35 F720
G1 E1 F2100
;TYPE:Skirt/Brim
;WIDTH:0.42
G1 F2248
G1 X119.384 Y112.587 E.02171
G1 X118.086 Y111.426 E.04212
G1 X116.928 Y109.892 E.04648
G1 X116.166 Y108.325 E.04214
M73 Q5 S10
G1 X115.869 Y107.39 E.02373
G1 X115.644 Y106.25 E.0281
G1 X115.574 Y104.509 E.04214
G1 X115.825 Y102.786 E.04211
G1 X116.463 Y100.973 E.04648
G1 X116.928 Y100.108 E.02375
G1 X117.53 Y99.233 E.02569
M73 P5 R10
G1 X118.79 Y97.891 E.04452
G1 X120.359 Y96.781 E.04648
G1 X121.948 Y96.068 E.04212
G1 X123.642 Y95.659 E.04215
G1 X125.381 Y95.569 E.04211
G1 X126.358 Y95.659 E.02373
G1 X127.399 Y95.873 E.0257
G1 X129.126 Y96.511 E.04453
G1 X130.616 Y97.413 E.04212
