; generated by PrusaSlicer 2.9.4 on 2026-03-20 at 00:20:52 UTC


;
;
; 

; external perimeters extrusion width = 0.45mm
; perimeters extrusion width = 0.45mm
; infill extrusion width = 0.45mm
; solid infill extrusion width = 0.45mm
; top infill extrusion width = 0.40mm
; first layer extrusion width = 0.50mm

M73 P0 R11
M73 Q0 S11
M201 X1000 Y1000 Z200 E5000 ; sets maximum accelerations, mm/sec^2
M203 X200 Y200 Z12 E120 ; sets maximum feedrates, mm / sec
M204 S1250 T1250 ; sets acceleration (S) and retract acceleration (R), mm/sec^2
M205 X8.00 Y8.00 Z0.40 E4.50 ; sets the jerk limits, mm/sec
M205 S0 T0 ; sets the minimum extruding and travel feed rate, mm/sec

; printing object Rear Foot 3.stl id:0 copy 0
; stop printing object Rear Foot 3.stl id:0 copy 0

;TYPE:Custom
M862.3 P "MK3S" ; printer model check
M862.1 P0.4 ; nozzle diameter check
M115 U3.14.1 ; tell printer latest fw version
G90 ; use absolute coordinates
M83 ; extruder relative mode
M104 S240 ; set extruder temp
M140 S90 ; set bed temp
M190 S90 ; wait for bed temp
M109 S240 ; wait for extruder temp
G28 W ; home all without mesh bed level
G80 X115.59 Y95.5917 W18.8199 H18.8165 ; mesh bed levelling

G1 Z0.2 F720
G1 Y-3 F1000 ; go outside print area
G92 E0
G1 X60 E9 F1000 ; intro line
G1 X100 E12.5 F1000 ; intro line

G92 E0
M221 S95

; Don't change E values below. Excessive value can damage the printer.
M907 E430 ; set extruder motor current
G21 ; set units to millimeters
G90 ; use absolute coordinates
M83 ; use relative distances for extrusion

M900 K0.08 ; Filament gcode LA 1.5
M900 K45 ; Filament gcode LA 1.0




M107
;LAYER_CHANGE
;Z:0.2
;HEIGHT:0.2
G1 E-1 F2100
G1 Z.4 F720
G1 X117.554 Y99.627 F10800
G1 Z.2 F720
M73 P1 R11
M73 Q1 S11
G1 E1 F2100
M204 S800
;TYPE:Skirt/Brim
;WIDTH:0.5
G1 F900
G1 X118.668 Y98.351 E.06438
G1 X119.997 Y97.301 E.06437
G1 X120.981 Y96.744 E.04297
G1 X121.87 Y96.368 E.03669
G1 X123.51 Y95.94 E.06442
G1 X125.365 Y95.825 E.07064
G1 X127.045 Y96.049 E.06442
G1 X128.129 Y96.368 E.04295
G1 X129.019 Y96.744 E.03672
G1 X130.467 Y97.623 E.06438
G1 X131.73 Y98.753 E.06441
G1 X132.763 Y100.096 E.0644
G1 X133.591 Y101.761 E.07067
G1 X134.04 Y103.394 E.06437
G1 X134.159 Y104.352 E.03669
G1 X134.169 Y105.483 E.04299
G1 X133.924 Y107.159 E.06438
G1 X133.307 Y108.912 E.07063
G1 X132.446 Y110.373 E.06445
G1 X131.332 Y111.649 E.06438
G1 X130.467 Y112.377 E.04297
G1 X129.662 Y112.91 E.03669
G1 X128.13 Y113.632 E.06437
G1 X126.49 Y114.06 E.06442
G1 X124.635 Y114.175 E.07064
G1 X122.955 Y113.951 E.06442
G1 X121.87 Y113.632 E.04298
G1 X120.982 Y113.256 E.03665
G1 X119.533 Y112.377 E.06441
G1 X118.27 Y111.247 E.06441
G1 X117.237 Y109.904 E.0644
G1 X116.409 Y108.239 E.07067
G1 X115.96 Y106.606 E.06437
G1 X115.841 Y105.648 E.03669
G1 X115.831 Y104.517 E.04299
G1 X116.076 Y102.841 E.06438
G1 X116.693 Y101.088 E.07063
G1 X117.524 Y99.679 E.06217
M204 S1000
G1 X117.915 Y99.909 F10800
M204 S800
G1 F900
G1 X117.919 Y99.903 E.00027
G1 X118.976 Y98.689 E.06118
G1 X120.238 Y97.689 E.0612
G1 X121.173 Y97.159 E.04085
G1 X122.036 Y96.794 E.03561
G1 X123.594 Y96.389 E.06118
G1 X125.337 Y96.282 E.06637
G1 X126.934 Y96.492 E.06122
G1 X127.964 Y96.794 E.04079
G1 X128.827 Y97.159 E.03561
G1 X130.203 Y97.996 E.06121
G1 X131.401 Y99.072 E.0612
G1 X132.382 Y100.349 E.0612
G1 X133.16 Y101.912 E.06636
G1 X133.589 Y103.464 E.0612
G1 X133.704 Y104.394 E.03562
G1 X133.712 Y105.469 E.04086
G1 X133.478 Y107.062 E.06119
G1 X132.897 Y108.709 E.06638
G1 X132.081 Y110.097 E.06119
G1 X131.024 Y111.311 E.06118
G1 X130.203 Y112.004 E.04083
G1 X129.422 Y112.521 E.0356
G1 X127.964 Y113.206 E.06122
G1 X126.406 Y113.611 E.06118
G1 X124.663 Y113.718 E.06637
M73 Q2 S11
G1 X123.066 Y113.508 E.06122
G1 X122.165 Y113.252 E.0356
G1 X121.173 Y112.841 E.04081
M73 P2 R11
G1 X119.797 Y112.004 E.06121
G1 X118.599 Y110.928 E.0612
G1 X117.618 Y109.651 E.0612
G1 X116.84 Y108.088 E.06636
G1 X116.411 Y106.536 E.0612
G1 X116.296 Y105.606 E.03562
G1 X116.288 Y104.531 E.04086
G1 X116.522 Y102.938 E.06119
G1 X117.103 Y101.291 E.06638
G1 X117.885 Y99.961 E.05864
M204 S1000
;WIPE_START
G1 F8640
G1 X117.915 Y99.909 E-.01386
G1 X117.919 Y99.903 E-.00167
G1 X118.976 Y98.689 E-.37168
G1 X120.238 Y97.689 E-.37179
G1 X121.146 Y97.175 E-.241
;WIPE_END
G1 Z.4 F720
; printing object Rear Foot 3.stl id:0 copy 0
G1 X125.032 Y108.496 F10800
G1 Z.2 F720
G1 E1 F2100
M204 S800
;TYPE:Perimeter
;WIDTH:0.499999
G1 F900
G1 X124.419 Y108.456 E.02335
G1 X123.801 Y108.293 E.02429
G1 X123.209 Y108.012 E.02491
G1 X122.703 Y107.616 E.02442
G1 X122.369 Y107.316 E.01706
G1 X122.06 Y106.908 E.01945
G1 X121.796 Y106.407 E.02152
G1 X121.565 Y105.697 E.02838
G1 X121.496 Y105.063 E.02424
G1 X121.542 Y104.427 E.02424
G1 X121.71 Y103.793 E.02493
G1 X121.983 Y103.216 E.02426
G1 X122.296 Y102.781 E.02037
G1 X122.523 Y102.528 E.01292
G1 X122.933 Y102.169 E.02071
G1 X123.383 Y101.89 E.02012
G1 X123.995 Y101.643 E.02508
G1 X124.897 Y101.5 E.03471
G1 X125.581 Y101.544 E.02605
G1 X126.199 Y101.707 E.02429
G1 X126.791 Y101.988 E.02491
G1 X127.277 Y102.367 E.02342
G1 X127.631 Y102.684 E.01806
G1 X127.94 Y103.092 E.01945
G1 X128.204 Y103.593 E.02152
G1 X128.435 Y104.303 E.02838
G1 X128.493 Y104.815 E.01958
G1 X128.493 Y105.185 E.01406
G1 X128.435 Y105.697 E.01958
G1 X128.29 Y106.207 E.02015
G1 X128.016 Y106.784 E.02428
G1 X127.632 Y107.315 E.02491
G1 X127.251 Y107.678 E.02
G1 X126.617 Y108.11 E.02916
G1 X126.005 Y108.357 E.02508
G1 X125.103 Y108.5 E.03471
G1 X125.092 Y108.5 E.00042
M204 S1000
G1 X125.013 Y108.045 F10800
M204 S800
;TYPE:External perimeter
G1 F900
G1 X124.46 Y108.001 E.02108
G1 X123.926 Y107.853 E.02106
G1 X123.41 Y107.602 E.02181
G1 X122.734 Y107.04 E.03341
G1 X122.425 Y106.632 E.01945
G1 X122.165 Y106.123 E.02172
G1 X122.005 Y105.573 E.02177
G1 X121.951 Y105.021 E.02108
G1 X121.998 Y104.469 E.02106
G1 X122.149 Y103.918 E.02171
G1 X122.393 Y103.419 E.02111
G1 X122.733 Y102.96 E.02171
G1 X123.141 Y102.583 E.02111
G1 X123.624 Y102.279 E.02169
G1 X124.158 Y102.07 E.02179
G1 X124.96 Y101.952 E.03081
G1 X125.54 Y101.999 E.02212
G1 X126.074 Y102.147 E.02106
G1 X126.588 Y102.397 E.02172
G1 X127.266 Y102.96 E.03349
G1 X127.575 Y103.368 E.01945
G1 X127.835 Y103.877 E.02172
G1 X127.995 Y104.427 E.02177
G1 X128.049 Y104.979 E.02108
G1 X128.002 Y105.531 E.02106
G1 X127.851 Y106.082 E.02171
G1 X127.607 Y106.581 E.02111
G1 X127.267 Y107.04 E.02171
G1 X126.859 Y107.417 E.02111
G1 X126.376 Y107.721 E.02169
G1 X125.842 Y107.93 E.02179
G1 X125.072 Y108.043 E.02958
M204 S1000
;WIPE_START
G1 F8640
G1 X125.013 Y108.045 E-.01363
G1 X124.46 Y108.001 E-.12809
G1 X123.926 Y107.853 E-.12795
G1 X123.41 Y107.602 E-.13249
G1 X122.734 Y107.04 E-.20299
G1 X122.425 Y106.632 E-.11818
G1 X122.165 Y106.123 E-.13197
G1 X122.005 Y105.573 E-.13226
G1 X122 Y105.519 E-.01244
;WIPE_END
G1 Z.4 F720
G1 X125 Y110.559 F10800
G1 Z.2 F720
G1 E1 F2100
M204 S800
;TYPE:Perimeter
G1 F900
G1 X124.145 Y110.506 E.03256
G1 X123.148 Y110.255 E.03907
G1 X122.214 Y109.826 E.03906
G1 X121.366 Y109.226 E.03948
G1 X120.881 Y108.755 E.02569
G1 X120.457 Y108.228 E.02571
G1 X119.932 Y107.32 E.03986
G1 X119.692 Y106.699 E.0253
G1 X119.47 Y105.684 E.03949
G1 X119.438 Y104.646 E.03947
G1 X119.52 Y103.986 E.02528
G1 X119.804 Y102.987 E.03947
G1 X120.267 Y102.057 E.03948
G1 X120.657 Y101.506 E.02566
G1 X121.113 Y101.006 E.02572
G1 X121.922 Y100.355 E.03947
G1 X122.828 Y99.868 E.03909
G1 X123.808 Y99.557 E.03908
G1 X124.829 Y99.43 E.0391
G1 X125.865 Y99.494 E.03945
G1 X126.515 Y99.637 E.02529
G1 X127.494 Y100.016 E.0399
G1 X128.079 Y100.354 E.02568
G1 X128.626 Y100.767 E.02605
G1 X129.119 Y101.245 E.0261
G1 X129.543 Y101.771 E.02568
G1 X130.128 Y102.837 E.04621
G1 X130.327 Y103.372 E.02169
G1 X130.508 Y104.206 E.03244
G1 X130.563 Y104.721 E.01968
G1 X130.563 Y105.343 E.02364
M73 Q3 S11
G1 X130.479 Y106.025 E.02612
G1 X130.312 Y106.689 E.02602
G1 X130.064 Y107.33 E.02612
G1 X129.744 Y107.925 E.02568
G1 X129.112 Y108.763 E.03989
G1 X128.627 Y109.233 E.02567
G1 X128.087 Y109.64 E.0257
M73 P3 R11
G1 X127.172 Y110.132 E.03948
G1 X126.192 Y110.443 E.03908
G1 X125.171 Y110.57 E.0391
G1 X125.06 Y110.563 E.00423
M204 S1000
G1 X125 Y111.017 F10800
M204 S800
;TYPE:External perimeter
G1 F900
G1 X124.074 Y110.96 E.03526
G1 X122.995 Y110.688 E.04229
G1 X121.984 Y110.223 E.04229
G1 X121.073 Y109.578 E.04242
G1 X120.542 Y109.064 E.02809
G1 X120.079 Y108.488 E.02809
G1 X119.519 Y107.518 E.04257
G1 X119.253 Y106.832 E.02796
G1 X119.014 Y105.741 E.04245
M73 P3 R10
G1 X118.98 Y104.625 E.04243
G1 X119.07 Y103.895 E.02795
G1 X119.376 Y102.821 E.04244
G1 X119.874 Y101.822 E.04242
G1 X120.301 Y101.218 E.02811
G1 X120.799 Y100.672 E.02809
G1 X121.669 Y99.972 E.04244
G1 X122.649 Y99.446 E.04227
G1 X123.71 Y99.108 E.04232
G1 X124.815 Y98.971 E.04232
G1 X125.929 Y99.04 E.04242
G1 X126.648 Y99.198 E.02798
G1 X127.692 Y99.602 E.04255
G1 X128.332 Y99.972 E.0281
G1 X128.924 Y100.419 E.02819
G1 X129.458 Y100.936 E.02825
G1 X129.921 Y101.512 E.02809
G1 X130.203 Y102 E.02142
G1 X130.555 Y102.672 E.02883
G1 X130.771 Y103.261 E.02384
G1 X130.961 Y104.15 E.03455
G1 X131.02 Y104.721 E.02182
G1 X131.02 Y105.371 E.0247
G1 X130.929 Y106.109 E.02826
G1 X130.748 Y106.828 E.02818
G1 X130.48 Y107.521 E.02824
G1 X130.13 Y108.173 E.02812
G1 X129.455 Y109.066 E.04254
G1 X128.924 Y109.581 E.02811
G1 X128.334 Y110.026 E.02809
G1 X127.351 Y110.554 E.04241
G1 X126.29 Y110.892 E.04232
G1 X125.185 Y111.029 E.04232
G1 X125.06 Y111.021 E.00476
M204 S1000
;WIPE_START
G1 F8640
G1 X125 Y111.017 E-.01388
G1 X124.074 Y110.96 E-.21422
M73 Q3 S10
G1 X122.995 Y110.688 E-.25694
G1 X121.984 Y110.223 E-.25695
G1 X121.073 Y109.578 E-.25774
G1 X121.072 Y109.577 E-.00027
;WIPE_END
G1 Z.4 F720
G1 X127.608 Y100.293 F10800
G1 Z.2 F720
G1 E1 F2100
M204 S800
;TYPE:Solid infill
;WIDTH:0.513168
G1 F900
G1 X128.869 Y101.554 E.06973
G1 X129.221 Y101.992 E.02197
G1 X129.716 Y102.849 E.0387
G1 X129.854 Y103.203 E.01486
G1 X126.823 Y100.172 E.16761
G1 X126.403 Y100.01 E.0176
G1 X125.881 Y99.895 E.0209
G1 X130.106 Y104.12 E.23363
G1 X130.175 Y104.681 E.0221
G1 X130.175 Y104.855 E.0068
G1 X125.16 Y99.84 E.27732
G1 X124.841 Y99.82 E.0125
G1 X124.516 Y99.861 E.01281
G1 X125.866 Y101.211 E.07465
G1 X125.744 Y101.175 E.00497
G1 X125.113 Y101.123 E.02476
G1 X123.924 Y99.934 E.06575
G1 X123.892 Y99.938 E.00126
G1 X123.415 Y100.089 E.01956
G1 X124.495 Y101.17 E.05975
G1 X123.918 Y101.258 E.02282
G1 X122.92 Y100.26 E.05519
G1 X122.487 Y100.492 E.01921
G1 X123.436 Y101.441 E.05248
G1 X123.184 Y101.557 E.01085
G1 X123.002 Y101.672 E.00842
G1 X122.067 Y100.737 E.0517
G1 X121.698 Y101.033 E.0185
G1 X122.6 Y101.935 E.04988
G1 X122.253 Y102.253 E.0184
G1 X121.337 Y101.337 E.05065
G1 X121.02 Y101.685 E.01841
G1 X121.944 Y102.609 E.05109
G1 X121.665 Y102.995 E.01862
G1 X120.736 Y102.066 E.05137
G1 X120.601 Y102.257 E.00915
G1 X120.489 Y102.484 E.0099
G1 X121.444 Y103.439 E.05281
G1 X121.367 Y103.592 E.0067
G1 X121.271 Y103.931 E.01378
G1 X120.267 Y102.928 E.05549
G1 X120.168 Y103.128 E.00873
G1 X120.087 Y103.412 E.01155
G1 X121.152 Y104.477 E.05889
M73 Q4 S10
G1 X121.111 Y105.101 E.02445
G1 X119.94 Y103.93 E.06475
G1 X119.902 Y104.064 E.00545
G1 X119.847 Y104.502 E.01726
G1 X121.512 Y106.167 E.09207
M204 S1000
;WIPE_START
G1 F8640
M73 P4 R10
G1 X119.847 Y104.502 E-.5437
G1 X119.902 Y104.064 E-.10193
G1 X119.94 Y103.93 E-.03216
G1 X120.927 Y104.917 E-.32221
;WIPE_END
G1 Z.4 F720
G1 X128.487 Y103.832 F10800
G1 Z.2 F720
G1 E1 F2100
M204 S800
G1 F900
G1 X130.153 Y105.498 E.09213
G1 X130.066 Y106.075 E.02282
G1 X128.887 Y104.897 E.06517
G1 X128.896 Y105 E.00404
G1 X128.848 Y105.523 E.02054
G1 X129.928 Y106.603 E.05972
G1 X129.743 Y107.083 E.02011
G1 X128.729 Y106.069 E.05607
G1 X128.633 Y106.408 E.01378
G1 X128.557 Y106.562 E.00671
G1 X129.519 Y107.524 E.0532
G1 X129.416 Y107.715 E.00849
G1 X129.256 Y107.926 E.01035
G1 X128.337 Y107.007 E.05082
G1 X128.055 Y107.39 E.0186
G1 X128.97 Y108.305 E.0506
G1 X128.82 Y108.504 E.00974
G1 X128.66 Y108.66 E.00874
G1 X127.747 Y107.747 E.05049
G1 X127.399 Y108.064 E.01841
G1 X128.316 Y108.981 E.05071
G1 X127.937 Y109.267 E.01857
G1 X126.998 Y108.329 E.0519
G1 X126.816 Y108.444 E.00842
G1 X126.564 Y108.559 E.01083
G1 X127.513 Y109.508 E.05248
G1 X127.08 Y109.74 E.01921
G1 X126.082 Y108.742 E.05519
G1 X125.505 Y108.83 E.02282
G1 X126.585 Y109.911 E.05975
G1 X126.108 Y110.062 E.01956
G1 X126.076 Y110.066 E.00126
G1 X124.886 Y108.876 E.0658
G1 X124.228 Y108.818 E.02583
G1 X124.135 Y108.79 E.0038
G1 X125.484 Y110.139 E.0746
G1 X125.159 Y110.18 E.01281
G1 X124.84 Y110.16 E.0125
G1 X119.842 Y105.163 E.27635
G1 X119.857 Y105.637 E.01854
G1 X119.915 Y105.9 E.01053
G1 X124.112 Y110.097 E.23208
G1 X123.277 Y109.887 E.03367
G1 X123.203 Y109.853 E.00318
G1 X120.146 Y106.797 E.16902
G1 X120.284 Y107.152 E.01489
G1 X120.778 Y108.008 E.03864
G1 X121.131 Y108.447 E.02203
G1 X122.39 Y109.706 E.06962
M204 S1000
;LAYER_CHANGE
;Z:0.35
;HEIGHT:0.15
;BEFORE_LAYER_CHANGE
G92 E0.0
;0.35


;WIPE_START
G1 F8640
G1 X121.131 Y108.447 E-.41112
G1 X120.778 Y108.008 E-.13007
G1 X120.284 Y107.152 E-.22821
G1 X120.146 Y106.797 E-.08795
G1 X120.583 Y107.234 E-.14265
;WIPE_END
G1 Z.35 F720
;AFTER_LAYER_CHANGE
;0.35
M104 S230 ; set temperature
M140 S85 ; set bed temperature
; stop printing object Rear Foot 3.stl id:0 copy 0
G1 Z.55
G1 X120.437 Y112.925 F10800
G1 Z.35 F720
G1 E1 F2100
;TYPE:Skirt/Brim
;WIDTH:0.5
G1 F1820
G1 X119.533 Y112.377 E.03084
G1 X118.27 Y111.247 E.04944
G1 X117.237 Y109.904 E.04943
G1 X116.409 Y108.239 E.05425
G1 X115.96 Y106.606 E.04941
G1 X115.841 Y105.648 E.02816
G1 X115.831 Y104.517 E.033
G1 X116.076 Y102.841 E.04942
G1 X116.693 Y101.088 E.05422
G1 X117.554 Y99.627 E.04947
G1 X118.668 Y98.351 E.04942
G1 X119.997 Y97.301 E.04941
G1 X120.981 Y96.744 E.03299
G1 X121.87 Y96.368 E.02816
G1 X123.51 Y95.94 E.04945
G1 X125.365 Y95.825 E.05422
G1 X127.045 Y96.049 E.04945
G1 X128.129 Y96.368 E.03297
G1 X129.019 Y96.744 E.02819
G1 X130.467 Y97.623 E.04942
G1 X131.73 Y98.753 E.04944
G1 X132.763 Y100.096 E.04943
G1 X133.591 Y101.761 E.05425
G1 X134.04 Y103.394 E.04941
G1 X134.159 Y104.352 E.02816
G1 X134.169 Y105.483 E.033
G1 X133.924 Y107.159 E.04942
G1 X133.307 Y108.912 E.05422
G1 X132.446 Y110.373 E.04947
G1 X131.332 Y111.649 E.04942
G1 X130.467 Y112.377 E.03298
G1 X129.662 Y112.91 E.02817
G1 X128.13 Y113.632 E.04941
G1 X126.49 Y114.06 E.04945
G1 X124.635 Y114.175 E.05422
G1 X122.955 Y113.951 E.04945
G1 X121.87 Y113.632 E.03299
M73 Q5 S10
G1 X120.982 Y113.256 E.02813
G1 X120.488 Y112.956 E.01686
G1 X120.724 Y112.568 F10800
G1 F1820
G1 X119.797 Y112.004 E.03166
G1 X118.599 Y110.928 E.04698
G1 X117.618 Y109.651 E.04698
G1 X116.84 Y108.088 E.05094
M73 P5 R10
G1 X116.411 Y106.536 E.04698
G1 X116.296 Y105.606 E.02734
G1 X116.288 Y104.531 E.03136
G1 X116.522 Y102.938 E.04697
G1 X117.103 Y101.291 E.05095
G1 X117.919 Y99.903 E.04697
G1 X118.976 Y98.689 E.04696
G1 X120.238 Y97.689 E.04697
G1 X121.173 Y97.159 E.03136
G1 X122.036 Y96.794 E.02734
G1 X123.594 Y96.389 E.04696
G1 X125.337 Y96.282 E.05095
G1 X126.934 Y96.492 E.04699
G1 X127.964 Y96.794 E.03131
G1 X128.827 Y97.159 E.02734
G1 X130.203 Y97.996 E.04699
G1 X131.401 Y99.072 E.04698
G1 X132.382 Y100.349 E.04698
G1 X133.16 Y101.912 E.05094
G1 X133.589 Y103.464 E.04698
G1 X133.704 Y104.394 E.02734
G1 X133.712 Y105.469 E.03136
G1 X133.478 Y107.062 E.04697
G1 X132.897 Y108.709 E.05095
G1 X132.081 Y110.097 E.04697
G1 X131.024 Y111.311 E.04696
G1 X130.203 Y112.004 E.03134
G1 X129.422 Y112.521 E.02732
G1 X127.964 Y113.206 E.047
G1 X126.406 Y113.611 E.04696
G1 X124.663 Y113.718 E.05095
G1 X123.066 Y113.508 E.04699
G1 X122.165 Y113.252 E.02733
G1 X121.173 Y112.841 E.03133
G1 X120.776 Y112.599 E.01356
;WIPE_START
G1 F8640
G1 X120.724 Y112.568 E-.01398
G1 X119.797 Y112.004 E-.25055
G1 X118.599 Y110.928 E-.37182
G1 X117.64 Y109.679 E-.36365
;WIPE_END
G1 Z.55 F720
; printing object Rear Foot 3.stl id:0 copy 0
G1 X125 Y108.189 F10800
G1 Z.35 F720
G1 E1 F2100
M204 S800
;TYPE:Perimeter
;WIDTH:0.449999
G1 F1500
G1 X124.882 Y108.188 E.00307
G1 X124.37 Y108.155 E.01337
G1 X123.883 Y108.017 E.01319
G1 X123.356 Y107.763 E.01524
