; generated by PrusaSlicer 2.9.4 on 2026-03-20 at 00:20:20 UTC


;
;
; 

; external perimeters extrusion width = 0.45mm
; perimeters extrusion width = 0.45mm
; infill extrusion width = 0.45mm
; solid infill extrusion width = 0.45mm
; top infill extrusion width = 0.40mm
; first layer extrusion width = 0.50mm

M73 P0 R11
M73 Q0 S11
M201 X1000 Y1000 Z200 E5000 ; sets maximum accelerations, mm/sec^2
M203 X200 Y200 Z12 E120 ; sets maximum feedrates, mm / sec
M204 S1250 T1250 ; sets acceleration (S) and retract acceleration (R), mm/sec^2
M205 X8.00 Y8.00 Z0.40 E4.50 ; sets the jerk limits, mm/sec
M205 S0 T0 ; sets the minimum extruding and travel feed rate, mm/sec

; printing object Rear Foot 2.stl id:0 copy 0
; stop printing object Rear Foot 2.stl id:0 copy 0

;TYPE:Custom
M862.3 P "MK3S" ; printer model check
M862.1 P0.4 ; nozzle diameter check
M115 U3.14.1 ; tell printer latest fw version
G90 ; use absolute coordinates
M83 ; extruder relative mode
M104 S240 ; set extruder temp
M140 S90 ; set bed temp
M190 S90 ; wait for bed temp
M109 S240 ; wait for extruder temp
G28 W ; home all without mesh bed level
G80 X115.59 Y95.5918 W18.8199 H18.8165 ; mesh bed levelling

G1 Z0.2 F720
G1 Y-3 F1000 ; go outside print area
G92 E0
G1 X60 E9 F1000 ; intro line
G1 X100 E12.5 F1000 ; intro line

G92 E0
M221 S95

; Don't change E values below. Excessive value can damage the printer.
M907 E430 ; set extruder motor current
G21 ; set units to millimeters
G90 ; use absolute coordinates
M83 ; use relative distances for extrusion

M900 K0.08 ; Filament gcode LA 1.5
M900 K45 ; Filament gcode LA 1.0




M107
;LAYER_CHANGE
;Z:0.2
;HEIGHT:0.2
G1 E-1 F2100
G1 Z.4 F720
G1 X117.554 Y99.628 F10800
G1 Z.2 F720
M73 P1 R11
M73 Q1 S11
G1 E1 F2100
M204 S800
;TYPE:Skirt/Brim
;WIDTH:0.5
G1 F900
G1 X118.668 Y98.351 E.06441
G1 X119.401 Y97.723 E.03668
G1 X120.337 Y97.09 E.04295
G1 X121.87 Y96.368 E.0644
G1 X123.51 Y95.94 E.06442
G1 X125.365 Y95.825 E.07064
G1 X126.327 Y95.914 E.03672
G1 X127.336 Y96.122 E.03915
G1 X129.018 Y96.744 E.06816
G1 X130.467 Y97.623 E.06441
G1 X131.73 Y98.753 E.06441
G1 X132.85 Y100.237 E.07066
G1 X133.591 Y101.761 E.06441
G1 X134.04 Y103.394 E.06437
G1 X134.159 Y104.352 E.03669
G1 X134.169 Y105.483 E.04299
G1 X133.924 Y107.159 E.06438
G1 X133.307 Y108.912 E.07063
G1 X132.446 Y110.372 E.06442
G1 X131.332 Y111.649 E.06441
G1 X130.599 Y112.277 E.03668
G1 X129.663 Y112.91 E.04295
G1 X128.13 Y113.632 E.0644
G1 X126.49 Y114.06 E.06442
G1 X124.635 Y114.175 E.07064
G1 X123.673 Y114.086 E.03672
G1 X122.664 Y113.878 E.03915
G1 X120.982 Y113.256 E.06816
G1 X119.533 Y112.377 E.06441
G1 X118.27 Y111.247 E.06441
G1 X117.15 Y109.763 E.07066
G1 X116.409 Y108.239 E.06441
G1 X115.96 Y106.606 E.06437
G1 X115.831 Y105.483 E.04296
G1 X115.831 Y104.517 E.03671
G1 X116.076 Y102.841 E.06438
G1 X116.693 Y101.088 E.07063
G1 X117.523 Y99.679 E.06215
M204 S1000
G1 X117.915 Y99.909 F10800
M204 S800
G1 F900
G1 X117.919 Y99.903 E.00027
G1 X118.976 Y98.689 E.06118
G1 X119.688 Y98.079 E.03563
G1 X120.578 Y97.479 E.04079
G1 X122.036 Y96.794 E.06122
G1 X123.594 Y96.389 E.06118
G1 X125.337 Y96.282 E.06637
G1 X126.27 Y96.368 E.03561
G1 X127.225 Y96.565 E.03706
G1 X128.827 Y97.159 E.06494
G1 X130.203 Y97.996 E.06121
G1 X131.401 Y99.072 E.0612
G1 X132.454 Y100.465 E.06637
G1 X133.16 Y101.912 E.06119
G1 X133.589 Y103.464 E.0612
G1 X133.704 Y104.394 E.03562
G1 X133.712 Y105.469 E.04086
G1 X133.478 Y107.061 E.06116
G1 X132.897 Y108.709 E.06641
G1 X132.081 Y110.097 E.06119
G1 X131.024 Y111.311 E.06118
G1 X130.312 Y111.921 E.03563
G1 X129.422 Y112.521 E.04079
G1 X127.964 Y113.206 E.06122
G1 X126.406 Y113.611 E.06118
G1 X124.663 Y113.718 E.06637
M73 Q2 S11
G1 X123.73 Y113.632 E.03561
G1 X122.775 Y113.435 E.03706
G1 X121.173 Y112.841 E.06494
G1 X119.797 Y112.004 E.06121
M73 P2 R11
G1 X118.599 Y110.928 E.0612
G1 X117.546 Y109.535 E.06637
G1 X116.84 Y108.088 E.06119
G1 X116.411 Y106.536 E.0612
G1 X116.288 Y105.468 E.04086
G1 X116.288 Y104.531 E.03561
G1 X116.522 Y102.938 E.06119
G1 X117.102 Y101.291 E.06636
G1 X117.885 Y99.961 E.05866
M204 S1000
;WIPE_START
G1 F8640
G1 X117.915 Y99.909 E-.01386
G1 X117.919 Y99.903 E-.00167
G1 X118.976 Y98.689 E-.37168
G1 X119.688 Y98.079 E-.21649
G1 X120.578 Y97.479 E-.24784
G1 X121.16 Y97.206 E-.14846
;WIPE_END
G1 Z.4 F720
; printing object Rear Foot 2.stl id:0 copy 0
G1 X125.032 Y108.496 F10800
G1 Z.2 F720
G1 E1 F2100
M204 S800
;TYPE:Perimeter
;WIDTH:0.499999
G1 F900
G1 X124.419 Y108.456 E.02335
G1 X123.801 Y108.293 E.02429
G1 X123.209 Y108.012 E.02491
G1 X122.723 Y107.633 E.02342
G1 X122.369 Y107.316 E.01806
G1 X122.06 Y106.907 E.01948
G1 X121.756 Y106.327 E.02489
G1 X121.601 Y105.824 E.02
G1 X121.535 Y105.489 E.01298
G1 X121.496 Y104.937 E.02103
G1 X121.542 Y104.427 E.01946
G1 X121.71 Y103.793 E.02493
G1 X122.05 Y103.108 E.02906
G1 X122.368 Y102.685 E.02011
G1 X122.833 Y102.246 E.0243
G1 X123.383 Y101.89 E.0249
G1 X123.995 Y101.643 E.02508
G1 X124.897 Y101.5 E.03471
G1 X125.581 Y101.544 E.02605
G1 X126.199 Y101.707 E.02429
G1 X126.791 Y101.988 E.02491
G1 X127.277 Y102.367 E.02342
G1 X127.631 Y102.684 E.01806
G1 X127.94 Y103.093 E.01948
G1 X128.18 Y103.546 E.01948
G1 X128.29 Y103.793 E.01028
G1 X128.435 Y104.303 E.02015
G1 X128.504 Y104.937 E.02424
G1 X128.458 Y105.573 E.02424
G1 X128.245 Y106.325 E.02971
G1 X128.016 Y106.784 E.0195
G1 X127.704 Y107.219 E.02035
G1 X127.232 Y107.696 E.0255
G1 X126.617 Y108.11 E.02818
G1 X126.005 Y108.357 E.02508
G1 X125.103 Y108.5 E.03471
G1 X125.092 Y108.5 E.00042
M204 S1000
G1 X125.013 Y108.045 F10800
M204 S800
;TYPE:External perimeter
G1 F900
G1 X124.46 Y108.001 E.02108
G1 X123.926 Y107.853 E.02106
G1 X123.412 Y107.603 E.02172
G1 X122.734 Y107.04 E.03349
G1 X122.424 Y106.632 E.01947
G1 X122.165 Y106.122 E.02174
G1 X122.005 Y105.573 E.02173
G1 X121.951 Y105.021 E.02108
G1 X121.998 Y104.469 E.02106
G1 X122.149 Y103.918 E.02171
G1 X122.393 Y103.419 E.02111
G1 X122.733 Y102.96 E.02171
G1 X123.141 Y102.583 E.02111
G1 X123.624 Y102.279 E.02169
G1 X124.158 Y102.07 E.02179
G1 X124.96 Y101.952 E.03081
G1 X125.539 Y101.999 E.02208
G1 X126.074 Y102.147 E.0211
G1 X126.588 Y102.397 E.02172
G1 X127.267 Y102.96 E.03352
G1 X127.576 Y103.368 E.01945
G1 X127.835 Y103.878 E.02174
G1 X127.995 Y104.427 E.02173
G1 X128.049 Y104.979 E.02108
G1 X128.002 Y105.531 E.02106
G1 X127.851 Y106.082 E.02171
G1 X127.607 Y106.581 E.02111
G1 X127.267 Y107.04 E.02171
G1 X126.859 Y107.417 E.02111
G1 X126.376 Y107.721 E.02169
G1 X125.842 Y107.93 E.02179
G1 X125.072 Y108.043 E.02958
M204 S1000
;WIPE_START
G1 F8640
G1 X125.013 Y108.045 E-.01363
G1 X124.46 Y108.001 E-.12809
G1 X123.926 Y107.853 E-.12795
G1 X123.412 Y107.603 E-.13198
G1 X122.734 Y107.04 E-.20349
G1 X122.424 Y106.632 E-.11832
G1 X122.165 Y106.122 E-.13208
G1 X122.005 Y105.573 E-.13204
G1 X122 Y105.519 E-.01242
;WIPE_END
G1 Z.4 F720
G1 X125 Y110.559 F10800
G1 Z.2 F720
G1 E1 F2100
M204 S800
;TYPE:Perimeter
G1 F900
G1 X124.134 Y110.506 E.03298
G1 X123.475 Y110.361 E.02565
G1 X122.837 Y110.137 E.0257
G1 X121.913 Y109.64 E.03988
G1 X121.373 Y109.233 E.0257
G1 X120.888 Y108.762 E.02569
G1 X120.262 Y107.933 E.03948
G1 X119.799 Y107.003 E.03948
G1 X119.594 Y106.36 E.02565
G1 X119.47 Y105.695 E.02571
G1 X119.438 Y104.657 E.03947
G1 X119.598 Y103.63 E.0395
G1 X119.802 Y102.986 E.02567
G1 X120.085 Y102.372 E.0257
G1 X120.665 Y101.498 E.03987
G1 X121.113 Y101.006 E.02529
G1 X121.922 Y100.355 E.03947
G1 X122.838 Y99.863 E.03952
G1 X123.474 Y99.639 E.02563
G1 X124.145 Y99.492 E.02611
G1 X124.818 Y99.43 E.02569
G1 X125.865 Y99.494 E.03987
G1 X126.525 Y99.639 E.02568
G1 X127.163 Y99.863 E.0257
G1 X128.088 Y100.36 E.03991
G1 X128.626 Y100.767 E.02564
G1 X129.112 Y101.238 E.02572
G1 X129.744 Y102.075 E.03986
G1 X130.059 Y102.661 E.02529
G1 X130.24 Y103.175 E.02071
G1 X130.442 Y103.833 E.02616
G1 X130.532 Y104.385 E.02126
G1 X130.562 Y105.354 E.03685
G1 X130.479 Y106.024 E.02566
M73 Q3 S11
G1 X130.314 Y106.68 E.02571
G1 X129.909 Y107.637 E.03949
G1 X129.341 Y108.494 E.03908
G1 X128.618 Y109.239 E.03946
G1 X128.087 Y109.64 E.02529
M73 P3 R11
G1 X127.162 Y110.137 E.03991
G1 X126.526 Y110.361 E.02563
G1 X125.855 Y110.508 E.02611
G1 X125.182 Y110.57 E.02569
G1 X125.06 Y110.563 E.00464
M204 S1000
G1 X125 Y111.017 F10800
M204 S800
;TYPE:External perimeter
G1 F900
G1 X124.071 Y110.96 E.03537
G1 X123.35 Y110.802 E.02805
G1 X122.652 Y110.556 E.02813
G1 X121.665 Y110.026 E.04258
G1 X121.076 Y109.581 E.02806
M73 P3 R10
G1 X120.545 Y109.066 E.02811
G1 X119.872 Y108.175 E.04244
G1 X119.374 Y107.176 E.04242
G1 X119.15 Y106.471 E.02811
G1 X119.014 Y105.744 E.02811
G1 X118.98 Y104.628 E.04243
G1 X119.151 Y103.525 E.04242
G1 X119.375 Y102.821 E.02808
G1 X119.684 Y102.149 E.02811
G1 X120.303 Y101.216 E.04255
G1 X120.799 Y100.672 E.02798
G1 X121.669 Y99.972 E.04244
G1 X122.652 Y99.444 E.04241
G1 X123.349 Y99.198 E.02809
G1 X124.075 Y99.039 E.02825
G1 X124.811 Y98.971 E.02809
G1 X125.929 Y99.04 E.04257
G1 X126.651 Y99.198 E.02809
G1 X127.348 Y99.444 E.02809
G1 X128.335 Y99.974 E.04258
G1 X128.924 Y100.419 E.02806
G1 X129.455 Y100.934 E.02811
G1 X130.13 Y101.828 E.04257
G1 X130.478 Y102.476 E.02795
G1 X130.671 Y103.023 E.02205
G1 X130.891 Y103.749 E.02883
G1 X130.989 Y104.371 E.02393
G1 X131.02 Y105.375 E.03818
G1 X130.929 Y106.108 E.02807
G1 X130.749 Y106.825 E.0281
G1 X130.314 Y107.854 E.04246
G1 X129.699 Y108.781 E.04228
M73 Q3 S10
G1 X128.922 Y109.583 E.04244
G1 X128.334 Y110.026 E.02798
G1 X127.348 Y110.556 E.04254
G1 X126.651 Y110.802 E.02809
G1 X125.925 Y110.961 E.02825
G1 X125.189 Y111.029 E.02809
G1 X125.06 Y111.021 E.00491
M204 S1000
;WIPE_START
G1 F8640
G1 X125 Y111.017 E-.01388
G1 X124.071 Y110.96 E-.21491
G1 X123.35 Y110.802 E-.17043
G1 X122.652 Y110.556 E-.17089
G1 X121.665 Y110.026 E-.25868
G1 X121.076 Y109.581 E-.17045
G1 X121.074 Y109.579 E-.00076
;WIPE_END
G1 Z.4 F720
G1 X127.645 Y100.33 F10800
G1 Z.2 F720
G1 E1 F2100
M204 S800
;TYPE:Solid infill
;WIDTH:0.513152
G1 F900
G1 X128.848 Y101.533 E.06652
G1 X129.416 Y102.285 E.03685
G1 X129.702 Y102.819 E.02369
G1 X129.83 Y103.18 E.01498
G1 X126.796 Y100.146 E.16777
G1 X126.419 Y100.013 E.01563
G1 X125.88 Y99.895 E.02157
G1 X130.099 Y104.114 E.23329
G1 X130.142 Y104.347 E.00926
G1 X130.158 Y104.837 E.01917
G1 X125.16 Y99.84 E.27634
G1 X124.885 Y99.823 E.01077
G1 X124.508 Y99.853 E.01479
G1 X125.867 Y101.212 E.07515
G1 X125.746 Y101.176 E.00494
G1 X125.1 Y101.11 E.02539
G1 X123.927 Y99.937 E.06486
G1 X123.581 Y100.013 E.01385
G1 X123.401 Y100.076 E.00746
G1 X124.491 Y101.166 E.06027
G1 X124.005 Y101.234 E.01919
G1 X123.924 Y101.264 E.00338
G1 X122.92 Y100.26 E.05552
G1 X122.487 Y100.492 E.01921
G1 X123.437 Y101.442 E.05253
G1 X123.184 Y101.557 E.01087
G1 X123.002 Y101.672 E.00842
G1 X122.067 Y100.737 E.0517
G1 X121.698 Y101.033 E.0185
G1 X122.6 Y101.935 E.04988
G1 X122.253 Y102.253 E.0184
G1 X121.337 Y101.337 E.05065
G1 X121.02 Y101.685 E.01841
G1 X121.944 Y102.609 E.05109
G1 X121.666 Y102.996 E.01863
G1 X120.747 Y102.077 E.05082
G1 X120.482 Y102.477 E.01876
G1 X121.444 Y103.439 E.05319
G1 X121.367 Y103.592 E.0067
G1 X121.272 Y103.932 E.0138
G1 X120.26 Y102.921 E.05593
G1 X120.165 Y103.127 E.00887
G1 X120.078 Y103.403 E.01132
G1 X121.151 Y104.476 E.05933
M73 Q4 S10
G1 X121.111 Y105.101 E.02449
G1 X119.944 Y103.934 E.06453
G1 X119.854 Y104.509 E.02276
G1 X121.511 Y106.166 E.09162
M204 S1000
;WIPE_START
G1 F8640
M73 P4 R10
G1 X119.854 Y104.509 E-.54109
G1 X119.944 Y103.934 E-.13439
G1 X120.938 Y104.928 E-.32452
;WIPE_END
G1 Z.4 F720
G1 X128.49 Y103.835 F10800
G1 Z.2 F720
G1 E1 F2100
M204 S800
G1 F900
G1 X130.153 Y105.498 E.09196
G1 X130.066 Y106.076 E.02285
G1 X128.889 Y104.899 E.06508
G1 X128.847 Y105.522 E.02441
G1 X129.926 Y106.601 E.05966
G1 X129.728 Y107.068 E.01983
G1 X128.728 Y106.068 E.0553
G1 X128.622 Y106.435 E.01494
G1 X128.558 Y106.563 E.0056
G1 X129.518 Y107.523 E.05308
G1 X129.253 Y107.923 E.01876
G1 X128.334 Y107.004 E.05082
G1 X128.055 Y107.39 E.01862
G1 X128.976 Y108.312 E.05095
G1 X128.649 Y108.649 E.01836
G1 X127.748 Y107.748 E.04982
G1 X127.399 Y108.064 E.01841
G1 X128.316 Y108.981 E.05071
G1 X127.937 Y109.267 E.01856
G1 X126.998 Y108.328 E.05192
G1 X126.816 Y108.443 E.00842
G1 X126.563 Y108.558 E.01087
G1 X127.513 Y109.508 E.05253
G1 X127.08 Y109.74 E.01921
G1 X126.076 Y108.736 E.05552
G1 X125.995 Y108.766 E.00338
G1 X125.509 Y108.834 E.01919
G1 X126.598 Y109.924 E.06024
G1 X126.419 Y109.987 E.00742
G1 X126.073 Y110.063 E.01385
G1 X124.9 Y108.89 E.06486
G1 X124.254 Y108.824 E.02539
G1 X124.133 Y108.788 E.00494
G1 X125.496 Y110.151 E.07537
G1 X125.176 Y110.181 E.01257
G1 X124.84 Y110.16 E.01316
G1 X119.842 Y105.163 E.27634
G1 X119.858 Y105.653 E.01917
G1 X119.901 Y105.886 E.00926
G1 X124.12 Y110.105 E.23329
G1 X123.581 Y109.987 E.02157
G1 X123.204 Y109.854 E.01563
G1 X120.139 Y106.789 E.16948
G1 X120.594 Y107.728 E.0408
G1 X121.153 Y108.468 E.03626
G1 X122.355 Y109.67 E.06647
M204 S1000
;LAYER_CHANGE
;Z:0.35
;HEIGHT:0.15
;BEFORE_LAYER_CHANGE
G92 E0.0
;0.35


;WIPE_START
G1 F8640
G1 X121.153 Y108.468 E-.39251
G1 X120.594 Y107.728 E-.21414
G1 X120.139 Y106.789 E-.24093
G1 X120.606 Y107.256 E-.15242
;WIPE_END
G1 Z.35 F720
;AFTER_LAYER_CHANGE
;0.35
M104 S230 ; set temperature
M140 S85 ; set bed temperature
; stop printing object Rear Foot 2.stl id:0 copy 0
G1 Z.55
G1 X120.395 Y112.9 F10800
G1 Z.35 F720
G1 E1 F2100
;TYPE:Skirt/Brim
;WIDTH:0.5
G1 F1776
G1 X119.533 Y112.377 E.02941
G1 X118.27 Y111.247 E.04944
G1 X117.15 Y109.763 E.05424
G1 X116.409 Y108.239 E.04944
G1 X115.96 Y106.606 E.04941
G1 X115.831 Y105.483 E.03298
G1 X115.831 Y104.517 E.02818
G1 X116.076 Y102.841 E.04942
G1 X116.693 Y101.088 E.05422
G1 X117.554 Y99.628 E.04945
G1 X118.668 Y98.351 E.04944
G1 X119.401 Y97.723 E.02816
G1 X120.337 Y97.09 E.03297
G1 X121.87 Y96.368 E.04944
G1 X123.51 Y95.94 E.04945
G1 X125.365 Y95.825 E.05422
G1 X126.327 Y95.914 E.02819
G1 X127.336 Y96.122 E.03006
G1 X129.018 Y96.744 E.05232
G1 X130.467 Y97.623 E.04944
G1 X131.73 Y98.753 E.04944
G1 X132.85 Y100.237 E.05424
G1 X133.591 Y101.761 E.04944
G1 X134.04 Y103.394 E.04941
G1 X134.159 Y104.352 E.02816
G1 X134.169 Y105.483 E.033
G1 X133.924 Y107.159 E.04942
G1 X133.307 Y108.912 E.05422
G1 X132.446 Y110.372 E.04945
G1 X131.332 Y111.649 E.04944
G1 X130.599 Y112.277 E.02816
G1 X129.663 Y112.91 E.03297
G1 X128.13 Y113.632 E.04944
G1 X126.49 Y114.06 E.04945
G1 X124.635 Y114.175 E.05422
G1 X123.673 Y114.086 E.02819
M73 Q5 S10
G1 X122.664 Y113.878 E.03006
G1 X120.982 Y113.256 E.05232
G1 X120.446 Y112.931 E.01829
G1 X120.683 Y112.543 F10800
G1 F1776
G1 X119.797 Y112.004 E.03026
G1 X118.599 Y110.928 E.04698
G1 X117.546 Y109.535 E.05094
M73 P5 R10
G1 X116.84 Y108.088 E.04697
G1 X116.411 Y106.536 E.04698
G1 X116.288 Y105.468 E.03136
G1 X116.288 Y104.531 E.02734
G1 X116.522 Y102.938 E.04697
G1 X117.102 Y101.291 E.05094
G1 X117.919 Y99.903 E.04699
G1 X118.976 Y98.689 E.04696
G1 X119.688 Y98.079 E.02735
G1 X120.578 Y97.479 E.03131
G1 X122.036 Y96.794 E.047
G1 X123.594 Y96.389 E.04696
G1 X125.337 Y96.282 E.05095
G1 X126.27 Y96.368 E.02733
G1 X127.225 Y96.565 E.02845
G1 X128.827 Y97.159 E.04985
G1 X130.203 Y97.996 E.04699
G1 X131.401 Y99.072 E.04698
G1 X132.454 Y100.465 E.05094
G1 X133.16 Y101.912 E.04697
G1 X133.589 Y103.464 E.04698
G1 X133.704 Y104.394 E.02734
G1 X133.712 Y105.469 E.03136
G1 X133.478 Y107.061 E.04694
G1 X132.897 Y108.709 E.05098
G1 X132.081 Y110.097 E.04697
G1 X131.024 Y111.311 E.04696
G1 X130.312 Y111.921 E.02735
G1 X129.422 Y112.521 E.03131
G1 X127.964 Y113.206 E.047
G1 X126.406 Y113.611 E.04696
G1 X124.663 Y113.718 E.05095
G1 X123.73 Y113.632 E.02733
G1 X122.775 Y113.435 E.02845
G1 X121.173 Y112.841 E.04985
G1 X120.734 Y112.574 E.01499
;WIPE_START
G1 F8640
G1 X120.683 Y112.543 E-.01378
G1 X119.797 Y112.004 E-.23946
G1 X118.599 Y110.928 E-.37182
G1 X117.62 Y109.632 E-.37494
;WIPE_END
G1 Z.55 F720
; printing object Rear Foot 2.stl id:0 copy 0
G1 X125 Y108.184 F10800
G1 Z.35 F720
G1 E1 F2100
M204 S800
;TYPE:Perimeter
;WIDTH:0.449999
G1 F1500
G1 X124.562 Y108.176 E.01141
G1 X123.911 Y108.025 E.01741
G1 X123.356 Y107.763 E.01599
G1 X122.856 Y107.395 E.01618
