; generated by PrusaSlicer 2.9.4 on 2026-03-18 at 00:32:26 UTC


;
;
; 

; external perimeters extrusion width = 0.45mm
; perimeters extrusion width = 0.45mm
; infill extrusion width = 0.45mm
; solid infill extrusion width = 0.45mm
; top infill extrusion width = 0.40mm
; first layer extrusion width = 0.42mm

M73 P0 R10
M73 Q0 S10
M201 X1000 Y1000 Z200 E5000 ; sets maximum accelerations, mm/sec^2
M203 X200 Y200 Z12 E120 ; sets maximum feedrates, mm / sec
M204 S1250 T1250 ; sets acceleration (S) and retract acceleration (R), mm/sec^2
M205 X8.00 Y8.00 Z0.40 E4.50 ; sets the jerk limits, mm/sec
M205 S0 T0 ; sets the minimum extruding and travel feed rate, mm/sec

; printing object Rear Foot 2.stl id:0 copy 0
; stop printing object Rear Foot 2.stl id:0 copy 0

;TYPE:Custom
M862.3 P "MK3S" ; printer model check
M862.1 P0.4 ; nozzle diameter check
M115 U3.14.1 ; tell printer latest fw version
G90 ; use absolute coordinates
M83 ; extruder relative mode
M104 S240 ; set extruder temp
M140 S90 ; set bed temp
M190 S90 ; wait for bed temp
M109 S240 ; wait for extruder temp
G28 W ; home all without mesh bed level
G80 X115.373 Y95.3747 W19.2539 H19.2506 ; mesh bed levelling

G1 Z0.2 F720
G1 Y-3 F1000 ; go outside print area
G92 E0
G1 X60 E9 F1000 ; intro line
G1 X100 E12.5 F1000 ; intro line

G92 E0
M221 S95

; Don't change E values below. Excessive value can damage the printer.
M907 E430 ; set extruder motor current
G21 ; set units to millimeters
G90 ; use absolute coordinates
M83 ; use relative distances for extrusion

M900 K0.08 ; Filament gcode LA 1.5
M900 K45 ; Filament gcode LA 1.0




M107
;LAYER_CHANGE
;Z:0.2
;HEIGHT:0.2
G1 E-1 F2100
G1 Z.4 F720
G1 X117.349 Y99.473 F10800
G1 Z.2 F720
M73 P1 R10
M73 Q1 S10
G1 E1 F2100
M204 S800
;TYPE:Skirt/Brim
;WIDTH:0.42
G1 F1200
G1 X118.495 Y98.161 E.05462
G1 X119.24 Y97.522 E.03077
G1 X120.202 Y96.871 E.03642
G1 X121.778 Y96.128 E.05463
G1 X123.463 Y95.687 E.05461
G1 X125.381 Y95.569 E.06025
G1 X126.358 Y95.659 E.03076
G1 X127.399 Y95.873 E.03332
G1 X129.126 Y96.511 E.05773
G1 X130.616 Y97.413 E.05461
G1 X131.914 Y98.574 E.0546
G1 X133.072 Y100.108 E.06026
G1 X133.834 Y101.675 E.05463
G1 X134.294 Y103.355 E.05461
G1 X134.415 Y104.328 E.03074
G1 X134.426 Y105.491 E.03647
G1 X134.176 Y107.214 E.05459
G1 X133.537 Y109.027 E.06027
G1 X132.651 Y110.527 E.05462
G1 X131.505 Y111.839 E.05462
G1 X130.76 Y112.478 E.03077
G1 X129.798 Y113.129 E.03642
G1 X128.222 Y113.872 E.05463
G1 X126.537 Y114.313 E.05461
G1 X124.619 Y114.431 E.06025
G1 X123.642 Y114.341 E.03076
G1 X122.601 Y114.127 E.03332
G1 X120.874 Y113.49 E.05771
G1 X119.384 Y112.587 E.05463
G1 X118.086 Y111.426 E.0546
G1 X116.928 Y109.892 E.06026
G1 X116.166 Y108.325 E.05463
G1 X115.706 Y106.645 E.05461
G1 X115.574 Y105.49 E.03645
G1 X115.574 Y104.509 E.03076
G1 X115.824 Y102.786 E.05459
G1 X116.463 Y100.973 E.06027
G1 X117.318 Y99.524 E.05275
M204 S1000
G1 X117.641 Y99.714 F10800
M204 S800
G1 F1200
G1 X117.65 Y99.7 E.00052
G1 X118.749 Y98.44 E.05242
G1 X119.476 Y97.816 E.03004
G1 X120.401 Y97.192 E.03499
G1 X121.914 Y96.48 E.05243
G1 X123.532 Y96.058 E.05243
G1 X125.358 Y95.945 E.05736
G1 X126.312 Y96.034 E.03004
G1 X127.307 Y96.238 E.03185
G1 X128.968 Y96.853 E.05553
G1 X130.398 Y97.721 E.05245
G1 X131.643 Y98.837 E.05242
G1 X132.746 Y100.297 E.05737
G1 X133.478 Y101.8 E.05242
G1 X133.922 Y103.413 E.05246
G1 X134.04 Y104.363 E.03002
G1 X134.049 Y105.479 E.03499
G1 X133.807 Y107.134 E.05244
G1 X133.199 Y108.859 E.05735
G1 X132.35 Y110.3 E.05244
G1 X131.251 Y111.56 E.05242
G1 X130.523 Y112.184 E.03006
G1 X129.599 Y112.808 E.03496
G1 X128.086 Y113.52 E.05243
G1 X126.468 Y113.942 E.05243
G1 X124.642 Y114.055 E.05736
G1 X123.688 Y113.966 E.03004
G1 X122.693 Y113.762 E.03185
G1 X121.032 Y113.147 E.05553
G1 X119.602 Y112.279 E.05245
G1 X118.357 Y111.163 E.05242
G1 X117.254 Y109.703 E.05737
G1 X116.522 Y108.2 E.05242
M73 Q2 S10
G1 X116.078 Y106.587 E.05246
G1 X115.951 Y105.479 E.03497
G1 X115.951 Y104.521 E.03004
G1 X116.193 Y102.866 E.05244
M73 P2 R10
G1 X116.801 Y101.141 E.05735
G1 X117.611 Y99.766 E.05004
M204 S1000
G1 X117.934 Y99.956 F10800
M204 S800
G1 F1200
G1 X117.951 Y99.927 E.00105
G1 X119.003 Y98.718 E.05025
G1 X119.713 Y98.11 E.02931
G1 X120.599 Y97.513 E.0335
G1 X122.05 Y96.831 E.05027
G1 X123.602 Y96.428 E.05028
G1 X125.335 Y96.322 E.05444
G1 X126.266 Y96.408 E.02932
G1 X127.215 Y96.604 E.03038
G1 X128.811 Y97.196 E.05337
G1 X130.18 Y98.029 E.05025
G1 X131.373 Y99.099 E.05025
G1 X132.419 Y100.485 E.05444
G1 X133.123 Y101.926 E.05029
G1 X133.549 Y103.47 E.05022
G1 X133.664 Y104.398 E.02932
G1 X133.672 Y105.467 E.03352
G1 X133.439 Y107.053 E.05026
G1 X132.862 Y108.691 E.05445
G1 X132.049 Y110.073 E.05027
G1 X130.997 Y111.282 E.05025
G1 X130.287 Y111.89 E.02931
G1 X129.401 Y112.487 E.0335
G1 X127.95 Y113.169 E.05027
G1 X126.399 Y113.572 E.05025
G1 X124.665 Y113.678 E.05447
G1 X123.735 Y113.592 E.02928
G1 X122.785 Y113.396 E.03041
G1 X121.189 Y112.804 E.05337
G1 X119.82 Y111.971 E.05025
G1 X118.627 Y110.901 E.05025
G1 X117.581 Y109.515 E.05444
G1 X116.877 Y108.074 E.05029
G1 X116.451 Y106.529 E.05025
G1 X116.328 Y105.467 E.03352
G1 X116.328 Y104.533 E.02928
G1 X116.561 Y102.947 E.05026
G1 X117.138 Y101.309 E.05445
G1 X117.903 Y100.008 E.04732
M204 S1000
;WIPE_START
G1 F8640
G1 X117.934 Y99.956 E-.01398
G1 X117.951 Y99.927 E-.00776
G1 X119.003 Y98.718 E-.37005
G1 X119.713 Y98.11 E-.21584
G1 X120.599 Y97.513 E-.24669
G1 X121.17 Y97.245 E-.14568
;WIPE_END
G1 Z.4 F720
; printing object Rear Foot 2.stl id:0 copy 0
G1 X126.269 Y101.704 F10800
G1 Z.2 F720
G1 E1 F2100
M204 S800
;TYPE:Perimeter
;WIDTH:0.419999
G1 F1200
G1 X126.621 Y101.858 E.01205
G1 X127.096 Y102.153 E.01753
G1 X127.577 Y102.579 E.02015
G1 X127.969 Y103.081 E.01997
G1 X128.315 Y103.772 E.02423
G1 X128.467 Y104.312 E.01759
G1 X128.535 Y104.949 E.02009
G1 X128.486 Y105.586 E.02003
G1 X128.277 Y106.326 E.02411
G1 X128.038 Y106.807 E.01684
G1 X127.727 Y107.237 E.01664
G1 X127.253 Y107.716 E.02113
G1 X126.621 Y108.142 E.0239
G1 X125.997 Y108.391 E.02107
G1 X125.09 Y108.531 E.02878
G1 X124.402 Y108.484 E.02162
G1 X123.783 Y108.319 E.02009
G1 X123.379 Y108.142 E.01383
G1 X122.904 Y107.847 E.01753
G1 X122.423 Y107.421 E.02015
G1 X122.031 Y106.919 E.01997
G1 X121.724 Y106.328 E.02088
G1 X121.573 Y105.832 E.01626
G1 X121.505 Y105.489 E.01096
G1 X121.465 Y104.949 E.01698
G1 X121.514 Y104.414 E.01684
G1 X121.685 Y103.772 E.02083
G1 X121.962 Y103.193 E.02012
G1 X122.353 Y102.656 E.02083
G1 X122.821 Y102.216 E.02014
G1 X123.379 Y101.858 E.02079
G1 X124.003 Y101.609 E.02107
G1 X124.91 Y101.469 E.02878
G1 X125.598 Y101.516 E.02162
G1 X126.214 Y101.68 E.01999
M204 S1000
G1 X126.134 Y102.053 F10800
M204 S800
;TYPE:External perimeter
G1 F1200
G1 X126.422 Y102.179 E.00986
G1 X126.897 Y102.474 E.01753
G1 X127.322 Y102.858 E.01796
G1 X127.668 Y103.309 E.01782
G1 X127.939 Y103.841 E.01872
G1 X128.104 Y104.414 E.0187
G1 X128.16 Y104.983 E.01793
G1 X128.111 Y105.552 E.01791
G1 X127.952 Y106.126 E.01868
G1 X127.701 Y106.639 E.01791
G1 X127.345 Y107.117 E.01869
G1 X126.925 Y107.505 E.01793
G1 X126.422 Y107.821 E.01863
G1 X125.863 Y108.039 E.01881
G1 X125.038 Y108.158 E.02613
G1 X124.436 Y108.109 E.01894
G1 X123.886 Y107.956 E.0179
G1 X123.578 Y107.821 E.01054
G1 X123.103 Y107.526 E.01753
G1 X122.678 Y107.142 E.01796
G1 X122.332 Y106.691 E.01782
G1 X122.061 Y106.159 E.01872
G1 X121.896 Y105.586 E.0187
G1 X121.84 Y105.017 E.01793
G1 X121.889 Y104.449 E.01788
G1 X122.048 Y103.874 E.01871
G1 X122.299 Y103.361 E.01791
G1 X122.655 Y102.883 E.01869
G1 X123.075 Y102.495 E.01793
G1 X123.578 Y102.179 E.01863
G1 X124.137 Y101.961 E.01881
G1 X124.962 Y101.842 E.02613
G1 X125.564 Y101.891 E.01894
G1 X126.077 Y102.034 E.0167
M204 S1000
;WIPE_START
G1 F8640
G1 X126.134 Y102.053 E-.01387
G1 X126.422 Y102.179 E-.07259
G1 X126.897 Y102.474 E-.12911
G1 X127.322 Y102.858 E-.13226
G1 X127.668 Y103.309 E-.13125
G1 X127.939 Y103.841 E-.13786
G1 X128.104 Y104.414 E-.13768
G1 X128.16 Y104.983 E-.13202
G1 X128.118 Y105.472 E-.11336
;WIPE_END
G1 Z.4 F720
G1 X125.155 Y99.48 F10800
G1 Z.2 F720
G1 E1 F2100
M204 S800
;TYPE:Perimeter
G1 F1200
G1 X125.859 Y99.523 E.02211
G1 X126.517 Y99.668 E.02113
G1 X127.153 Y99.892 E.02114
M73 Q3 S10
G1 X128.07 Y100.384 E.03263
G1 X128.607 Y100.79 E.02111
G1 X129.091 Y101.259 E.02113
G1 X129.718 Y102.089 E.03261
G1 X130.033 Y102.675 E.02086
G1 X130.208 Y103.173 E.01655
G1 X130.416 Y103.856 E.02239
G1 X130.503 Y104.388 E.0169
M73 P3 R10
G1 X130.533 Y105.35 E.03018
G1 X130.45 Y106.019 E.02114
G1 X130.285 Y106.673 E.02115
G1 X129.883 Y107.623 E.03234
G1 X129.318 Y108.475 E.03205
G1 X128.6 Y109.216 E.03235
G1 X128.069 Y109.616 E.02084
G1 X127.153 Y110.109 E.03262
G1 X126.517 Y110.332 E.02113
G1 X125.85 Y110.479 E.02142
G1 X125.179 Y110.541 E.02113
G1 X124.141 Y110.477 E.03261
G1 X123.483 Y110.333 E.02112
G1 X122.847 Y110.108 E.02115
G1 X121.931 Y109.616 E.0326
G1 X121.393 Y109.21 E.02113
G1 X120.909 Y108.741 E.02113
G1 X120.287 Y107.918 E.03235
G1 X119.828 Y106.994 E.03235
G1 X119.623 Y106.352 E.02113
G1 X119.499 Y105.69 E.02112
G1 X119.468 Y104.658 E.03237
G1 X119.626 Y103.639 E.03233
G1 X119.83 Y102.997 E.02112
G1 X120.112 Y102.385 E.02113
G1 X120.687 Y101.518 E.03262
G1 X121.135 Y101.026 E.02086
G1 X121.939 Y100.379 E.03236
G1 X122.847 Y99.891 E.03232
G1 X123.483 Y99.668 E.02113
G1 X124.15 Y99.521 E.02142
G1 X124.821 Y99.459 E.02113
G1 X125.095 Y99.476 E.00861
M204 S1000
G1 X125.178 Y99.104 F10800
M204 S800
;TYPE:External perimeter
G1 F1200
G1 X125.911 Y99.149 E.02303
G1 X126.621 Y99.304 E.02279
G1 X127.306 Y99.546 E.02278
G1 X128.274 Y100.065 E.03444
G1 X128.853 Y100.503 E.02276
G1 X129.374 Y101.009 E.02277
G1 X130.036 Y101.885 E.03443
G1 X130.379 Y102.523 E.02271
G1 X130.708 Y103.458 E.03108
G1 X130.786 Y103.787 E.0106
G1 X130.88 Y104.376 E.0187
G1 X130.91 Y105.367 E.03109
G1 X130.821 Y106.088 E.02278
G1 X130.644 Y106.793 E.02279
G1 X130.217 Y107.802 E.03435
G1 X129.613 Y108.713 E.03427
G1 X128.851 Y109.499 E.03432
G1 X128.273 Y109.935 E.0227
G1 X127.305 Y110.455 E.03445
G1 X126.621 Y110.696 E.02274
G1 X125.908 Y110.852 E.02288
G1 X125.185 Y110.919 E.02277
G1 X124.088 Y110.851 E.03446
G1 X123.38 Y110.696 E.02272
G1 X122.694 Y110.454 E.02281
G1 X121.727 Y109.935 E.03441
G1 X121.147 Y109.497 E.02279
G1 X120.626 Y108.991 E.02277
G1 X119.965 Y108.117 E.03436
G1 X119.477 Y107.136 E.03435
G1 X119.257 Y106.444 E.02277
G1 X119.123 Y105.73 E.02278
G1 X119.09 Y104.635 E.03435
G1 X119.258 Y103.553 E.03433
G1 X119.478 Y102.861 E.02277
G1 X119.782 Y102.201 E.02278
G1 X120.388 Y101.285 E.03444
G1 X120.876 Y100.75 E.0227
G1 X121.729 Y100.064 E.03432
G1 X122.695 Y99.545 E.03438
G1 X123.379 Y99.304 E.02274
G1 X124.092 Y99.148 E.02288
G1 X124.815 Y99.081 E.02277
G1 X125.119 Y99.1 E.00955
M204 S1000
;WIPE_START
G1 F8640
G1 X125.178 Y99.104 E-.01365
G1 X125.911 Y99.149 E-.16957
G1 X126.621 Y99.304 E-.1678
G1 X127.306 Y99.546 E-.16775
G1 X128.274 Y100.065 E-.25361
G1 X128.853 Y100.503 E-.16764
G1 X129.039 Y100.684 E-.05998
;WIPE_END
G1 Z.4 F720
G1 X127.762 Y100.39 F10800
G1 Z.2 F720
G1 E1 F2100
M204 S800
;TYPE:Solid infill
;WIDTH:0.429057
G1 F1200
G1 X128.869 Y101.497 E.05027
G1 X129.447 Y102.263 E.03081
G1 X129.739 Y102.805 E.01977
G1 X129.797 Y102.971 E.00565
G1 X127.005 Y100.179 E.12678
G1 X126.429 Y99.976 E.01961
G1 X126.208 Y99.928 E.00726
G1 X130.079 Y103.799 E.17577
G1 X130.181 Y104.345 E.01783
G1 X130.184 Y104.45 E.00337
G1 X125.56 Y99.826 E.20996
G1 X124.978 Y99.79 E.01872
G1 X126.752 Y101.564 E.08055
G1 X127.274 Y101.887 E.01971
G1 X127.817 Y102.365 E.02323
G1 X128.282 Y102.972 E.02455
G1 X128.401 Y103.213 E.00863
G1 X130.377 Y105.189 E.08972
M204 S1000
;WIPE_START
G1 F8640
G1 X128.401 Y103.213 E-.64525
G1 X128.282 Y102.972 E-.06206
G1 X127.817 Y102.365 E-.17656
G1 X127.439 Y102.032 E-.11613
;WIPE_END
G1 Z.4 F720
G1 X128.492 Y103.85 F10800
G1 Z.2 F720
G1 E1 F2100
M204 S800
G1 F1200
G1 X130.186 Y105.544 E.07692
G1 X130.118 Y106.023 E.01553
G1 X128.836 Y104.74 E.05823
G1 X128.858 Y104.976 E.00761
G1 X128.831 Y105.282 E.00986
G1 X130.008 Y106.459 E.05344
G1 X129.98 Y106.57 E.00368
G1 X129.86 Y106.856 E.00996
G1 X128.774 Y105.771 E.04929
G1 X128.652 Y106.195 E.01417
G1 X129.697 Y107.24 E.04745
G1 X129.6 Y107.47 E.00801
M73 Q4 S10
G1 X129.513 Y107.601 E.00505
G1 X128.501 Y106.59 E.04593
G1 X128.318 Y106.953 E.01305
G1 X129.295 Y107.93 E.04436
G1 X129.077 Y108.258 E.01265
G1 X128.095 Y107.276 E.04459
G1 X127.859 Y107.586 E.01251
M73 P4 R10
G1 X128.811 Y108.538 E.04323
G1 X128.542 Y108.815 E.0124
G1 X127.578 Y107.851 E.04377
G1 X127.284 Y108.103 E.01243
G1 X128.255 Y109.074 E.04409
G1 X127.944 Y109.309 E.01252
G1 X126.943 Y108.308 E.04545
G1 X126.594 Y108.505 E.01287
G1 X127.596 Y109.507 E.0455
G1 X127.24 Y109.698 E.01297
G1 X126.195 Y108.652 E.04747
G1 X125.989 Y108.728 E.00705
G1 X125.757 Y108.761 E.00752
G1 X126.866 Y109.87 E.05036
G1 X126.462 Y110.012 E.01375
G1 X125.279 Y108.828 E.05374
G1 X124.962 Y108.856 E.01022
G1 X124.739 Y108.834 E.00719
G1 X126.018 Y110.114 E.0581
G1 X125.801 Y110.161 E.00713
G1 X125.543 Y110.185 E.00832
G1 X123.852 Y108.494 E.07678
M204 S1000
;WIPE_START
G1 F8640
G1 X125.543 Y110.185 E-.55219
G1 X125.801 Y110.161 E-.05983
G1 X126.018 Y110.114 E-.05127
G1 X124.987 Y109.083 E-.33671
;WIPE_END
G1 Z.4 F720
G1 X126.153 Y101.512 F10800
G1 Z.2 F720
G1 E1 F2100
M204 S800
G1 F1200
G1 X124.46 Y99.818 E.0769
G1 X124.198 Y99.839 E.00844
G1 X123.982 Y99.886 E.0071
G1 X125.27 Y101.174 E.05848
G1 X124.911 Y101.145 E.01156
G1 X124.722 Y101.172 E.00613
G1 X123.538 Y99.988 E.05376
G1 X123.134 Y100.13 E.01375
G1 X124.243 Y101.239 E.05036
G1 X124.011 Y101.272 E.00752
G1 X123.805 Y101.348 E.00705
G1 X122.76 Y100.302 E.04747
G1 X122.404 Y100.493 E.01297
G1 X123.406 Y101.495 E.0455
G1 X123.058 Y101.693 E.01286
G1 X122.059 Y100.694 E.04536
G1 X121.756 Y100.937 E.01247
G1 X122.718 Y101.899 E.04368
G1 X122.422 Y102.149 E.01244
G1 X121.454 Y101.181 E.04395
G1 X121.355 Y101.26 E.00407
G1 X121.18 Y101.453 E.00836
G1 X122.14 Y102.413 E.04359
G1 X121.904 Y102.724 E.01253
G1 X120.923 Y101.742 E.04457
G1 X120.705 Y102.07 E.01265
G1 X121.682 Y103.047 E.04436
G1 X121.5 Y103.411 E.01307
G1 X120.487 Y102.399 E.04597
G1 X120.393 Y102.541 E.00547
G1 X120.295 Y102.753 E.0075
G1 X121.347 Y103.804 E.04775
G1 X121.228 Y104.231 E.01423
G1 X120.125 Y103.128 E.05008
G1 X119.993 Y103.543 E.01398
G1 X121.168 Y104.718 E.05335
G1 X121.142 Y105.024 E.00986
G1 X121.164 Y105.26 E.00761
G1 X119.896 Y103.991 E.0576
G1 X119.822 Y104.464 E.01537
G1 X121.509 Y106.151 E.0766
M204 S1000
;WIPE_START
G1 F8640
G1 X119.822 Y104.464 E-.55088
G1 X119.896 Y103.991 E-.11055
G1 X120.933 Y105.028 E-.33857
;WIPE_END
G1 Z.4 F720
G1 X119.623 Y104.811 F10800
G1 Z.2 F720
G1 E1 F2100
M204 S800
G1 F1200
G1 X121.6 Y106.787 E.08975
G1 X121.724 Y107.038 E.00899
G1 X122.182 Y107.634 E.02413
G1 X122.669 Y108.074 E.02107
G1 X123.23 Y108.418 E.02113
G1 X125.022 Y110.21 E.08137
G1 X124.44 Y110.174 E.01872
G1 X119.816 Y105.55 E.20996
G1 X119.819 Y105.655 E.00337
G1 X119.921 Y106.201 E.01783
G1 X123.792 Y110.072 E.17577
G1 X123.571 Y110.024 E.00726
G1 X122.995 Y109.821 E.01961
G1 X120.203 Y107.029 E.12678
G1 X120.561 Y107.748 E.02579
G1 X121.131 Y108.503 E.03037
G1 X122.238 Y109.61 E.05027
M204 S1000
;LAYER_CHANGE
;Z:0.35
;HEIGHT:0.15
;BEFORE_LAYER_CHANGE
G92 E0.0
;0.35


;WIPE_START
G1 F8640
G1 X121.131 Y108.503 E-.36149
G1 X120.561 Y107.748 E-.21844
G1 X120.203 Y107.029 E-.18546
G1 X120.921 Y107.747 E-.23461
;WIPE_END
G1 Z.35 F720
;AFTER_LAYER_CHANGE
;0.35
M104 S230 ; set temperature
M140 S85 ; set bed temperature
; stop printing object Rear Foot 2.stl id:0 copy 0
G1 Z.55
G1 X120.152 Y113.052 F10800
G1 Z.35 F720
G1 E1 F2100
;TYPE:Skirt/Brim
;WIDTH:0.42
G1 F2163
G1 X119.384 Y112.587 E.02171
G1 X118.086 Y111.426 E.04212
G1 X116.928 Y109.892 E.04648
G1 X116.166 Y108.325 E.04214
M73 Q5 S10
G1 X115.706 Y106.645 E.04213
G1 X115.574 Y105.49 E.02812
G1 X115.574 Y104.509 E.02373
G1 X115.824 Y102.786 E.04211
G1 X116.463 Y100.973 E.04649
G1 X117.349 Y99.473 E.04213
M73 P5 R10
G1 X118.495 Y98.161 E.04213
G1 X119.24 Y97.522 E.02374
