; generated by PrusaSlicer 2.9.4 on 2026-03-18 at 00:32:57 UTC


;
;
; 

; external perimeters extrusion width = 0.45mm
; perimeters extrusion width = 0.45mm
; infill extrusion width = 0.45mm
; solid infill extrusion width = 0.45mm
; top infill extrusion width = 0.40mm
; first layer extrusion width = 0.42mm

M73 P0 R10
M73 Q0 S10
M201 X1000 Y1000 Z200 E5000 ; sets maximum accelerations, mm/sec^2
M203 X200 Y200 Z12 E120 ; sets maximum feedrates, mm / sec
M204 S1250 T1250 ; sets acceleration (S) and retract acceleration (R), mm/sec^2
M205 X8.00 Y8.00 Z0.40 E4.50 ; sets the jerk limits, mm/sec
M205 S0 T0 ; sets the minimum extruding and travel feed rate, mm/sec

; printing object Rear Foot 3.stl id:0 copy 0
; stop printing object Rear Foot 3.stl id:0 copy 0

;TYPE:Custom
M862.3 P "MK3S" ; printer model check
M862.1 P0.4 ; nozzle diameter check
M115 U3.14.1 ; tell printer latest fw version
G90 ; use absolute coordinates
M83 ; extruder relative mode
M104 S240 ; set extruder temp
M140 S90 ; set bed temp
M190 S90 ; wait for bed temp
M109 S240 ; wait for extruder temp
G28 W ; home all without mesh bed level
G80 X115.373 Y95.3747 W19.2539 H19.2507 ; mesh bed levelling

G1 Z0.2 F720
G1 Y-3 F1000 ; go outside print area
G92 E0
G1 X60 E9 F1000 ; intro line
G1 X100 E12.5 F1000 ; intro line

G92 E0
M221 S95

; Don't change E values below. Excessive value can damage the printer.
M907 E430 ; set extruder motor current
G21 ; set units to millimeters
G90 ; use absolute coordinates
M83 ; use relative distances for extrusion

M900 K0.08 ; Filament gcode LA 1.5
M900 K45 ; Filament gcode LA 1.0




M107
;LAYER_CHANGE
;Z:0.2
;HEIGHT:0.2
G1 E-1 F2100
G1 Z.4 F720
G1 X117.349 Y99.472 F10800
G1 Z.2 F720
M73 P1 R10
M73 Q1 S10
G1 E1 F2100
M204 S800
;TYPE:Skirt/Brim
;WIDTH:0.42
G1 F1200
G1 X118.495 Y98.161 E.0546
G1 X119.862 Y97.082 E.0546
G1 X120.712 Y96.591 E.03078
G1 X121.778 Y96.128 E.03644
G1 X123.463 Y95.687 E.05461
G1 X125.381 Y95.569 E.06025
G1 X127.108 Y95.799 E.05463
G1 X128.222 Y96.128 E.03642
G1 X129.126 Y96.511 E.03078
G1 X130.616 Y97.413 E.05461
G1 X131.914 Y98.574 E.0546
G1 X132.977 Y99.954 E.05462
G1 X133.834 Y101.675 E.06028
G1 X134.294 Y103.355 E.05461
G1 X134.415 Y104.328 E.03074
G1 X134.426 Y105.491 E.03647
G1 X134.176 Y107.214 E.05459
G1 X133.537 Y109.027 E.06027
G1 X132.651 Y110.527 E.05462
G1 X131.505 Y111.839 E.05462
G1 X130.616 Y112.587 E.03643
G1 X129.798 Y113.129 E.03077
G1 X128.222 Y113.872 E.05463
G1 X126.537 Y114.313 E.05461
G1 X124.619 Y114.431 E.06025
G1 X122.892 Y114.201 E.05463
G1 X121.778 Y113.872 E.03642
G1 X120.874 Y113.489 E.03078
G1 X119.384 Y112.587 E.05461
G1 X118.086 Y111.426 E.0546
G1 X117.023 Y110.045 E.05464
G1 X116.166 Y108.325 E.06025
G1 X115.706 Y106.645 E.05461
G1 X115.585 Y105.672 E.03074
G1 X115.574 Y104.509 E.03647
G1 X115.824 Y102.786 E.05459
G1 X116.463 Y100.973 E.06027
G1 X117.318 Y99.524 E.05275
M204 S1000
G1 X117.641 Y99.714 F10800
M204 S800
G1 F1200
G1 X117.65 Y99.7 E.00052
G1 X118.749 Y98.439 E.05245
G1 X120.061 Y97.403 E.05242
G1 X120.89 Y96.924 E.03002
G1 X121.914 Y96.48 E.03499
G1 X123.532 Y96.058 E.05243
G1 X125.358 Y95.945 E.05736
G1 X127.016 Y96.165 E.05244
G1 X128.086 Y96.48 E.03497
G1 X128.968 Y96.853 E.03003
G1 X130.398 Y97.721 E.05245
G1 X131.643 Y98.837 E.05242
G1 X132.663 Y100.163 E.05245
G1 X133.478 Y101.8 E.05734
G1 X133.922 Y103.413 E.05246
G1 X134.04 Y104.363 E.03002
G1 X134.049 Y105.479 E.03499
G1 X133.807 Y107.134 E.05244
G1 X133.199 Y108.859 E.05735
G1 X132.35 Y110.3 E.05244
G1 X131.251 Y111.56 E.05242
G1 X130.398 Y112.279 E.03498
G1 X129.599 Y112.808 E.03005
G1 X128.086 Y113.52 E.05243
G1 X126.468 Y113.942 E.05243
G1 X124.642 Y114.055 E.05736
G1 X122.984 Y113.835 E.05244
G1 X121.914 Y113.52 E.03497
G1 X121.032 Y113.147 E.03003
G1 X119.602 Y112.279 E.05245
G1 X118.357 Y111.163 E.05242
G1 X117.337 Y109.837 E.05245
G1 X116.522 Y108.2 E.05734
M73 Q2 S10
G1 X116.078 Y106.587 E.05246
G1 X115.96 Y105.637 E.03002
G1 X115.951 Y104.521 E.03499
G1 X116.193 Y102.866 E.05244
M73 P2 R10
G1 X116.801 Y101.141 E.05735
G1 X117.611 Y99.766 E.05004
M204 S1000
G1 X117.934 Y99.956 F10800
M204 S800
G1 F1200
G1 X117.951 Y99.927 E.00105
G1 X119.003 Y98.718 E.05025
G1 X120.259 Y97.723 E.05024
G1 X121.069 Y97.256 E.02932
G1 X122.05 Y96.831 E.03352
G1 X123.601 Y96.428 E.05025
G1 X125.335 Y96.322 E.05447
G1 X126.924 Y96.531 E.05025
G1 X127.95 Y96.831 E.03352
G1 X128.811 Y97.196 E.02932
G1 X130.18 Y98.029 E.05025
G1 X131.373 Y99.099 E.05025
G1 X132.348 Y100.371 E.05025
G1 X133.123 Y101.926 E.05448
G1 X133.549 Y103.47 E.05022
G1 X133.664 Y104.398 E.02932
G1 X133.672 Y105.467 E.03352
G1 X133.439 Y107.053 E.05026
G1 X132.862 Y108.691 E.05445
G1 X132.049 Y110.073 E.05027
G1 X130.997 Y111.282 E.05025
G1 X130.287 Y111.89 E.02931
G1 X129.401 Y112.487 E.0335
G1 X127.95 Y113.169 E.05027
G1 X126.399 Y113.572 E.05025
G1 X124.665 Y113.678 E.05447
G1 X123.076 Y113.469 E.05025
G1 X122.177 Y113.213 E.02931
G1 X121.189 Y112.804 E.03353
G1 X119.82 Y111.971 E.05025
G1 X118.627 Y110.901 E.05025
G1 X117.651 Y109.629 E.05027
G1 X116.877 Y108.074 E.05446
G1 X116.451 Y106.529 E.05025
G1 X116.336 Y105.602 E.02929
G1 X116.328 Y104.533 E.03352
G1 X116.561 Y102.947 E.05026
G1 X117.138 Y101.309 E.05445
G1 X117.903 Y100.008 E.04732
M204 S1000
;WIPE_START
G1 F8640
G1 X117.934 Y99.956 E-.01398
G1 X117.951 Y99.927 E-.00776
G1 X119.003 Y98.718 E-.37005
G1 X120.259 Y97.723 E-.36999
G1 X121.069 Y97.256 E-.21589
G1 X121.158 Y97.218 E-.02233
;WIPE_END
G1 Z.4 F720
; printing object Rear Foot 3.stl id:0 copy 0
G1 X126.269 Y101.704 F10800
G1 Z.2 F720
G1 E1 F2100
M204 S800
;TYPE:Perimeter
;WIDTH:0.419999
G1 F1200
G1 X126.621 Y101.858 E.01205
G1 X127.096 Y102.153 E.01753
G1 X127.577 Y102.579 E.02015
G1 X127.969 Y103.081 E.01997
G1 X128.23 Y103.579 E.01763
G1 X128.467 Y104.312 E.02415
G1 X128.523 Y104.816 E.0159
G1 X128.523 Y105.187 E.01163
G1 X128.467 Y105.688 E.01581
G1 X128.315 Y106.23 E.01765
G1 X128.038 Y106.807 E.02007
G1 X127.727 Y107.237 E.01664
G1 X127.495 Y107.495 E.01088
G1 X127.096 Y107.847 E.01668
G1 X126.621 Y108.142 E.01753
G1 X125.997 Y108.391 E.02107
G1 X125.09 Y108.531 E.02878
G1 X124.402 Y108.484 E.02162
G1 X123.783 Y108.319 E.02009
G1 X123.451 Y108.18 E.01129
G1 X122.904 Y107.847 E.02008
G1 X122.423 Y107.421 E.02015
G1 X122.031 Y106.919 E.01997
G1 X121.781 Y106.442 E.01689
G1 X121.573 Y105.832 E.02021
G1 X121.514 Y105.586 E.00793
G1 X121.465 Y105.051 E.01684
G1 X121.514 Y104.414 E.02003
G1 X121.685 Y103.772 E.02083
G1 X121.962 Y103.193 E.02012
G1 X122.273 Y102.763 E.01664
G1 X122.505 Y102.505 E.01088
G1 X122.904 Y102.153 E.01668
G1 X123.379 Y101.858 E.01753
G1 X124.003 Y101.609 E.02107
G1 X124.91 Y101.469 E.02878
G1 X125.598 Y101.516 E.02162
G1 X126.214 Y101.68 E.01999
M204 S1000
G1 X126.134 Y102.053 F10800
M204 S800
;TYPE:External perimeter
G1 F1200
G1 X126.422 Y102.178 E.00984
G1 X126.897 Y102.473 E.01753
G1 X127.322 Y102.858 E.01798
G1 X127.668 Y103.309 E.01782
G1 X127.939 Y103.841 E.01872
G1 X128.104 Y104.415 E.01873
G1 X128.16 Y104.983 E.0179
G1 X128.111 Y105.551 E.01788
G1 X127.952 Y106.126 E.01871
G1 X127.701 Y106.639 E.01791
G1 X127.345 Y107.117 E.01869
G1 X126.925 Y107.505 E.01793
G1 X126.422 Y107.822 E.01864
G1 X125.863 Y108.039 E.0188
G1 X125.038 Y108.158 E.02613
G1 X124.436 Y108.109 E.01894
G1 X123.886 Y107.956 E.0179
G1 X123.602 Y107.834 E.00969
G1 X123.103 Y107.527 E.01837
G1 X122.678 Y107.142 E.01798
G1 X122.332 Y106.691 E.01782
G1 X122.061 Y106.159 E.01872
G1 X121.896 Y105.585 E.01873
G1 X121.84 Y105.017 E.0179
G1 X121.889 Y104.449 E.01788
G1 X122.048 Y103.874 E.01871
G1 X122.299 Y103.361 E.01791
G1 X122.655 Y102.883 E.01869
G1 X123.075 Y102.495 E.01793
G1 X123.578 Y102.178 E.01864
G1 X124.137 Y101.961 E.0188
G1 X124.962 Y101.842 E.02613
G1 X125.564 Y101.891 E.01894
G1 X126.077 Y102.034 E.0167
M204 S1000
;WIPE_START
G1 F8640
G1 X126.134 Y102.053 E-.01387
G1 X126.422 Y102.178 E-.07249
G1 X126.897 Y102.473 E-.12911
G1 X127.322 Y102.858 E-.13241
G1 X127.668 Y103.309 E-.13125
G1 X127.939 Y103.841 E-.13786
G1 X128.104 Y104.415 E-.13791
G1 X128.16 Y104.983 E-.13179
G1 X128.118 Y105.472 E-.11331
;WIPE_END
G1 Z.4 F720
G1 X125.155 Y99.48 F10800
G1 Z.2 F720
G1 E1 F2100
M204 S800
;TYPE:Perimeter
G1 F1200
G1 X125.859 Y99.523 E.02211
G1 X126.509 Y99.666 E.02087
G1 X127.479 Y100.042 E.03262
M73 Q3 S10
G1 X128.063 Y100.379 E.02114
G1 X128.607 Y100.79 E.02138
G1 X129.097 Y101.265 E.0214
G1 X129.52 Y101.79 E.02114
G1 X130.105 Y102.86 E.03824
G1 X130.298 Y103.38 E.01739
G1 X130.477 Y104.201 E.02635
G1 X130.534 Y104.724 E.0165
M73 P3 R10
G1 X130.534 Y105.341 E.01935
G1 X130.451 Y106.01 E.02114
G1 X130.168 Y107.003 E.03237
G1 X129.709 Y107.926 E.03232
G1 X129.319 Y108.476 E.02114
G1 X128.865 Y108.974 E.02113
G1 X128.061 Y109.621 E.03236
G1 X127.16 Y110.104 E.03205
G1 X126.185 Y110.415 E.03209
G1 X125.17 Y110.54 E.03206
G1 X124.149 Y110.477 E.03207
G1 X123.158 Y110.228 E.03204
G1 X122.228 Y109.8 E.0321
G1 X121.387 Y109.204 E.03232
G1 X120.903 Y108.735 E.02113
G1 X120.48 Y108.21 E.02114
G1 X119.964 Y107.316 E.03236
G1 X119.625 Y106.352 E.03204
G1 X119.466 Y105.333 E.03234
G1 X119.466 Y104.659 E.02113
G1 X119.549 Y103.99 E.02114
G1 X119.832 Y102.997 E.03237
G1 X120.291 Y102.074 E.03232
G1 X120.681 Y101.524 E.02114
G1 X121.135 Y101.026 E.02113
G1 X121.939 Y100.379 E.03236
G1 X122.84 Y99.896 E.03205
G1 X123.815 Y99.585 E.03209
G1 X124.83 Y99.46 E.03206
G1 X125.095 Y99.476 E.00832
M204 S1000
G1 X125.178 Y99.104 F10800
M204 S800
;TYPE:External perimeter
G1 F1200
G1 X125.911 Y99.149 E.02303
G1 X126.618 Y99.304 E.02269
G1 X127.642 Y99.7 E.03442
G1 X128.271 Y100.064 E.02279
G1 X128.853 Y100.503 E.02286
G1 X129.376 Y101.01 E.02284
G1 X129.832 Y101.576 E.02279
G1 X130.098 Y102.038 E.01672
G1 X130.457 Y102.724 E.02428
G1 X130.664 Y103.288 E.01884
G1 X130.851 Y104.154 E.02778
G1 X130.911 Y104.724 E.01797
G1 X130.911 Y105.365 E.0201
G1 X130.821 Y106.086 E.02278
G1 X130.522 Y107.139 E.03432
G1 X130.033 Y108.12 E.03437
G1 X129.614 Y108.713 E.02277
G1 X129.124 Y109.25 E.02279
G1 X128.271 Y109.936 E.03432
G1 X127.308 Y110.453 E.03427
G1 X126.266 Y110.784 E.03428
G1 X125.182 Y110.919 E.03425
G1 X124.091 Y110.851 E.03427
G1 X123.032 Y110.585 E.03424
G1 X122.039 Y110.128 E.03427
G1 X121.145 Y109.495 E.03435
G1 X120.624 Y108.99 E.02275
G1 X120.168 Y108.424 E.02279
G1 X119.62 Y107.475 E.03436
G1 X119.257 Y106.444 E.03427
G1 X119.089 Y105.362 E.03433
G1 X119.089 Y104.635 E.02279
G1 X119.179 Y103.914 E.02278
G1 X119.478 Y102.861 E.03432
G1 X119.967 Y101.88 E.03437
G1 X120.386 Y101.287 E.02277
G1 X120.876 Y100.75 E.02279
G1 X121.729 Y100.064 E.03432
G1 X122.692 Y99.547 E.03427
G1 X123.734 Y99.216 E.03428
G1 X124.818 Y99.081 E.03425
G1 X125.119 Y99.1 E.00946
M204 S1000
;WIPE_START
G1 F8640
G1 X125.178 Y99.104 E-.01365
G1 X125.911 Y99.149 E-.16957
G1 X126.618 Y99.304 E-.16713
G1 X127.642 Y99.7 E-.25351
G1 X128.271 Y100.064 E-.1678
G1 X128.853 Y100.503 E-.16833
G1 X129.04 Y100.684 E-.06001
;WIPE_END
G1 Z.4 F720
G1 X127.737 Y100.365 F10800
G1 Z.2 F720
G1 E1 F2100
M204 S800
;TYPE:Solid infill
;WIDTH:0.429067
G1 F1200
G1 X128.886 Y101.513 E.05215
G1 X129.255 Y101.972 E.01891
G1 X129.75 Y102.83 E.0318
G1 X129.809 Y102.983 E.00527
G1 X127.042 Y100.216 E.12564
G1 X126.416 Y99.974 E.02155
G1 X126.208 Y99.928 E.00684
G1 X130.071 Y103.791 E.17541
G1 X130.134 Y104.04 E.00825
G1 X130.185 Y104.451 E.0133
G1 X125.56 Y99.826 E.21001
G1 X124.978 Y99.79 E.01872
G1 X126.753 Y101.565 E.0806
G1 X127.274 Y101.887 E.01967
G1 X127.817 Y102.365 E.02323
G1 X128.284 Y102.976 E.02469
G1 X128.403 Y103.215 E.00857
G1 X130.383 Y105.195 E.08991
M204 S1000
;WIPE_START
G1 F8640
G1 X128.403 Y103.215 E-.64656
G1 X128.284 Y102.976 E-.06165
G1 X127.817 Y102.365 E-.17757
G1 X127.446 Y102.038 E-.11422
;WIPE_END
G1 Z.4 F720
G1 X128.49 Y103.848 F10800
G1 Z.2 F720
G1 E1 F2100
M204 S800
G1 F1200
G1 X130.186 Y105.544 E.07701
G1 X130.115 Y106.019 E.01542
G1 X128.834 Y104.739 E.05814
G1 X128.858 Y105 E.00842
G1 X128.833 Y105.283 E.00912
G1 X129.994 Y106.444 E.05272
G1 X129.873 Y106.87 E.01422
G1 X128.773 Y105.77 E.04995
G1 X128.653 Y106.196 E.01421
G1 X129.694 Y107.236 E.04725
G1 X129.512 Y107.601 E.0131
M73 Q4 S10
G1 X128.5 Y106.589 E.04595
G1 X128.318 Y106.953 E.01307
G1 X129.306 Y107.94 E.04484
G1 X129.079 Y108.26 E.0126
G1 X128.095 Y107.276 E.04468
G1 X127.86 Y107.587 E.01252
M73 P4 R10
G1 X128.82 Y108.547 E.04359
G1 X128.645 Y108.74 E.00837
G1 X128.546 Y108.819 E.00407
G1 X127.578 Y107.851 E.04395
G1 X127.282 Y108.101 E.01244
G1 X128.244 Y109.063 E.04368
G1 X127.941 Y109.306 E.01247
G1 X126.942 Y108.307 E.04536
G1 X126.594 Y108.506 E.01287
G1 X127.596 Y109.507 E.04548
G1 X127.24 Y109.698 E.01297
G1 X126.199 Y108.656 E.04729
G1 X126.057 Y108.71 E.00488
G1 X125.752 Y108.755 E.0099
G1 X126.86 Y109.864 E.05033
G1 X126.446 Y109.995 E.01394
G1 X125.276 Y108.826 E.0531
G1 X125.077 Y108.856 E.00646
G1 X124.729 Y108.825 E.01122
G1 X126.017 Y110.112 E.05846
G1 X125.531 Y110.173 E.01573
G1 X123.847 Y108.489 E.07647
M204 S1000
;WIPE_START
G1 F8640
G1 X125.531 Y110.173 E-.5499
G1 X126.017 Y110.112 E-.1131
G1 X124.985 Y109.081 E-.337
;WIPE_END
G1 Z.4 F720
G1 X126.153 Y101.512 F10800
G1 Z.2 F720
G1 E1 F2100
M204 S800
G1 F1200
G1 X124.469 Y99.827 E.07649
G1 X123.983 Y99.888 E.01573
G1 X125.269 Y101.173 E.05837
G1 X124.922 Y101.144 E.01118
G1 X124.723 Y101.174 E.00646
G1 X123.554 Y100.005 E.05308
G1 X123.14 Y100.136 E.01394
G1 X124.248 Y101.245 E.05033
G1 X123.943 Y101.29 E.0099
G1 X123.801 Y101.344 E.00488
G1 X122.76 Y100.302 E.04729
G1 X122.404 Y100.493 E.01297
G1 X123.405 Y101.494 E.04545
G1 X123.058 Y101.693 E.01284
G1 X122.059 Y100.694 E.04536
G1 X121.756 Y100.937 E.01247
G1 X122.718 Y101.899 E.04368
G1 X122.422 Y102.149 E.01244
G1 X121.454 Y101.181 E.04395
G1 X121.355 Y101.26 E.00407
G1 X121.18 Y101.453 E.00837
G1 X122.14 Y102.413 E.04359
G1 X121.905 Y102.724 E.01252
G1 X120.921 Y101.74 E.04468
G1 X120.694 Y102.06 E.0126
G1 X121.682 Y103.047 E.04484
G1 X121.5 Y103.411 E.01307
G1 X120.488 Y102.399 E.04595
G1 X120.306 Y102.764 E.0131
G1 X121.347 Y103.804 E.04725
G1 X121.227 Y104.23 E.01421
G1 X120.127 Y103.131 E.04993
G1 X120.006 Y103.556 E.01419
G1 X121.167 Y104.717 E.05272
G1 X121.142 Y105 E.00912
G1 X121.165 Y105.26 E.00838
G1 X119.885 Y103.981 E.0581
G1 X119.814 Y104.456 E.01542
G1 X121.509 Y106.151 E.07697
M204 S1000
;WIPE_START
G1 F8640
G1 X119.814 Y104.456 E-.5535
G1 X119.885 Y103.981 E-.1109
G1 X120.913 Y105.009 E-.3356
;WIPE_END
G1 Z.4 F720
G1 X119.617 Y104.805 F10800
G1 Z.2 F720
G1 E1 F2100
M204 S800
G1 F1200
G1 X121.599 Y106.787 E.09
G1 X121.716 Y107.024 E.00849
G1 X122.182 Y107.634 E.02465
G1 X122.687 Y108.088 E.0218
G1 X123.242 Y108.43 E.02093
G1 X125.022 Y110.21 E.08083
G1 X124.44 Y110.174 E.01872
G1 X119.826 Y105.56 E.20951
G1 X119.926 Y106.206 E.02099
G1 X123.771 Y110.052 E.17462
G1 X123.265 Y109.924 E.01676
G1 X122.956 Y109.782 E.01092
G1 X120.203 Y107.029 E.12501
G1 X120.257 Y107.182 E.00521
G1 X120.745 Y108.028 E.03136
G1 X121.115 Y108.487 E.01893
G1 X122.278 Y109.651 E.05283
M204 S1000
;LAYER_CHANGE
;Z:0.35
;HEIGHT:0.15
;BEFORE_LAYER_CHANGE
G92 E0.0
;0.35


;WIPE_START
G1 F8640
G1 X121.115 Y108.487 E-.37994
G1 X120.745 Y108.028 E-.13613
G1 X120.257 Y107.182 E-.22551
G1 X120.203 Y107.029 E-.03746
G1 X120.88 Y107.706 E-.22096
;WIPE_END
G1 Z.35 F720
;AFTER_LAYER_CHANGE
;0.35
M104 S230 ; set temperature
M140 S85 ; set bed temperature
; stop printing object Rear Foot 3.stl id:0 copy 0
G1 Z.55
G1 X120.2 Y113.081 F10800
G1 Z.35 F720
G1 E1 F2100
;TYPE:Skirt/Brim
;WIDTH:0.42
G1 F2217
G1 X119.384 Y112.587 E.02307
G1 X118.086 Y111.426 E.04212
G1 X117.023 Y110.045 E.04215
G1 X116.166 Y108.325 E.04648
M73 Q5 S10
G1 X115.706 Y106.645 E.04213
G1 X115.585 Y105.672 E.02371
G1 X115.574 Y104.509 E.02813
G1 X115.824 Y102.786 E.04211
G1 X116.463 Y100.973 E.04649
G1 X117.349 Y99.472 E.04215
M73 P5 R10
G1 X118.495 Y98.161 E.04211
G1 X119.862 Y97.082 E.04212
G1 X120.712 Y96.591 E.02374
G1 X121.778 Y96.128 E.02811
G1 X123.463 Y95.687 E.04212
G1 X125.381 Y95.569 E.04647
G1 X127.108 Y95.799 E.04214
G1 X128.222 Y96.128 E.02809
G1 X129.126 Y96.511 E.02374
G1 X130.616 Y97.413 E.04212
