; generated by PrusaSlicer 2.9.4 on 2026-03-18 at 00:35:35 UTC


;
;
; 

; external perimeters extrusion width = 0.45mm
; perimeters extrusion width = 0.45mm
; infill extrusion width = 0.45mm
; solid infill extrusion width = 0.45mm
; top infill extrusion width = 0.40mm
; first layer extrusion width = 0.42mm

M73 P0 R76
M73 Q0 S76
M201 X1000 Y1000 Z200 E5000 ; sets maximum accelerations, mm/sec^2
M203 X200 Y200 Z12 E120 ; sets maximum feedrates, mm / sec
M204 S1250 T1250 ; sets acceleration (S) and retract acceleration (R), mm/sec^2
M205 X8.00 Y8.00 Z0.40 E4.50 ; sets the jerk limits, mm/sec
M205 S0 T0 ; sets the minimum extruding and travel feed rate, mm/sec

; printing object Stand.stl id:0 copy 0
; stop printing object Stand.stl id:0 copy 0

;TYPE:Custom
M862.3 P "MK3S" ; printer model check
M862.1 P0.4 ; nozzle diameter check
M115 U3.14.1 ; tell printer latest fw version
G90 ; use absolute coordinates
M83 ; extruder relative mode
M104 S240 ; set extruder temp
M140 S90 ; set bed temp
M190 S90 ; wait for bed temp
M109 S240 ; wait for extruder temp
G28 W ; home all without mesh bed level
G80 X54.1314 Y74.2034 W141.737 H61.5931 ; mesh bed levelling

G1 Z0.2 F720
G1 Y-3 F1000 ; go outside print area
G92 E0
G1 X60 E9 F1000 ; intro line
G1 X100 E12.5 F1000 ; intro line

G92 E0
M221 S95

; Don't change E values below. Excessive value can damage the printer.
M907 E430 ; set extruder motor current
G21 ; set units to millimeters
G90 ; use absolute coordinates
M83 ; use relative distances for extrusion

M900 K0.08 ; Filament gcode LA 1.5
M900 K45 ; Filament gcode LA 1.0




M107
;LAYER_CHANGE
;Z:0.2
;HEIGHT:0.2
G1 E-1 F2100
G1 Z.4 F720
G1 X57.502 Y75.607 F10800
G1 Z.2 F720
G1 E1 F2100
M204 S800
;TYPE:Skirt/Brim
;WIDTH:0.42
G1 F1200
G1 X58.667 Y74.976 E.04154
G1 X59.929 Y74.57 E.04157
G1 X61.459 Y74.392 E.0483
G1 X188.756 Y74.403 E3.99131
G1 X190.071 Y74.57 E.04156
G1 X191.333 Y74.976 E.04157
G1 X192.498 Y75.607 E.04154
G1 X193.528 Y76.442 E.04157
G1 X194.386 Y77.451 E.04153
G1 X195.045 Y78.601 E.04156
G1 X195.481 Y79.853 E.04157
G1 X195.68 Y81.15 E.04114
G1 X195.68 Y128.85 E1.4956
G1 X195.373 Y130.536 E.05373
G1 X195.045 Y131.399 E.02895
G1 X194.386 Y132.549 E.04156
G1 X193.231 Y133.832 E.05413
G1 X192.156 Y134.607 E.04155
G1 X191.333 Y135.024 E.02893
G1 X190.071 Y135.43 E.04157
G1 X188.541 Y135.608 E.0483
G1 X61.459 Y135.608 E3.98457
G1 X60.326 Y135.507 E.03567
M73 P0 R75
G1 X59.043 Y135.172 E.04158
G1 X57.502 Y134.393 E.05414
G1 X56.472 Y133.558 E.04157
G1 X55.855 Y132.873 E.02891
G1 X54.955 Y131.399 E.05415
G1 X54.519 Y130.147 E.04157
G1 X54.32 Y128.85 E.04114
G1 X54.32 Y81.15 E1.4956
G1 X54.627 Y79.464 E.05373
G1 X55.133 Y78.239 E.04156
G1 X55.614 Y77.451 E.02895
G1 X56.769 Y76.168 E.05413
G1 X57.454 Y75.644 E.02704
M204 S1000
;WIPE_START
G1 F8640
G1 X57.502 Y75.607 E-.01399
G1 X58.667 Y74.976 E-.30593
G1 X59.929 Y74.57 E-.30611
G1 X61.459 Y74.392 E-.35566
G1 X61.538 Y74.392 E-.01831
;WIPE_END
G1 Z.4 F720
; printing object Stand.stl id:0 copy 0
G1 X80.907 Y104.995 F10800
G1 Z.2 F720
G1 E1 F2100
M204 S800
;TYPE:Perimeter
;WIDTH:0.419999
G1 F1200
G1 X80.898 Y104.829 E.00521
G1 X80.737 Y104.58 E.0093
G1 X58.698 Y84.736 E.92985
G1 X58.146 Y84.138 E.02552
G1 X57.734 Y83.481 E.02432
G1 X57.446 Y82.746 E.02475
G1 X57.301 Y81.995 E.02398
G1 X57.296 Y81.218 E.02436
G1 X57.434 Y80.453 E.02437
G1 X57.71 Y79.727 E.02435
G1 X58.115 Y79.064 E.02436
G1 X58.635 Y78.487 E.02435
G1 X59.252 Y78.015 E.02436
G1 X59.945 Y77.665 E.02434
G1 X60.691 Y77.447 E.02437
G1 X61.464 Y77.371 E.02435
G1 X62.238 Y77.438 E.02436
G1 X62.986 Y77.646 E.02434
G1 X63.684 Y77.988 E.02437
G1 X64.336 Y78.474 E.0255
G1 X87.11 Y98.98 E.96087
G1 X87.954 Y99.719 E.03517
G1 X88.224 Y99.787 E.00873
G1 X161.776 Y99.787 E2.30617
G1 X161.945 Y99.761 E.00536
G1 X162.155 Y99.642 E.00757
G1 X185.664 Y78.474 E.99188
G1 X186.316 Y77.988 E.0255
G1 X187.014 Y77.646 E.02437
G1 X187.761 Y77.438 E.02431
G1 X188.547 Y77.372 E.02473
G1 X189.309 Y77.447 E.02401
G1 X190.055 Y77.665 E.02437
G1 X190.748 Y78.015 E.02434
G1 X191.365 Y78.487 E.02436
G1 X191.885 Y79.064 E.02435
G1 X192.29 Y79.727 E.02436
G1 X192.566 Y80.453 E.02435
G1 X192.704 Y81.218 E.02437
G1 X192.699 Y81.995 E.02436
G1 X192.552 Y82.757 E.02433
G1 X192.267 Y83.48 E.02437
G1 X191.854 Y84.138 E.02436
G1 X191.157 Y84.866 E.0316
G1 X169.205 Y104.632 E.92619
G1 X169.086 Y104.891 E.00894
G1 X169.102 Y105.171 E.00879
G1 X169.263 Y105.42 E.0093
G1 X191.302 Y125.264 E.92985
G1 X191.854 Y125.862 E.02552
G1 X192.267 Y126.52 E.02436
G1 X192.552 Y127.243 E.02437
G1 X192.699 Y128.005 E.02433
G1 X192.704 Y128.782 E.02436
G1 X192.566 Y129.547 E.02437
G1 X192.29 Y130.273 E.02435
G1 X191.885 Y130.936 E.02436
G1 X191.365 Y131.513 E.02435
G1 X190.748 Y131.985 E.02436
G1 X190.055 Y132.335 E.02434
G1 X189.309 Y132.553 E.02437
G1 X188.536 Y132.629 E.02435
G1 X187.762 Y132.562 E.02436
G1 X187.014 Y132.354 E.02434
G1 X186.316 Y132.012 E.02437
G1 X185.664 Y131.526 E.0255
G1 X162.89 Y111.02 E.96087
G1 X162.046 Y110.281 E.03517
G1 X161.776 Y110.213 E.00873
G1 X88.224 Y110.213 E2.30617
G1 X88.055 Y110.239 E.00536
M73 P1 R75
M73 Q1 S76
G1 X87.845 Y110.358 E.00757
G1 X64.336 Y131.526 E.99188
G1 X63.684 Y132.012 E.0255
G1 X62.986 Y132.354 E.02437
G1 X62.238 Y132.562 E.02434
G1 X61.464 Y132.629 E.02436
G1 X60.691 Y132.553 E.02435
G1 X59.945 Y132.335 E.02437
G1 X59.252 Y131.985 E.02434
G1 X58.635 Y131.513 E.02436
G1 X58.115 Y130.936 E.02435
G1 X57.71 Y130.273 E.02436
G1 X57.434 Y129.547 E.02435
G1 X57.296 Y128.782 E.02437
G1 X57.301 Y128.006 E.02433
G1 X57.452 Y127.232 E.02473
G1 X57.733 Y126.52 E.024
G1 X58.146 Y125.862 E.02436
G1 X58.843 Y125.134 E.0316
G1 X80.795 Y105.368 E.92619
G1 X80.914 Y105.109 E.00894
G1 X80.911 Y105.055 E.0017
M204 S1000
G1 X80.529 Y104.959 F10800
M204 S800
;TYPE:External perimeter
G1 F1200
G1 X80.485 Y104.86 E.0034
G1 X58.433 Y85.004 E.93041
G1 X57.846 Y84.368 E.02714
G1 X57.396 Y83.651 E.02654
G1 X57.082 Y82.851 E.02695
G1 X56.924 Y82.032 E.02615
G1 X56.919 Y81.185 E.02656
G1 X57.069 Y80.352 E.02654
G1 X57.37 Y79.561 E.02654
G1 X57.811 Y78.838 E.02655
G1 X58.378 Y78.209 E.02655
G1 X59.051 Y77.694 E.02657
G1 X59.806 Y77.312 E.02653
G1 X60.619 Y77.076 E.02654
G1 X61.462 Y76.992 E.02656
G1 X62.305 Y77.065 E.02653
G1 X63.121 Y77.292 E.02656
G1 X63.881 Y77.665 E.02654
G1 X64.575 Y78.182 E.02713
G1 X88.098 Y99.362 E.99246
G1 X88.224 Y99.41 E.00423
G1 X161.776 Y99.41 E2.30617
G1 X161.902 Y99.362 E.00423
M73 Q1 S75
G1 X185.425 Y78.182 E.99246
G1 X186.119 Y77.665 E.02713
G1 X186.879 Y77.292 E.02654
G1 X187.695 Y77.065 E.02656
G1 X188.55 Y76.993 E.0269
G1 X189.381 Y77.076 E.02619
G1 X190.194 Y77.312 E.02654
G1 X190.949 Y77.694 E.02653
G1 X191.622 Y78.209 E.02657
G1 X192.188 Y78.838 E.02653
G1 X192.63 Y79.561 E.02657
G1 X192.931 Y80.352 E.02654
G1 X193.081 Y81.185 E.02654
G1 X193.076 Y82.032 E.02656
G1 X192.915 Y82.863 E.02654
G1 X192.605 Y83.651 E.02655
G1 X192.154 Y84.368 E.02656
G1 X191.567 Y85.004 E.02714
G1 X169.515 Y104.86 E.93041
G1 X169.453 Y105 E.0048
G1 X169.515 Y105.14 E.0048
G1 X191.567 Y124.996 E.93041
G1 X192.154 Y125.632 E.02714
G1 X192.605 Y126.349 E.02656
G1 X192.915 Y127.137 E.02655
G1 X193.076 Y127.968 E.02654
G1 X193.081 Y128.815 E.02656
G1 X192.931 Y129.648 E.02654
G1 X192.63 Y130.439 E.02654
G1 X192.188 Y131.162 E.02657
G1 X191.622 Y131.791 E.02653
G1 X190.949 Y132.306 E.02657
G1 X190.194 Y132.688 E.02653
G1 X189.381 Y132.924 E.02654
G1 X188.538 Y133.008 E.02656
G1 X187.695 Y132.935 E.02653
G1 X186.879 Y132.708 E.02656
G1 X186.119 Y132.335 E.02654
G1 X185.425 Y131.818 E.02713
G1 X161.902 Y110.638 E.99246
G1 X161.776 Y110.59 E.00423
G1 X88.224 Y110.59 E2.30617
G1 X88.098 Y110.638 E.00423
G1 X64.575 Y131.818 E.99246
G1 X63.881 Y132.335 E.02713
G1 X63.121 Y132.708 E.02654
G1 X62.305 Y132.935 E.02656
G1 X61.462 Y133.008 E.02653
G1 X60.619 Y132.924 E.02656
G1 X59.806 Y132.688 E.02654
G1 X59.051 Y132.306 E.02653
G1 X58.378 Y131.791 E.02657
G1 X57.811 Y131.162 E.02655
G1 X57.37 Y130.439 E.02655
G1 X57.069 Y129.648 E.02654
G1 X56.919 Y128.815 E.02654
G1 X56.924 Y127.968 E.02656
G1 X57.089 Y127.126 E.0269
G1 X57.395 Y126.349 E.02618
G1 X57.846 Y125.632 E.02656
G1 X58.433 Y124.996 E.02714
G1 X80.485 Y105.14 E.93041
G1 X80.541 Y105.014 E.00432
M204 S1000
;WIPE_START
G1 F8640
G1 X80.529 Y104.959 E-.013
G1 X80.485 Y104.86 E-.02502
G1 X77.389 Y102.072 E-.96198
;WIPE_END
G1 Z.4 F720
G1 X192.428 Y80.539 F10800
G1 Z.2 F720
G1 E1 F2100
M204 S800
;TYPE:Solid infill
;WIDTH:0.420685
G1 F1200
G1 X189.819 Y77.93 E.1159
G1 X189.248 Y77.763 E.01869
G1 X189.104 Y77.749 E.00454
G1 X192.335 Y80.98 E.14353
G1 X192.383 Y81.246 E.00849
G1 X192.381 Y81.561 E.00989
G1 X188.517 Y77.696 E.17167
G1 X188.024 Y77.738 E.01554
G1 X192.358 Y82.071 E.1925
G1 X192.271 Y82.519 E.01434
G1 X187.575 Y77.823 E.20861
G1 X187.157 Y77.939 E.01363
G1 X192.142 Y82.924 E.22145
G1 X191.991 Y83.307 E.01293
G1 X186.794 Y78.11 E.23086
G1 X186.443 Y78.293 E.01243
G1 X191.788 Y83.639 E.23746
G1 X191.579 Y83.963 E.01211
G1 X186.137 Y78.521 E.24175
G1 X185.834 Y78.753 E.01199
G1 X191.322 Y84.241 E.24379
G1 X191.065 Y84.518 E.01187
G1 X185.553 Y79.006 E.24486
G1 X185.271 Y79.259 E.0119
G1 X190.784 Y84.771 E.24488
G1 X190.503 Y85.024 E.01188
G1 X184.99 Y79.512 E.24488
G1 X184.709 Y79.765 E.01188
G1 X190.221 Y85.277 E.24486
G1 X189.94 Y85.53 E.01188
G1 X184.428 Y80.018 E.24486
G1 X184.147 Y80.271 E.01188
G1 X189.659 Y85.783 E.24486
G1 X189.378 Y86.037 E.0119
G1 X183.866 Y80.524 E.24488
G1 X183.585 Y80.777 E.01188
G1 X189.097 Y86.29 E.24488
G1 X188.816 Y86.543 E.01188
G1 X183.304 Y81.031 E.24486
G1 X183.022 Y81.284 E.0119
G1 X188.535 Y86.796 E.24488
G1 X188.254 Y87.049 E.01188
G1 X182.741 Y81.537 E.24488
G1 X182.46 Y81.79 E.01188
G1 X187.972 Y87.302 E.24486
G1 X187.691 Y87.555 E.01188
G1 X182.179 Y82.043 E.24486
G1 X181.898 Y82.296 E.01188
G1 X187.41 Y87.808 E.24486
G1 X187.129 Y88.062 E.0119
M73 P1 R74
G1 X181.617 Y82.549 E.24488
G1 X181.336 Y82.802 E.01188
G1 X186.848 Y88.315 E.24488
G1 X186.567 Y88.568 E.01188
G1 X181.055 Y83.056 E.24486
G1 X180.774 Y83.309 E.01188
G1 X186.286 Y88.821 E.24486
G1 X186.005 Y89.074 E.01188
G1 X180.492 Y83.562 E.24488
G1 X180.211 Y83.815 E.01188
G1 X185.724 Y89.327 E.24488
G1 X185.442 Y89.58 E.0119
G1 X179.93 Y84.068 E.24486
G1 X179.649 Y84.321 E.01188
G1 X185.161 Y89.833 E.24486
G1 X184.88 Y90.087 E.0119
G1 X179.368 Y84.574 E.24488
G1 X179.087 Y84.827 E.01188
G1 X184.599 Y90.34 E.24488
G1 X184.318 Y90.593 E.01188
G1 X178.806 Y85.081 E.24486
G1 X178.525 Y85.334 E.01188
G1 X184.037 Y90.846 E.24486
G1 X183.756 Y91.099 E.01188
G1 X178.243 Y85.587 E.24488
G1 X177.962 Y85.84 E.01188
G1 X183.475 Y91.352 E.24488
G1 X183.193 Y91.605 E.0119
G1 X177.681 Y86.093 E.24486
G1 X177.4 Y86.346 E.01188
G1 X182.912 Y91.858 E.24486
G1 X182.631 Y92.112 E.0119
G1 X177.119 Y86.599 E.24488
G1 X176.838 Y86.852 E.01188
G1 X182.35 Y92.365 E.24488
G1 X182.069 Y92.618 E.01188
G1 X176.557 Y87.106 E.24486
G1 X176.276 Y87.359 E.01188
G1 X181.788 Y92.871 E.24486
G1 X181.507 Y93.124 E.01188
G1 X175.994 Y87.612 E.24488
G1 X175.713 Y87.865 E.01188
M73 P2 R74
M73 Q2 S75
G1 X181.226 Y93.377 E.24488
G1 X180.944 Y93.63 E.0119
G1 X175.432 Y88.118 E.24486
G1 X175.151 Y88.371 E.01188
G1 X180.663 Y93.883 E.24486
G1 X180.382 Y94.136 E.01188
G1 X174.87 Y88.624 E.24486
G1 X174.589 Y88.877 E.01188
G1 X180.101 Y94.39 E.24488
G1 X179.82 Y94.643 E.01188
G1 X174.308 Y89.13 E.24488
G1 X174.027 Y89.384 E.0119
G1 X179.539 Y94.896 E.24486
G1 X179.258 Y95.149 E.01188
G1 X173.746 Y89.637 E.24486
G1 X173.464 Y89.89 E.0119
G1 X178.977 Y95.402 E.24488
G1 X178.696 Y95.655 E.01188
G1 X173.183 Y90.143 E.24488
G1 X172.902 Y90.396 E.01188
G1 X178.414 Y95.908 E.24486
G1 X178.133 Y96.161 E.01188
G1 X172.621 Y90.649 E.24486
G1 X172.34 Y90.902 E.01188
G1 X177.852 Y96.415 E.24488
G1 X177.571 Y96.668 E.01188
G1 X172.059 Y91.155 E.24488
G1 X171.778 Y91.409 E.0119
G1 X177.29 Y96.921 E.24486
G1 X177.009 Y97.174 E.01188
G1 X171.497 Y91.662 E.24486
G1 X171.215 Y91.915 E.0119
G1 X176.728 Y97.427 E.24488
G1 X176.447 Y97.68 E.01188
G1 X170.934 Y92.168 E.24488
G1 X170.653 Y92.421 E.01188
G1 X176.165 Y97.933 E.24486
G1 X175.884 Y98.186 E.01188
G1 X170.372 Y92.674 E.24486
G1 X170.091 Y92.927 E.01188
G1 X175.603 Y98.44 E.24488
G1 X175.322 Y98.693 E.01188
G1 X169.81 Y93.18 E.24488
G1 X169.529 Y93.434 E.0119
G1 X175.041 Y98.946 E.24486
G1 X174.76 Y99.199 E.01188
G1 X169.248 Y93.687 E.24486
G1 X168.967 Y93.94 E.01188
G1 X174.479 Y99.452 E.24486
G1 X174.198 Y99.705 E.01188
G1 X168.685 Y94.193 E.24488
G1 X168.404 Y94.446 E.01188
G1 X173.917 Y99.958 E.24488
G1 X173.635 Y100.211 E.0119
G1 X168.123 Y94.699 E.24486
G1 X167.842 Y94.952 E.01188
G1 X173.354 Y100.465 E.24488
G1 X173.073 Y100.718 E.01188
G1 X167.561 Y95.205 E.24488
G1 X167.28 Y95.459 E.0119
G1 X172.792 Y100.971 E.24486
G1 X172.511 Y101.224 E.01188
G1 X166.999 Y95.712 E.24486
G1 X166.718 Y95.965 E.01188
G1 X172.23 Y101.477 E.24486
G1 X171.949 Y101.73 E.01188
G1 X166.436 Y96.218 E.24488
G1 X166.155 Y96.471 E.01188
G1 X171.668 Y101.983 E.24488
G1 X171.386 Y102.236 E.0119
G1 X165.874 Y96.724 E.24486
G1 X165.593 Y96.977 E.01188
G1 X171.105 Y102.489 E.24486
G1 X170.824 Y102.743 E.0119
G1 X165.312 Y97.23 E.24488
G1 X165.031 Y97.483 E.01188
G1 X170.543 Y102.996 E.24488
G1 X170.262 Y103.249 E.01188
G1 X164.75 Y97.737 E.24486
G1 X164.469 Y97.99 E.01188
G1 X169.981 Y103.502 E.24486
G1 X169.7 Y103.755 E.01188
G1 X164.187 Y98.243 E.24488
G1 X163.906 Y98.496 E.01188
G1 X169.419 Y104.008 E.24488
G1 X169.137 Y104.261 E.0119
G1 X163.625 Y98.749 E.24486
G1 X163.344 Y99.002 E.01188
G1 X169.01 Y104.668 E.2517
M204 S1000
;WIPE_START
G1 F8640
G1 X165.948 Y101.606 E-1
;WIPE_END
G1 Z.4 F720
G1 X187.042 Y121.632 F10800
G1 Z.2 F720
G1 E1 F2100
M204 S800
G1 F1200
G1 X191.817 Y126.407 E.21212
G1 X191.979 Y126.665 E.00957
G1 X192.251 Y127.375 E.02388
G1 X183.971 Y119.095 E.36782
G1 X178.607 Y114.265 E.22673
G1 X192.379 Y128.037 E.61178
G1 X192.382 Y128.575 E.0169
G1 X173.243 Y109.435 E.85022
G1 X169.043 Y105.654 E.17751
M73 Q2 S74
G1 X168.926 Y105.524 E.00549
G1 X168.835 Y105.368 E.00567
G1 X168.771 Y105.172 E.00648
G1 X168.759 Y104.952 E.00692
G1 X163.063 Y99.255 E.25305
G1 X162.782 Y99.508 E.01188
G1 X192.329 Y129.055 E1.31254
G1 X192.24 Y129.501 E.01429
G1 X162.501 Y99.762 E1.32107
G1 X162.361 Y99.887 E.0059
G1 X162.196 Y99.991 E.00613
G1 X192.093 Y129.888 E1.32809
G1 X192.001 Y130.131 E.00816
G1 X191.925 Y130.255 E.00457
G1 X161.769 Y100.099 E1.3396
G1 X161.235 Y100.099 E.01677
G1 X191.723 Y130.586 E1.35432
G1 X191.627 Y130.743 E.00578
G1 X191.494 Y130.891 E.00625
G1 X160.701 Y100.099 E1.36787
G1 X160.167 Y100.099 E.01677
G1 X191.24 Y131.172 E1.38033
G1 X191.147 Y131.276 E.00438
G1 X190.956 Y131.422 E.00755
G1 X159.633 Y100.099 E1.39144
G1 X159.098 Y100.099 E.01681
G1 X190.653 Y131.654 E1.40174
G1 X190.577 Y131.712 E.003
G1 X190.312 Y131.846 E.00933
G1 X158.564 Y100.099 E1.4103
G1 X158.03 Y100.099 E.01677
M73 P3 R74
G1 X189.957 Y132.026 E1.41827
G1 X189.546 Y132.15 E.01348
M73 Q3 S74
G1 X157.496 Y100.099 E1.42376
G1 X156.962 Y100.099 E.01677
G1 X189.113 Y132.25 E1.42822
G1 X188.626 Y132.298 E.01537
M73 P3 R73
G1 X156.427 Y100.099 E1.43035
G1 X155.893 Y100.099 E.01677
G1 X188.06 Y132.266 E1.42893
G1 X187.819 Y132.245 E.0076
G1 X187.384 Y132.125 E.01417
G1 X155.359 Y100.099 E1.42265
G1 X154.825 Y100.099 E.01677
G1 X186.402 Y131.677 E1.40274
G1 X185.867 Y131.278 E.02096
G1 X181.869 Y127.678 E.16899
G1 X154.291 Y100.099 E1.2251
G1 X153.757 Y100.1 E.01677
G1 X176.505 Y122.848 E1.01052
G1 X171.141 Y118.018 E.22673
G1 X153.222 Y100.1 E.79598
G1 X152.688 Y100.1 E.01677
G1 X165.777 Y113.188 E.58142
G1 X162.361 Y110.113 E.14437
G1 X162.121 Y109.961 E.00892
G1 X161.973 Y109.919 E.00483
G1 X152.154 Y100.1 E.43618
G1 X151.62 Y100.1 E.01677
G1 X161.422 Y109.901 E.4354
G1 X160.887 Y109.901 E.01681
G1 X151.086 Y100.1 E.43538
G1 X150.552 Y100.1 E.01677
G1 X160.353 Y109.901 E.43538
G1 X159.819 Y109.901 E.01677
G1 X150.017 Y100.1 E.4354
G1 X149.483 Y100.1 E.01677
G1 X159.284 Y109.901 E.43538
G1 X158.75 Y109.901 E.01677
G1 X148.949 Y100.1 E.43538
G1 X148.415 Y100.1 E.01677
