; generated by PrusaSlicer 2.9.4 on 2026-03-20 at 00:23:41 UTC


;
;
; 

; external perimeters extrusion width = 0.45mm
; perimeters extrusion width = 0.45mm
; infill extrusion width = 0.45mm
; solid infill extrusion width = 0.45mm
; top infill extrusion width = 0.40mm
; first layer extrusion width = 0.50mm

M73 P0 R106
M73 Q0 S107
M201 X1000 Y1000 Z200 E5000 ; sets maximum accelerations, mm/sec^2
M203 X200 Y200 Z12 E120 ; sets maximum feedrates, mm / sec
M204 S1250 T1250 ; sets acceleration (S) and retract acceleration (R), mm/sec^2
M205 X8.00 Y8.00 Z0.40 E4.50 ; sets the jerk limits, mm/sec
M205 S0 T0 ; sets the minimum extruding and travel feed rate, mm/sec

; printing object Stand.stl id:0 copy 0
; stop printing object Stand.stl id:0 copy 0

;TYPE:Custom
M862.3 P "MK3S" ; printer model check
M862.1 P0.4 ; nozzle diameter check
M115 U3.14.1 ; tell printer latest fw version
G90 ; use absolute coordinates
M83 ; extruder relative mode
M104 S240 ; set extruder temp
M140 S90 ; set bed temp
M190 S90 ; wait for bed temp
M109 S240 ; wait for extruder temp
G28 W ; home all without mesh bed level
G80 X49.0001 Y69.0723 W152 H71.8554 ; mesh bed levelling

G1 Z0.2 F720
G1 Y-3 F1000 ; go outside print area
G92 E0
G1 X60 E9 F1000 ; intro line
G1 X100 E12.5 F1000 ; intro line

G92 E0
M221 S95

; Don't change E values below. Excessive value can damage the printer.
M907 E430 ; set extruder motor current
G21 ; set units to millimeters
G90 ; use absolute coordinates
M83 ; use relative distances for extrusion

M900 K0.08 ; Filament gcode LA 1.5
M900 K45 ; Filament gcode LA 1.0




M107
;LAYER_CHANGE
;Z:0.2
;HEIGHT:0.2
G1 E-1 F2100
M73 Q0 S106
G1 Z.4 F720
G1 X53.493 Y72.265 F10800
G1 Z.2 F720
G1 E1 F2100
M204 S800
;TYPE:Skirt/Brim
;WIDTH:0.5
G1 F900
G1 X55.162 Y71.056 E.07833
G1 X56.577 Y70.33 E.06044
G1 X57.398 Y70.006 E.03355
G1 X58.928 Y69.57 E.06046
G1 X61.178 Y69.304 E.08611
G1 X188.336 Y69.301 E4.83281
G1 X190.609 Y69.481 E.08666
G1 X192.797 Y70.072 E.08614
G1 X194.838 Y71.056 E.08612
G1 X196.665 Y72.398 E.08616
G1 X198.082 Y73.893 E.07829
G1 X198.495 Y74.431 E.02578
G1 X199.638 Y76.387 E.0861
G1 X200.403 Y78.52 E.08612
G1 X200.763 Y80.758 E.08615
G1 X200.722 Y129.712 E1.86056
G1 X200.403 Y131.48 E.06828
G1 X199.72 Y133.424 E.07831
G1 X199.332 Y134.217 E.03355
G1 X198.495 Y135.569 E.06043
G1 X197.156 Y137.136 E.07834
G1 X196.507 Y137.734 E.03354
G1 X194.838 Y138.944 E.07835
G1 X193.423 Y139.67 E.06044
G1 X192.602 Y139.994 E.03355
G1 X191.072 Y140.43 E.06046
G1 X188.822 Y140.696 E.08611
G1 X61.178 Y140.696 E4.85128
G1 X59.391 Y140.519 E.06825
M73 P0 R105
G1 X57.398 Y139.994 E.07833
G1 X56.577 Y139.67 E.03355
G1 X54.762 Y138.693 E.07834
G1 X53.336 Y137.602 E.06824
G1 X51.918 Y136.107 E.07831
G1 X51.39 Y135.399 E.03357
G1 X50.361 Y133.613 E.07834
G1 X49.597 Y131.48 E.08611
G1 X49.305 Y129.916 E.06047
G1 X49.229 Y129.05 E.03304
G1 X49.278 Y80.288 E1.85327
G1 X49.597 Y78.52 E.06828
G1 X50.279 Y76.576 E.0783
G1 X50.668 Y75.783 E.03357
G1 X51.505 Y74.431 E.06043
G1 X52.844 Y72.864 E.07834
G1 X53.449 Y72.306 E.03128
M204 S1000
;WIPE_START
G1 F8640
G1 X53.493 Y72.265 E-.01389
G1 X55.162 Y71.056 E-.47586
G1 X56.577 Y70.33 E-.36722
G1 X57.153 Y70.102 E-.14303
;WIPE_END
G1 Z.4 F720
G1 X55.299 Y74.517 F10800
G1 Z.2 F720
G1 E1 F2100
M204 S800
G1 F900
G1 X56.498 Y73.626 E.05677
G1 X57.82 Y72.934 E.05671
G1 X59.945 Y72.315 E.08412
G1 X61.431 Y72.189 E.05668
G1 X62.924 Y72.297 E.05689
G1 X65.057 Y72.891 E.08415
G1 X66.433 Y73.595 E.05874
G1 X67.686 Y74.522 E.05924
G1 X89.995 Y94.608 E1.14091
G1 X160.005 Y94.608 E2.66082
G1 X182.337 Y74.503 E1.14204
G1 X183.514 Y73.628 E.05574
G1 X185.22 Y72.785 E.07232
G1 X187.056 Y72.302 E.07215
G1 X188.84 Y72.195 E.06793
G1 X190.542 Y72.411 E.06521
G1 X192.152 Y72.924 E.06422
G1 X193.686 Y73.744 E.06611
G1 X195.063 Y74.852 E.06717
G1 X196.039 Y75.966 E.05629
G1 X196.832 Y77.226 E.05658
G1 X197.515 Y78.914 E.06921
G1 X197.858 Y80.679 E.06834
G1 X197.864 Y82.418 E.06609
G1 X197.53 Y84.194 E.06868
G1 X196.874 Y85.852 E.06777
G1 X196 Y87.246 E.06253
G1 X194.868 Y88.494 E.06404
G1 X176.537 Y105 E.93751
G1 X194.865 Y121.503 E.93735
G1 X195.918 Y122.647 E.05909
G1 X197.002 Y124.405 E.0785
G1 X197.541 Y125.842 E.05833
G1 X197.837 Y127.314 E.05707
G1 X197.849 Y129.416 E.07989
G1 X197.559 Y130.932 E.05866
G1 X197.025 Y132.383 E.05876
G1 X196.096 Y133.956 E.06943
G1 X194.875 Y135.325 E.06972
G1 X193.447 Y136.409 E.06814
G1 X191.798 Y137.217 E.06979
G1 X190.1 Y137.676 E.06685
G1 X188.576 Y137.811 E.05815
G1 X187.05 Y137.697 E.05816
G1 X185.339 Y137.259 E.06713
G1 X183.796 Y136.542 E.06467
G1 X182.32 Y135.483 E.06904
G1 X160.005 Y115.392 E1.14121
G1 X89.995 Y115.392 E2.66082
G1 X67.663 Y135.497 E1.14204
G1 X66.486 Y136.373 E.05576
G1 X64.774 Y137.218 E.07256
G1 X62.913 Y137.704 E.0731
G1 X61.433 Y137.811 E.0564
G1 X59.944 Y137.684 E.0568
G1 X57.86 Y137.082 E.08244
G1 X56.315 Y136.256 E.06658
G1 X54.933 Y135.143 E.06744
G1 X53.817 Y133.836 E.06532
G1 X53.038 Y132.514 E.05832
G1 X52.494 Y131.118 E.05694
G1 X52.144 Y129.339 E.06891
G1 X52.141 Y127.524 E.06898
G1 X52.482 Y125.772 E.06784
G1 X53.162 Y124.078 E.06938
G1 X54.033 Y122.711 E.0616
G1 X55.133 Y121.505 E.06204
G1 X73.464 Y105 E.93749
G1 X55.13 Y88.492 E.93765
M73 P1 R105
M73 Q1 S106
G1 X53.994 Y87.238 E.06431
M73 Q1 S105
G1 X53.099 Y85.799 E.06441
G1 X52.439 Y84.085 E.06981
G1 X52.147 Y82.532 E.06006
G1 X52.118 Y80.955 E.05995
G1 X52.456 Y79.015 E.07484
G1 X53.057 Y77.448 E.06379
G1 X53.934 Y76.004 E.06421
G1 X55.258 Y74.561 E.07443
M204 S1000
G1 X55.59 Y74.87 F10800
M204 S800
G1 F900
G1 X56.726 Y74.022 E.05388
G1 X58.011 Y73.35 E.05511
G1 X60.006 Y72.769 E.07897
G1 X61.452 Y72.646 E.05516
G1 X62.868 Y72.752 E.05397
G1 X64.869 Y73.308 E.07893
G1 X66.208 Y73.993 E.05716
G1 X67.388 Y74.869 E.05585
G1 X89.819 Y95.065 E1.14715
G1 X160.181 Y95.065 E2.6742
G1 X182.635 Y74.85 E1.14829
G1 X183.77 Y74.007 E.05373
G1 X185.359 Y73.221 E.06738
G1 X187.108 Y72.757 E.06877
G1 X188.805 Y72.651 E.06462
G1 X190.424 Y72.854 E.06201
G1 X191.956 Y73.338 E.06106
G1 X193.417 Y74.115 E.06289
G1 X194.732 Y75.168 E.06403
G1 X195.683 Y76.254 E.05486
G1 X196.434 Y77.452 E.05374
G1 X197.082 Y79.063 E.066
G1 X197.405 Y80.744 E.06506
G1 X197.407 Y82.396 E.06279
G1 X197.085 Y84.086 E.06539
G1 X196.457 Y85.663 E.06451
G1 X195.625 Y86.985 E.05937
G1 X194.554 Y88.162 E.06048
G1 X175.853 Y105 E.95641
G1 X194.551 Y121.836 E.95627
G1 X195.542 Y122.907 E.05546
G1 X196.582 Y124.588 E.07513
G1 X197.097 Y125.951 E.05538
G1 X197.385 Y127.382 E.05548
G1 X197.396 Y129.352 E.07487
G1 X197.114 Y130.828 E.05711
G1 X196.603 Y132.205 E.05582
G1 X195.714 Y133.703 E.0662
G1 X194.55 Y135.003 E.06632
G1 X193.189 Y136.03 E.0648
G1 X191.618 Y136.796 E.06643
G1 X190.002 Y137.229 E.06358
G1 X188.555 Y137.354 E.0552
G1 X187.143 Y137.249 E.05381
G1 X185.511 Y136.835 E.06399
G1 X184.044 Y136.158 E.06141
G1 X182.616 Y135.135 E.06676
G1 X160.181 Y114.935 E1.14737
G1 X89.819 Y114.935 E2.6742
G1 X67.365 Y135.15 E1.14829
M73 P1 R104
G1 X66.23 Y135.993 E.05373
G1 X64.593 Y136.797 E.06932
G1 X62.859 Y137.249 E.06811
G1 X61.418 Y137.354 E.05491
G1 X60.006 Y137.231 E.05387
G1 X58.053 Y136.667 E.07726
G1 X56.584 Y135.886 E.06323
G1 X55.266 Y134.829 E.06421
G1 X54.2 Y133.586 E.06224
G1 X53.457 Y132.331 E.05543
G1 X52.927 Y130.971 E.05547
G1 X52.597 Y129.273 E.06574
G1 X52.598 Y127.547 E.0656
G1 X52.926 Y125.882 E.0645
G1 X53.578 Y124.269 E.06612
G1 X54.407 Y122.974 E.05844
G1 X55.447 Y121.837 E.05856
G1 X74.147 Y105 E.95635
G1 X55.445 Y88.161 E.95646
G1 X54.347 Y86.947 E.06221
G1 X53.5 Y85.577 E.06122
G1 X52.873 Y83.942 E.06655
G1 X52.6 Y82.468 E.05697
G1 X52.576 Y80.97 E.05694
G1 X52.902 Y79.116 E.07154
G1 X53.476 Y77.632 E.06047
G1 X54.286 Y76.296 E.05938
G1 X55.549 Y74.914 E.07116
M204 S1000
G1 X55.881 Y75.223 F10800
M204 S800
G1 F900
G1 X56.984 Y74.4 E.0523
G1 X58.202 Y73.766 E.05219
G1 X60.068 Y73.222 E.07387
G1 X61.436 Y73.103 E.05219
G1 X62.811 Y73.206 E.05241
G1 X64.682 Y73.726 E.07381
G1 X65.951 Y74.372 E.05412
G1 X67.09 Y75.216 E.05388
G1 X89.644 Y95.522 E1.15343
G1 X160.356 Y95.522 E2.6875
G1 X182.933 Y75.197 E1.15456
G1 X184.025 Y74.386 E.0517
G1 X185.54 Y73.641 E.06416
G1 X187.16 Y73.212 E.06369
G1 X188.771 Y73.107 E.06136
G1 X190.308 Y73.296 E.05886
G1 X191.761 Y73.752 E.05788
G1 X193.149 Y74.486 E.05967
G1 X194.403 Y75.485 E.06093
G1 X195.305 Y76.512 E.05195
G1 X196.036 Y77.677 E.05227
G1 X196.649 Y79.212 E.06282
G1 X196.952 Y80.807 E.0617
G1 X196.95 Y82.374 E.05956
G1 X196.641 Y83.978 E.06208
G1 X196.041 Y85.473 E.06122
G1 X195.249 Y86.723 E.05624
G1 X194.24 Y87.83 E.05693
G1 X175.17 Y105 E.97527
G1 X194.238 Y122.169 E.97519
G1 X195.165 Y123.167 E.05177
G1 X196.163 Y124.77 E.07177
G1 X196.662 Y126.094 E.05378
G1 X196.932 Y127.45 E.05255
G1 X196.943 Y129.289 E.06989
G1 X196.678 Y130.687 E.05408
G1 X196.182 Y132.026 E.05427
G1 X195.333 Y133.45 E.06301
G1 X194.256 Y134.652 E.06134
G1 X192.968 Y135.63 E.06146
G1 X191.477 Y136.361 E.06311
G1 X189.941 Y136.776 E.06047
G1 X188.57 Y136.897 E.05231
G1 X187.197 Y136.795 E.05233
G1 X185.646 Y136.398 E.06085
G1 X184.256 Y135.753 E.05824
G1 X182.913 Y134.787 E.06287
G1 X160.356 Y114.478 E1.15359
G1 X89.644 Y114.478 E2.6875
G1 X67.067 Y134.803 E1.15456
G1 X65.974 Y135.614 E.05173
G1 X64.455 Y136.361 E.06433
G1 X62.804 Y136.795 E.06488
G1 X61.439 Y136.897 E.05202
G1 X60.068 Y136.778 E.0523
G1 X58.246 Y136.252 E.07208
G1 X56.852 Y135.515 E.05993
G1 X55.598 Y134.514 E.06098
G1 X54.583 Y133.335 E.05913
M73 Q1 S104
G1 X53.86 Y132.114 E.05393
G1 X53.361 Y130.825 E.05253
G1 X53.054 Y129.251 E.06095
G1 X53.051 Y127.613 E.06225
G1 X53.371 Y125.993 E.06276
G1 X53.993 Y124.462 E.06281
G1 X54.78 Y123.238 E.05531
G1 X55.761 Y122.17 E.05512
G1 X74.83 Y105 E.97524
G1 X55.759 Y87.829 E.97532
M73 P2 R104
G1 X54.701 Y86.657 E.06001
M73 Q2 S104
G1 X53.9 Y85.356 E.05807
G1 X53.308 Y83.799 E.06331
G1 X53.053 Y82.405 E.05386
G1 X53.033 Y80.986 E.05394
G1 X53.348 Y79.219 E.06822
G1 X53.877 Y77.851 E.05574
G1 X54.64 Y76.586 E.05615
G1 X55.84 Y75.267 E.06777
M204 S1000
G1 X56.173 Y75.575 F10800
M204 S800
G1 F900
G1 X57.212 Y74.796 E.04936
G1 X58.393 Y74.181 E.05061
G1 X60.13 Y73.676 E.06875
G1 X61.457 Y73.56 E.05063
G1 X62.754 Y73.66 E.04944
G1 X64.496 Y74.144 E.06871
G1 X65.695 Y74.751 E.05108
G1 X66.793 Y75.563 E.0519
G1 X89.468 Y95.979 E1.15964
G1 X160.532 Y95.979 E2.70088
G1 X183.23 Y75.544 E1.16077
G1 X184.281 Y74.766 E.0497
G1 X185.681 Y74.076 E.05932
G1 X187.213 Y73.666 E.06027
G1 X188.738 Y73.563 E.05809
G1 X190.192 Y73.739 E.05566
G1 X191.568 Y74.166 E.05476
G1 X192.882 Y74.857 E.05642
G1 X194.073 Y75.803 E.05781
G1 X194.95 Y76.8 E.05047
G1 X195.637 Y77.901 E.04932
G1 X196.216 Y79.36 E.05966
G1 X196.498 Y80.869 E.05834
G1 X196.493 Y82.35 E.05629
G1 X196.208 Y83.829 E.05725
G1 X195.643 Y85.247 E.05801
G1 X194.874 Y86.461 E.05462
G1 X193.926 Y87.497 E.05337
G1 X174.487 Y105 E.99416
G1 X193.925 Y122.502 E.99411
G1 X194.815 Y123.462 E.04975
G1 X195.743 Y124.954 E.06678
G1 X196.218 Y126.203 E.05079
G1 X196.48 Y127.518 E.05096
G1 X196.49 Y129.225 E.06488
G1 X196.233 Y130.583 E.05253
G1 X195.761 Y131.846 E.05124
G1 X194.953 Y133.196 E.0598
G1 X193.931 Y134.33 E.05802
G1 X192.71 Y135.252 E.05815
G1 X191.336 Y135.925 E.05815
G1 X189.879 Y136.322 E.05739
G1 X188.585 Y136.439 E.04938
G1 X187.252 Y136.341 E.0508
G1 X185.781 Y135.961 E.05774
G1 X184.47 Y135.348 E.055
G1 X183.21 Y134.439 E.05905
G1 X160.532 Y114.021 E1.15978
G1 X89.468 Y114.021 E2.70088
M73 P2 R103
G1 X66.77 Y134.456 E1.16077
G1 X65.719 Y135.234 E.0497
G1 X64.275 Y135.94 E.06109
G1 X62.749 Y136.341 E.05997
G1 X61.424 Y136.439 E.0505
G1 X60.13 Y136.324 E.04937
G1 X58.438 Y135.836 E.06693
G1 X57.119 Y135.144 E.05661
G1 X55.929 Y134.199 E.05775
G1 X54.965 Y133.084 E.05602
G1 X54.279 Y131.931 E.05099
G1 X53.794 Y130.679 E.05103
G1 X53.507 Y129.186 E.05778
G1 X53.508 Y127.637 E.05887
G1 X53.814 Y126.104 E.05941
G1 X54.389 Y124.69 E.05801
G1 X55.131 Y123.532 E.05227
G1 X56.075 Y122.502 E.0531
G1 X75.513 Y105 E.99411
G1 X56.074 Y87.497 E.99416
G1 X55.054 Y86.367 E.05786
G1 X54.302 Y85.136 E.05482
G1 X53.743 Y83.658 E.06006
G1 X53.506 Y82.343 E.05078
G1 X53.49 Y81.002 E.05097
G1 X53.794 Y79.322 E.06489
G1 X54.296 Y78.035 E.0525
G1 X54.994 Y76.877 E.05139
G1 X56.132 Y75.62 E.06444
M204 S1000
G1 X56.464 Y75.928 F10800
M204 S800
G1 F900
G1 X57.471 Y75.174 E.04781
G1 X58.584 Y74.598 E.04763
G1 X60.193 Y74.129 E.0637
G1 X61.441 Y74.018 E.04762
G1 X62.697 Y74.114 E.04788
G1 X64.31 Y74.562 E.06362
G1 X65.471 Y75.15 E.04946
G1 X66.495 Y75.91 E.04847
G1 X89.293 Y96.436 E1.16591
G1 X160.707 Y96.436 E2.71418
G1 X183.528 Y75.891 E1.16704
G1 X184.536 Y75.146 E.04764
G1 X185.861 Y74.497 E.05607
G1 X187.267 Y74.12 E.05532
G1 X188.707 Y74.02 E.05486
G1 X190.078 Y74.182 E.05247
G1 X191.375 Y74.581 E.05157
G1 X192.616 Y75.229 E.05321
G1 X193.744 Y76.121 E.05466
G1 X194.572 Y77.058 E.04752
G1 X195.238 Y78.125 E.0478
G1 X195.783 Y79.506 E.05643
G1 X196.045 Y80.93 E.05503
G1 X196.036 Y82.326 E.05306
G1 X195.775 Y83.681 E.05245
G1 X195.245 Y85.021 E.05477
G1 X194.523 Y86.168 E.05151
G1 X193.612 Y87.165 E.05133
G1 X173.804 Y105 E1.01303
G1 X193.611 Y122.834 E1.01297
G1 X194.465 Y123.757 E.04779
G1 X195.324 Y125.137 E.06178
G1 X195.784 Y126.347 E.0492
G1 X196.027 Y127.585 E.04795
G1 X196.037 Y129.163 E.05998
G1 X195.798 Y130.442 E.04945
G1 X195.341 Y131.667 E.04969
G1 X194.598 Y132.907 E.05494
G1 X193.637 Y133.979 E.05472
G1 X192.488 Y134.852 E.05484
G1 X191.193 Y135.491 E.05488
G1 X189.818 Y135.869 E.0542
G1 X188.563 Y135.982 E.04789
G1 X187.307 Y135.887 E.04787
G1 X185.917 Y135.524 E.0546
G1 X184.684 Y134.944 E.05179
G1 X183.507 Y134.091 E.05525
G1 X160.707 Y113.564 E1.16599
G1 X89.293 Y113.564 E2.71418
G1 X66.472 Y134.109 E1.16704
G1 X65.464 Y134.854 E.04764
M73 Q2 S103
G1 X64.136 Y135.504 E.05619
G1 X62.693 Y135.887 E.05674
G1 X61.445 Y135.982 E.04757
G1 X60.193 Y135.871 E.04777
G1 X58.628 Y135.42 E.0619
G1 X57.385 Y134.771 E.05329
G1 X56.26 Y133.883 E.05447
G1 X55.347 Y132.831 E.05294
G1 X54.698 Y131.748 E.04799
G1 X54.228 Y130.534 E.04948
G1 X53.96 Y129.122 E.05462
G1 X53.961 Y127.703 E.05393
G1 X54.247 Y126.254 E.05613
G1 X54.786 Y124.919 E.05472
G1 X55.505 Y123.796 E.05068
G1 X56.388 Y122.835 E.0496
G1 X76.196 Y105 E1.01303
G1 X56.388 Y87.165 E1.01303
G1 X55.432 Y86.109 E.05414
M73 P3 R103
G1 X54.721 Y84.953 E.05158
G1 X54.189 Y83.555 E.05685
G1 X53.959 Y82.282 E.04917
G1 X53.947 Y81.02 E.04797
G1 X54.228 Y79.467 E.05998
M73 Q3 S103
G1 X54.698 Y78.254 E.04944
G1 X55.374 Y77.131 E.04982
G1 X56.424 Y75.972 E.05944
M204 S1000
G1 X56.757 Y76.28 F10800
M204 S800
G1 F900
G1 X57.698 Y75.571 E.04478
G1 X58.774 Y75.014 E.04605
G1 X60.256 Y74.582 E.05867
G1 X61.462 Y74.475 E.04602
G1 X62.639 Y74.568 E.04487
G1 X64.125 Y74.981 E.05862
G1 X65.215 Y75.529 E.04637
G1 X66.197 Y76.257 E.04646
G1 X89.117 Y96.893 E1.17216
G1 X160.883 Y96.893 E2.72756
G1 X183.825 Y76.238 E1.17326
G1 X184.791 Y75.526 E.04561
G1 X186.002 Y74.932 E.05126
G1 X187.323 Y74.575 E.05201
G1 X188.676 Y74.476 E.05156
G1 X189.965 Y74.625 E.04932
G1 X191.184 Y74.997 E.04844
G1 X192.351 Y75.602 E.04996
G1 X193.416 Y76.439 E.05148
G1 X194.217 Y77.346 E.04599
G1 X194.839 Y78.348 E.04482
G1 X195.349 Y79.652 E.05322
G1 X195.591 Y80.99 E.05168
G1 X195.583 Y82.262 E.04835
G1 X195.342 Y83.534 E.0492
G1 X194.846 Y84.797 E.05157
G1 X194.171 Y85.876 E.04837
G1 X193.297 Y86.833 E.04926
G1 X173.121 Y105 E1.03186
G1 X193.297 Y123.167 E1.03186
G1 X194.115 Y124.051 E.04577
G1 X194.905 Y125.321 E.05684
G1 X195.339 Y126.454 E.04611
G1 X195.574 Y127.652 E.0464
G1 X195.583 Y129.1 E.05503
G1 X195.352 Y130.338 E.04786
G1 X194.92 Y131.487 E.04665
G1 X194.242 Y132.619 E.05015
G1 X193.342 Y133.63 E.05144
G1 X192.264 Y134.453 E.05155
G1 X191.049 Y135.056 E.05155
G1 X189.755 Y135.416 E.05105
M73 P3 R102
G1 X188.541 Y135.525 E.04633
G1 X187.364 Y135.433 E.04487
G1 X186.055 Y135.087 E.05146
G1 X184.9 Y134.54 E.04857
G1 X183.804 Y133.744 E.05148
G1 X160.883 Y113.107 E1.17221
G1 X89.117 Y113.107 E2.72756
G1 X66.175 Y133.762 E1.17326
G1 X65.209 Y134.474 E.04561
G1 X63.996 Y135.069 E.05135
G1 X62.637 Y135.433 E.05347
