; generated by PrusaSlicer 2.9.4 on 2026-03-20 at 00:23:05 UTC


;
;
; 

; external perimeters extrusion width = 0.45mm
; perimeters extrusion width = 0.45mm
; infill extrusion width = 0.45mm
; solid infill extrusion width = 0.45mm
; top infill extrusion width = 0.40mm
; first layer extrusion width = 0.50mm

M73 P0 R28
M73 Q0 S28
M201 X1000 Y1000 Z200 E5000 ; sets maximum accelerations, mm/sec^2
M203 X200 Y200 Z12 E120 ; sets maximum feedrates, mm / sec
M204 S1250 T1250 ; sets acceleration (S) and retract acceleration (R), mm/sec^2
M205 X8.00 Y8.00 Z0.40 E4.50 ; sets the jerk limits, mm/sec
M205 S0 T0 ; sets the minimum extruding and travel feed rate, mm/sec

; printing object Stand Mounting Plate.stl id:0 copy 0
; stop printing object Stand Mounting Plate.stl id:0 copy 0

;TYPE:Custom
M862.3 P "MK3S" ; printer model check
M862.1 P0.4 ; nozzle diameter check
M115 U3.14.1 ; tell printer latest fw version
G90 ; use absolute coordinates
M83 ; extruder relative mode
M104 S240 ; set extruder temp
M140 S90 ; set bed temp
M190 S90 ; wait for bed temp
M109 S240 ; wait for extruder temp
G28 W ; home all without mesh bed level
G80 X98.9203 Y89.5679 W52.1593 H30.8642 ; mesh bed levelling

G1 Z0.2 F720
G1 Y-3 F1000 ; go outside print area
G92 E0
G1 X60 E9 F1000 ; intro line
G1 X100 E12.5 F1000 ; intro line

G92 E0
M221 S95

; Don't change E values below. Excessive value can damage the printer.
M907 E430 ; set extruder motor current
G21 ; set units to millimeters
G90 ; use absolute coordinates
M83 ; use relative distances for extrusion

M900 K0.08 ; Filament gcode LA 1.5
M900 K45 ; Filament gcode LA 1.0




M107
;LAYER_CHANGE
;Z:0.2
;HEIGHT:0.2
G1 E-1 F2100
G1 Z.4 F720
G1 X99.54 Y90.764 F10800
G1 Z.2 F720
G1 E1 F2100
M204 S800
;TYPE:Skirt/Brim
;WIDTH:0.5
G1 F900
G1 X100.576 Y89.946 E.05017
G1 X101.377 Y89.796 E.03097
G1 X148.623 Y89.796 E1.79565
G1 X149.884 Y90.187 E.05018
G1 X150.702 Y91.223 E.05017
G1 X150.851 Y92.025 E.031
G1 X150.851 Y117.975 E.98626
G1 X150.46 Y119.236 E.05018
G1 X149.424 Y120.054 E.05017
G1 X148.623 Y120.204 E.03097
G1 X101.377 Y120.204 E1.79565
G1 X100.116 Y119.813 E.05018
G1 X99.298 Y118.777 E.05017
G1 X99.149 Y117.975 E.031
G1 X99.149 Y92.025 E.98626
G1 X99.522 Y90.821 E.04791
M73 P1 R28
M73 Q1 S28
M204 S1000
;WIPE_START
G1 F8640
G1 X99.54 Y90.764 E-.0138
G1 X100.576 Y89.946 E-.30479
G1 X101.377 Y89.796 E-.18817
G1 X103.513 Y89.796 E-.49324
;WIPE_END
G1 Z.4 F720
; printing object Stand Mounting Plate.stl id:0 copy 0
G1 X130.921 Y108.278 F10800
G1 Z.2 F720
G1 E1 F2100
M204 S800
;TYPE:Perimeter
;WIDTH:0.499999
G1 F900
G1 X130.451 Y108.213 E.01803
G1 X129.998 Y108.05 E.0183
G1 X129.588 Y107.797 E.01831
G1 X129.24 Y107.463 E.01833
G1 X128.969 Y107.065 E.0183
G1 X128.787 Y106.619 E.01831
G1 X128.708 Y106.243 E.0146
G1 X128.71 Y105.698 E.02071
G1 X128.831 Y105.195 E.01966
G1 X129.041 Y104.761 E.01832
G1 X129.336 Y104.38 E.01831
G1 X129.704 Y104.069 E.01831
G1 X130.128 Y103.841 E.0183
G1 X130.591 Y103.707 E.01832
G1 X131.037 Y103.673 E.017
G1 X131.549 Y103.736 E.01961
G1 X132.002 Y103.9 E.01831
G1 X132.412 Y104.153 E.01831
G1 X132.796 Y104.536 E.02061
G1 X133.031 Y104.885 E.01599
G1 X133.213 Y105.331 E.01831
G1 X133.299 Y105.821 E.01891
G1 X133.279 Y106.309 E.01856
G1 X133.169 Y106.755 E.01746
G1 X132.959 Y107.189 E.01832
G1 X132.664 Y107.57 E.01831
G1 X132.296 Y107.881 E.01831
G1 X131.872 Y108.109 E.0183
G1 X131.318 Y108.253 E.02176
G1 X130.98 Y108.275 E.01287
M204 S1000
G1 X130.969 Y107.823 F10800
M204 S800
;TYPE:External perimeter
G1 F900
G1 X130.592 Y107.779 E.01443
G1 X130.226 Y107.655 E.01469
G1 X129.894 Y107.457 E.01469
G1 X129.61 Y107.195 E.01469
G1 X129.387 Y106.879 E.0147
G1 X129.234 Y106.524 E.01469
G1 X129.161 Y106.177 E.01348
G1 X129.163 Y105.758 E.01592
G1 X129.249 Y105.381 E.0147
G1 X129.411 Y105.03 E.01469
G1 X129.642 Y104.72 E.01469
G1 X129.932 Y104.465 E.01468
G1 X130.27 Y104.276 E.01472
G1 X130.639 Y104.161 E.01469
G1 X130.996 Y104.128 E.01363
G1 X131.408 Y104.171 E.01574
G1 X131.774 Y104.295 E.01469
G1 X132.106 Y104.493 E.01469
G1 X132.426 Y104.805 E.01699
G1 X132.613 Y105.071 E.01236
G1 X132.766 Y105.426 E.01469
G1 X132.842 Y105.821 E.01529
G1 X132.832 Y106.214 E.01494
G1 X132.751 Y106.569 E.01384
G1 X132.589 Y106.92 E.01469
G1 X132.358 Y107.23 E.01469
G1 X131.944 Y107.556 E.02003
G1 X131.73 Y107.674 E.00929
G1 X131.27 Y107.798 E.01811
G1 X131.028 Y107.82 E.00924
M204 S1000
;WIPE_START
G1 F8640
G1 X130.969 Y107.823 E-.01364
G1 X130.592 Y107.779 E-.08764
G1 X130.226 Y107.655 E-.08923
G1 X129.894 Y107.457 E-.08926
G1 X129.61 Y107.195 E-.08922
G1 X129.387 Y106.879 E-.0893
G1 X129.234 Y106.524 E-.08926
G1 X129.161 Y106.177 E-.08188
G1 X129.163 Y105.758 E-.09675
G1 X129.249 Y105.381 E-.08929
G1 X129.411 Y105.03 E-.08926
G1 X129.642 Y104.72 E-.08927
G1 X129.662 Y104.703 E-.006
;WIPE_END
G1 Z.4 F720
G1 X124.947 Y114.278 F10800
G1 Z.2 F720
G1 E1 F2100
M204 S800
;TYPE:Perimeter
G1 F900
G1 X124.477 Y114.213 E.01803
G1 X124.024 Y114.05 E.0183
G1 X123.614 Y113.797 E.01831
G1 X123.267 Y113.463 E.0183
G1 X122.996 Y113.065 E.0183
G1 X122.813 Y112.619 E.01832
G1 X122.728 Y112.145 E.0183
G1 X122.743 Y111.663 E.01833
G1 X122.858 Y111.195 E.01832
G1 X123.067 Y110.761 E.01831
G1 X123.362 Y110.38 E.01831
G1 X123.632 Y110.138 E.01378
G1 X124.119 Y109.854 E.02143
G1 X124.618 Y109.707 E.01977
G1 X125.063 Y109.673 E.01696
G1 X125.575 Y109.736 E.01961
G1 X126.029 Y109.9 E.01835
G1 X126.439 Y110.153 E.01831
G1 X126.786 Y110.487 E.0183
G1 X127.057 Y110.885 E.0183
G1 X127.24 Y111.331 E.01832
G1 X127.325 Y111.805 E.0183
G1 X127.31 Y112.287 E.01833
G1 X127.195 Y112.755 E.01832
G1 X126.986 Y113.189 E.01831
G1 X126.691 Y113.57 E.01831
G1 X126.323 Y113.881 E.01831
G1 X125.898 Y114.109 E.01833
G1 X125.435 Y114.243 E.01832
G1 X125.007 Y114.275 E.01631
M204 S1000
G1 X124.995 Y113.823 F10800
M204 S800
;TYPE:External perimeter
G1 F900
G1 X124.619 Y113.779 E.01439
G1 X124.253 Y113.655 E.01469
G1 X123.92 Y113.457 E.01472
G1 X123.636 Y113.195 E.01469
G1 X123.413 Y112.879 E.0147
G1 X123.26 Y112.524 E.01469
M73 P1 R27
G1 X123.185 Y112.145 E.01468
G1 X123.19 Y111.758 E.01471
G1 X123.275 Y111.381 E.01469
G1 X123.437 Y111.03 E.01469
G1 X123.668 Y110.72 E.01469
G1 X123.926 Y110.488 E.01319
G1 X124.296 Y110.276 E.01621
G1 X124.665 Y110.161 E.01469
G1 X125.022 Y110.128 E.01363
G1 X125.434 Y110.171 E.01574
G1 X125.8 Y110.295 E.01469
G1 X126.133 Y110.493 E.01472
G1 X126.417 Y110.755 E.01469
G1 X126.64 Y111.071 E.0147
G1 X126.793 Y111.426 E.01469
G1 X126.868 Y111.805 E.01468
G1 X126.863 Y112.192 E.01471
G1 X126.778 Y112.569 E.01469
G1 X126.616 Y112.92 E.01469
G1 X126.385 Y113.23 E.01469
G1 X126.094 Y113.485 E.01471
G1 X125.757 Y113.674 E.01468
G1 X125.388 Y113.789 E.01469
G1 X125.055 Y113.819 E.01271
M204 S1000
;WIPE_START
G1 F8640
G1 X124.995 Y113.823 E-.01388
G1 X124.619 Y113.779 E-.08741
G1 X124.253 Y113.655 E-.08923
G1 X123.92 Y113.457 E-.08946
G1 X123.636 Y113.195 E-.08922
G1 X123.413 Y112.879 E-.0893
G1 X123.26 Y112.524 E-.08926
G1 X123.185 Y112.145 E-.08921
G1 X123.19 Y111.758 E-.08937
G1 X123.275 Y111.381 E-.08924
G1 X123.437 Y111.03 E-.08926
G1 X123.668 Y110.72 E-.08927
G1 X123.687 Y110.703 E-.00589
;WIPE_END
G1 Z.4 F720
G1 X118.921 Y108.278 F10800
G1 Z.2 F720
G1 E1 F2100
M204 S800
;TYPE:Perimeter
G1 F900
G1 X118.451 Y108.213 E.01803
G1 X117.998 Y108.05 E.0183
G1 X117.554 Y107.766 E.02003
G1 X117.24 Y107.463 E.01658
G1 X116.969 Y107.065 E.0183
G1 X116.787 Y106.619 E.01831
G1 X116.701 Y106.145 E.01831
G1 X116.716 Y105.663 E.01833
G1 X116.831 Y105.195 E.01832
G1 X117.041 Y104.761 E.01832
G1 X117.336 Y104.38 E.01831
G1 X117.737 Y104.05 E.01974
G1 X118.128 Y103.841 E.01685
G1 X118.591 Y103.707 E.01832
G1 X119.037 Y103.673 E.017
G1 X119.549 Y103.736 E.01961
G1 X120.002 Y103.9 E.01831
G1 X120.412 Y104.153 E.01831
G1 X120.76 Y104.487 E.01833
G1 X121.031 Y104.885 E.0183
G1 X121.213 Y105.331 E.01831
G1 X121.299 Y105.805 E.01831
G1 X121.284 Y106.287 E.01833
G1 X121.169 Y106.755 E.01832
G1 X120.959 Y107.189 E.01832
G1 X120.664 Y107.57 E.01831
G1 X120.296 Y107.881 E.01831
G1 X119.872 Y108.109 E.0183
G1 X119.409 Y108.243 E.01832
G1 X118.98 Y108.275 E.01635
M204 S1000
G1 X118.969 Y107.823 F10800
M204 S800
;TYPE:External perimeter
G1 F900
G1 X118.592 Y107.779 E.01443
G1 X118.226 Y107.655 E.01469
G1 X117.86 Y107.427 E.01639
G1 X117.61 Y107.195 E.01296
G1 X117.387 Y106.879 E.0147
G1 X117.234 Y106.524 E.01469
G1 X117.158 Y106.033 E.01888
G1 X117.194 Y105.613 E.01602
G1 X117.249 Y105.381 E.00906
G1 X117.411 Y105.03 E.01469
G1 X117.642 Y104.72 E.01469
G1 X117.965 Y104.446 E.0161
G1 X118.27 Y104.276 E.01327
G1 X118.639 Y104.161 E.01469
G1 X118.996 Y104.128 E.01363
G1 X119.408 Y104.171 E.01574
G1 X119.774 Y104.295 E.01469
G1 X120.106 Y104.493 E.01469
G1 X120.39 Y104.755 E.01469
G1 X120.613 Y105.071 E.0147
G1 X120.766 Y105.426 E.01469
G1 X120.842 Y105.805 E.01469
G1 X120.837 Y106.192 E.01471
G1 X120.751 Y106.569 E.0147
G1 X120.589 Y106.92 E.01469
G1 X120.358 Y107.23 E.01469
G1 X120.068 Y107.485 E.01468
G1 X119.73 Y107.674 E.01472
G1 X119.361 Y107.789 E.01469
G1 X119.028 Y107.819 E.01271
M204 S1000
;WIPE_START
G1 F8640
G1 X118.969 Y107.823 E-.01365
G1 X118.592 Y107.779 E-.08764
G1 X118.226 Y107.655 E-.08923
G1 X117.86 Y107.427 E-.09957
G1 X117.61 Y107.195 E-.07875
G1 X117.387 Y106.879 E-.0893
G1 X117.234 Y106.524 E-.08926
G1 X117.158 Y106.033 E-.11472
G1 X117.194 Y105.613 E-.09733
G1 X117.249 Y105.381 E-.05505
G1 X117.411 Y105.03 E-.08926
G1 X117.642 Y104.72 E-.08927
G1 X117.665 Y104.7 E-.00697
;WIPE_END
G1 Z.4 F720
G1 X124.947 Y102.278 F10800
G1 Z.2 F720
G1 E1 F2100
M204 S800
;TYPE:Perimeter
G1 F900
G1 X124.477 Y102.213 E.01803
G1 X124.024 Y102.05 E.0183
G1 X123.61 Y101.793 E.01852
G1 X123.267 Y101.463 E.01809
G1 X122.996 Y101.065 E.0183
G1 X122.813 Y100.619 E.01832
G1 X122.728 Y100.145 E.0183
G1 X122.73 Y99.751 E.01497
G1 X122.858 Y99.195 E.02168
G1 X123.067 Y98.761 E.01831
G1 X123.362 Y98.38 E.01831
G1 X123.73 Y98.069 E.01831
G1 X124.155 Y97.841 E.01833
G1 X124.618 Y97.707 E.01832
G1 X125.063 Y97.673 E.01696
G1 X125.575 Y97.736 E.01961
G1 X126.029 Y97.9 E.01835
G1 X126.439 Y98.153 E.01831
G1 X126.786 Y98.487 E.0183
G1 X127.057 Y98.885 E.0183
G1 X127.24 Y99.331 E.01832
G1 X127.325 Y99.805 E.0183
G1 X127.31 Y100.287 E.01833
G1 X127.195 Y100.755 E.01832
G1 X126.986 Y101.189 E.01831
G1 X126.691 Y101.57 E.01831
G1 X126.323 Y101.881 E.01831
G1 X125.898 Y102.109 E.01833
G1 X125.435 Y102.243 E.01832
G1 X125.007 Y102.275 E.01631
M204 S1000
G1 X124.995 Y101.823 F10800
M204 S800
;TYPE:External perimeter
G1 F900
G1 X124.619 Y101.779 E.01439
G1 X124.253 Y101.655 E.01469
G1 X123.916 Y101.453 E.01493
G1 X123.636 Y101.195 E.01447
G1 X123.413 Y100.879 E.0147
G1 X123.26 Y100.524 E.01469
G1 X123.185 Y100.145 E.01468
G1 X123.186 Y99.787 E.01361
G1 X123.275 Y99.381 E.0158
G1 X123.437 Y99.03 E.01469
G1 X123.668 Y98.72 E.01469
G1 X123.959 Y98.465 E.01471
G1 X124.296 Y98.276 E.01468
G1 X124.665 Y98.161 E.01469
G1 X125.022 Y98.128 E.01363
G1 X125.434 Y98.171 E.01574
G1 X125.8 Y98.295 E.01469
G1 X126.133 Y98.493 E.01472
G1 X126.417 Y98.755 E.01469
G1 X126.64 Y99.071 E.0147
G1 X126.821 Y99.562 E.01989
G1 X126.868 Y99.805 E.00941
G1 X126.863 Y100.192 E.01471
G1 X126.778 Y100.569 E.01469
G1 X126.616 Y100.92 E.01469
G1 X126.385 Y101.23 E.01469
G1 X126.094 Y101.485 E.01471
G1 X125.757 Y101.674 E.01468
G1 X125.388 Y101.789 E.01469
G1 X125.055 Y101.819 E.01271
M204 S1000
;WIPE_START
G1 F8640
G1 X124.995 Y101.823 E-.01388
G1 X124.619 Y101.779 E-.08741
G1 X124.253 Y101.655 E-.08923
G1 X123.916 Y101.453 E-.09072
G1 X123.636 Y101.195 E-.08791
G1 X123.413 Y100.879 E-.0893
G1 X123.26 Y100.524 E-.08926
G1 X123.185 Y100.145 E-.08921
G1 X123.186 Y99.787 E-.08266
G1 X123.275 Y99.381 E-.09597
G1 X123.437 Y99.03 E-.08926
G1 X123.668 Y98.72 E-.08927
G1 X123.687 Y98.703 E-.00592
;WIPE_END
G1 Z.4 F720
G1 X108.169 Y115.473 F10800
G1 Z.2 F720
G1 E1 F2100
M204 S800
;TYPE:Perimeter
G1 F900
G1 X107.736 Y115.446 E.01649
G1 X107.233 Y115.336 E.01957
G1 X106.727 Y115.143 E.02058
G1 X106.253 Y114.871 E.02077
G1 X105.826 Y114.529 E.02079
G1 X105.459 Y114.124 E.02077
G1 X105.175 Y113.698 E.01946
G1 X104.957 Y113.232 E.01955
G1 X104.796 Y112.686 E.02163
G1 X104.727 Y112.171 E.01975
G1 X104.739 Y111.628 E.02064
G1 X104.835 Y111.09 E.02077
G1 X105.015 Y110.573 E.02081
G1 X105.253 Y110.119 E.01948
G1 X105.575 Y109.682 E.02063
G1 X105.964 Y109.298 E.02077
G1 X106.381 Y108.996 E.01957
G1 X106.862 Y108.747 E.02059
G1 X107.38 Y108.573 E.02077
G1 X107.916 Y108.484 E.02065
G1 X108.46 Y108.479 E.02068
G1 X108.973 Y108.549 E.01968
G1 X109.466 Y108.697 E.01956
G1 X109.981 Y108.941 E.02166
G1 X110.436 Y109.255 E.02101
M73 Q1 S27
G1 X110.786 Y109.581 E.01818
G1 X111.128 Y110.008 E.02079
G1 X111.395 Y110.476 E.02048
G1 X111.599 Y111.021 E.02212
G1 X111.704 Y111.522 E.01945
G1 X111.731 Y112.037 E.0196
G1 X111.681 Y112.574 E.0205
G1 X111.546 Y113.104 E.02079
G1 X111.33 Y113.606 E.02077
G1 X111.038 Y114.069 E.0208
G1 X110.703 Y114.457 E.01948
G1 X110.29 Y114.81 E.02065
G1 X109.825 Y115.096 E.02075
G1 X109.319 Y115.306 E.02082
G1 X108.822 Y115.43 E.01947
G1 X108.281 Y115.48 E.02065
G1 X108.229 Y115.477 E.00198
M204 S1000
G1 X108.204 Y115.024 F10800
M204 S800
;TYPE:External perimeter
G1 F900
G1 X107.737 Y114.985 E.01781
G1 X107.305 Y114.881 E.01689
G1 X106.864 Y114.702 E.01809
G1 X106.457 Y114.458 E.01804
G1 X106.092 Y114.152 E.0181
G1 X105.782 Y113.795 E.01797
G1 X105.541 Y113.419 E.01697
G1 X105.362 Y113.013 E.01686
G1 X105.229 Y112.527 E.01915
G1 X105.18 Y112.084 E.01694
G1 X105.2 Y111.609 E.01807
G1 X105.294 Y111.143 E.01807
G1 X105.458 Y110.699 E.01799
G1 X105.674 Y110.309 E.01694
G1 X105.963 Y109.932 E.01805
G1 X106.307 Y109.606 E.01801
G1 X106.673 Y109.352 E.01693
G1 X107.099 Y109.142 E.01805
G1 X107.553 Y109.001 E.01807
G1 X108.185 Y108.934 E.02415
G1 X108.497 Y108.938 E.01186
G1 X108.937 Y109.009 E.01694
G1 X109.359 Y109.145 E.01685
G1 X109.813 Y109.371 E.01927
G1 X110.196 Y109.648 E.01796
G1 X110.469 Y109.91 E.01438
G1 X110.779 Y110.306 E.01911
G1 X111.011 Y110.732 E.01844
G1 X111.177 Y111.206 E.01909
G1 X111.267 Y111.852 E.02479
G1 X111.226 Y112.525 E.02563
G1 X111.093 Y113.019 E.01944
G1 X110.896 Y113.451 E.01805
G1 X110.635 Y113.846 E.01799
G1 X110.337 Y114.177 E.01693
G1 X109.969 Y114.478 E.01807
G1 X109.559 Y114.718 E.01806
G1 X109.118 Y114.891 E.018
G1 X108.683 Y114.99 E.01696
G1 X108.264 Y115.021 E.01597
M204 S1000
;WIPE_START
G1 F8640
G1 X108.204 Y115.024 E-.01387
G1 X107.737 Y114.985 E-.10821
G1 X107.305 Y114.881 E-.1026
G1 X106.864 Y114.702 E-.1099
G1 X106.457 Y114.458 E-.10957
G1 X106.092 Y114.152 E-.10998
G1 X105.782 Y113.795 E-.10917
G1 X105.541 Y113.419 E-.10312
G1 X105.362 Y113.013 E-.10245
G1 X105.229 Y112.527 E-.11634
G1 X105.222 Y112.463 E-.01479
;WIPE_END
G1 Z.4 F720
G1 X108.169 Y103.472 F10800
G1 Z.2 F720
G1 E1 F2100
M204 S800
;TYPE:Perimeter
G1 F900
G1 X107.739 Y103.446 E.01637
G1 X107.233 Y103.336 E.01968
G1 X106.727 Y103.143 E.02058
G1 X106.253 Y102.871 E.02077
G1 X105.826 Y102.529 E.02079
G1 X105.459 Y102.124 E.02077
G1 X105.175 Y101.698 E.01946
G1 X104.957 Y101.232 E.01955
G1 X104.796 Y100.686 E.02163
G1 X104.727 Y100.171 E.01975
G1 X104.739 Y99.628 E.02064
G1 X104.835 Y99.09 E.02077
G1 X105.015 Y98.573 E.02081
G1 X105.253 Y98.119 E.01948
G1 X105.575 Y97.682 E.02063
G1 X105.964 Y97.298 E.02077
G1 X106.381 Y96.996 E.01957
G1 X106.862 Y96.747 E.02059
G1 X107.38 Y96.573 E.02077
G1 X107.919 Y96.483 E.02077
G1 X108.466 Y96.479 E.02079
G1 X108.973 Y96.549 E.01945
G1 X109.466 Y96.697 E.01956
G1 X109.981 Y96.941 E.02166
G1 X110.436 Y97.255 E.02101
G1 X110.809 Y97.603 E.01939
G1 X111.128 Y98.008 E.01959
G1 X111.395 Y98.476 E.02048
G1 X111.599 Y99.021 E.02212
G1 X111.704 Y99.522 E.01945
G1 X111.731 Y100.037 E.0196
G1 X111.681 Y100.574 E.0205
G1 X111.546 Y101.104 E.02079
G1 X111.33 Y101.606 E.02077
G1 X111.052 Y102.049 E.01988
G1 X110.703 Y102.457 E.02041
G1 X110.302 Y102.799 E.02003
G1 X109.825 Y103.096 E.02136
G1 X109.319 Y103.306 E.02082
G1 X108.822 Y103.43 E.01947
G1 X108.287 Y103.48 E.02042
G1 X108.229 Y103.476 E.00221
M204 S1000
G1 X108.204 Y103.024 F10800
M204 S800
