; generated by PrusaSlicer 2.9.4 on 2026-03-18 at 00:35:01 UTC


;
;
; 

; external perimeters extrusion width = 0.45mm
; perimeters extrusion width = 0.45mm
; infill extrusion width = 0.45mm
; solid infill extrusion width = 0.45mm
; top infill extrusion width = 0.40mm
; first layer extrusion width = 0.42mm

M73 P0 R23
M73 Q0 S23
M201 X1000 Y1000 Z200 E5000 ; sets maximum accelerations, mm/sec^2
M203 X200 Y200 Z12 E120 ; sets maximum feedrates, mm / sec
M204 S1250 T1250 ; sets acceleration (S) and retract acceleration (R), mm/sec^2
M205 X8.00 Y8.00 Z0.40 E4.50 ; sets the jerk limits, mm/sec
M205 S0 T0 ; sets the minimum extruding and travel feed rate, mm/sec

; printing object Stand Mounting Plate.stl id:0 copy 0
; stop printing object Stand Mounting Plate.stl id:0 copy 0

;TYPE:Custom
M862.3 P "MK3S" ; printer model check
M862.1 P0.4 ; nozzle diameter check
M115 U3.14.1 ; tell printer latest fw version
G90 ; use absolute coordinates
M83 ; extruder relative mode
M104 S240 ; set extruder temp
M140 S90 ; set bed temp
M190 S90 ; wait for bed temp
M109 S240 ; wait for extruder temp
G28 W ; home all without mesh bed level
G80 X99.0003 Y89.6479 W51.9993 H30.7042 ; mesh bed levelling

G1 Z0.2 F720
G1 Y-3 F1000 ; go outside print area
G92 E0
G1 X60 E9 F1000 ; intro line
G1 X100 E12.5 F1000 ; intro line

G92 E0
M221 S95

; Don't change E values below. Excessive value can damage the printer.
M907 E430 ; set extruder motor current
G21 ; set units to millimeters
G90 ; use absolute coordinates
M83 ; use relative distances for extrusion

M900 K0.08 ; Filament gcode LA 1.5
M900 K45 ; Filament gcode LA 1.0




M107
;LAYER_CHANGE
;Z:0.2
;HEIGHT:0.2
G1 E-1 F2100
G1 Z.4 F720
G1 X99.58 Y90.777 F10800
G1 Z.2 F720
G1 E1 F2100
M204 S800
;TYPE:Skirt/Brim
;WIDTH:0.42
G1 F1200
G1 X100.613 Y89.974 E.04102
G1 X101.377 Y89.836 E.02434
G1 X148.623 Y89.836 E1.48137
G1 X149.871 Y90.227 E.04101
G1 X150.673 Y91.26 E.041
G1 X150.811 Y92.025 E.02437
G1 X150.811 Y117.975 E.81364
G1 X150.42 Y119.223 E.04101
G1 X149.387 Y120.026 E.04102
G1 X148.623 Y120.164 E.02434
G1 X101.377 Y120.164 E1.48137
G1 X100.129 Y119.773 E.04101
G1 X99.327 Y118.74 E.041
G1 X99.189 Y117.975 E.02437
G1 X99.189 Y92.025 E.81364
G1 X99.562 Y90.834 E.03913
M73 P1 R23
M73 Q1 S23
M204 S1000
;WIPE_START
G1 F8640
G1 X99.58 Y90.777 E-.0138
G1 X100.613 Y89.974 E-.30211
G1 X101.377 Y89.836 E-.17926
G1 X103.563 Y89.836 E-.50483
;WIPE_END
G1 Z.4 F720
; printing object Stand Mounting Plate.stl id:0 copy 0
G1 X128.982 Y107.14 F10800
G1 Z.2 F720
G1 E1 F2100
M204 S800
;TYPE:Perimeter
;WIDTH:0.419999
G1 F1200
G1 X128.948 Y107.091 E.00187
G1 X128.761 Y106.64 E.01531
G1 X128.671 Y106.16 E.01531
G1 X128.684 Y105.672 E.01531
G1 X128.797 Y105.197 E.01531
G1 X129.007 Y104.756 E.01531
G1 X129.238 Y104.439 E.0123
G1 X129.663 Y104.058 E.0179
G1 X130.104 Y103.818 E.01574
G1 X130.572 Y103.679 E.01531
G1 X131.007 Y103.643 E.01369
G1 X131.508 Y103.693 E.01579
G1 X132.004 Y103.866 E.01647
G1 X132.42 Y104.121 E.0153
G1 X132.82 Y104.518 E.01767
G1 X133.052 Y104.859 E.01293
G1 X133.239 Y105.31 E.01531
G1 X133.329 Y105.829 E.01652
G1 X133.306 Y106.324 E.01554
G1 X133.203 Y106.753 E.01383
G1 X132.993 Y107.194 E.01531
G1 X132.696 Y107.581 E.0153
G1 X132.325 Y107.899 E.01532
G1 X131.896 Y108.132 E.01531
G1 X131.322 Y108.283 E.01861
G1 X130.941 Y108.31 E.01198
G1 X130.457 Y108.247 E.0153
G1 X129.996 Y108.084 E.01533
G1 X129.58 Y107.829 E.0153
G1 X129.225 Y107.494 E.0153
G1 X129.016 Y107.19 E.01157
M204 S1000
G1 X129.304 Y106.954 F10800
M204 S800
;TYPE:External perimeter
G1 F1200
G1 X129.293 Y106.938 E.00061
G1 X129.13 Y106.562 E.01285
G1 X129.048 Y106.16 E.01286
G1 X129.053 Y105.751 E.01282
G1 X129.142 Y105.351 E.01285
G1 X129.312 Y104.978 E.01285
G1 X129.534 Y104.672 E.01185
G1 X129.864 Y104.378 E.01386
G1 X130.221 Y104.176 E.01286
G1 X130.612 Y104.054 E.01284
G1 X130.975 Y104.019 E.01143
G1 X131.427 Y104.062 E.01424
G1 X131.815 Y104.192 E.01283
G1 X132.168 Y104.401 E.01286
G1 X132.515 Y104.74 E.01521
G1 X132.707 Y105.012 E.01044
G1 X132.87 Y105.388 E.01285
G1 X132.952 Y105.829 E.01406
G1 X132.938 Y106.246 E.01308
G1 X132.858 Y106.599 E.01135
G1 X132.688 Y106.972 E.01285
G1 X132.444 Y107.301 E.01284
G1 X132.006 Y107.648 E.01752
G1 X131.779 Y107.774 E.00814
G1 X131.282 Y107.908 E.01614
G1 X130.98 Y107.935 E.00951
G1 X130.573 Y107.888 E.01285
G1 X130.185 Y107.758 E.01283
G1 X129.832 Y107.549 E.01286
G1 X129.53 Y107.272 E.01285
G1 X129.339 Y107.003 E.01034
M204 S1000
;WIPE_START
G1 F8640
G1 X129.304 Y106.954 E-.0139
G1 X129.293 Y106.938 E-.00448
G1 X129.13 Y106.562 E-.09463
G1 X129.048 Y106.16 E-.09473
G1 X129.053 Y105.751 E-.09445
G1 X129.142 Y105.351 E-.09462
G1 X129.312 Y104.978 E-.09465
G1 X129.534 Y104.672 E-.08729
G1 X129.864 Y104.378 E-.10205
G1 X130.221 Y104.176 E-.09471
G1 X130.612 Y104.054 E-.09458
G1 X130.975 Y104.019 E-.08421
G1 X131.172 Y104.038 E-.0457
;WIPE_END
G1 Z.4 F720
G1 X124.078 Y97.846 F10800
G1 Z.2 F720
G1 E1 F2100
M204 S800
;TYPE:Perimeter
G1 F1200
G1 X124.131 Y97.818 E.00188
G1 X124.599 Y97.679 E.01531
G1 X125.033 Y97.643 E.01365
G1 X125.57 Y97.703 E.01694
G1 X126.03 Y97.866 E.0153
G1 X126.447 Y98.121 E.01533
G1 X126.801 Y98.456 E.01528
G1 X127.078 Y98.859 E.01533
G1 X127.266 Y99.31 E.01532
G1 X127.355 Y99.79 E.01531
G1 X127.343 Y100.278 E.01531
G1 X127.229 Y100.753 E.01532
G1 X127.019 Y101.194 E.01531
G1 X126.722 Y101.581 E.0153
G1 X126.351 Y101.899 E.01532
G1 X125.922 Y102.132 E.01531
G1 X125.454 Y102.271 E.01531
G1 X124.967 Y102.31 E.01532
G1 X124.483 Y102.247 E.0153
G1 X124.023 Y102.084 E.0153
G1 X123.583 Y101.808 E.01629
G1 X123.252 Y101.494 E.01431
G1 X122.975 Y101.091 E.01533
G1 X122.787 Y100.64 E.01532
G1 X122.698 Y100.16 E.01531
G1 X122.7 Y99.745 E.01301
G1 X122.824 Y99.197 E.01762
G1 X123.034 Y98.756 E.01531
G1 X123.331 Y98.369 E.0153
G1 X123.702 Y98.051 E.01532
G1 X124.026 Y97.875 E.01156
M204 S1000
G1 X124.23 Y98.186 F10800
M204 S800
;TYPE:External perimeter
G1 F1200
G1 X124.247 Y98.176 E.00062
G1 X124.638 Y98.054 E.01284
G1 X125.002 Y98.019 E.01147
G1 X125.453 Y98.062 E.0142
G1 X125.842 Y98.192 E.01286
G1 X126.195 Y98.401 E.01286
G1 X126.496 Y98.678 E.01283
G1 X126.734 Y99.012 E.01286
G1 X126.929 Y99.538 E.01759
G1 X126.978 Y99.79 E.00805
G1 X126.974 Y100.199 E.01282
G1 X126.885 Y100.599 E.01285
G1 X126.714 Y100.972 E.01287
G1 X126.47 Y101.301 E.01284
G1 X126.163 Y101.572 E.01284
G1 X125.806 Y101.774 E.01286
G1 X125.415 Y101.896 E.01284
G1 X125.007 Y101.935 E.01285
G1 X124.6 Y101.888 E.01285
G1 X124.211 Y101.758 E.01286
G1 X123.835 Y101.528 E.01382
G1 X123.557 Y101.272 E.01185
G1 X123.319 Y100.938 E.01286
G1 X123.156 Y100.562 E.01285
G1 X123.075 Y100.16 E.01286
G1 X123.076 Y99.775 E.01207
G1 X123.168 Y99.351 E.0136
G1 X123.339 Y98.978 E.01287
G1 X123.583 Y98.649 E.01284
G1 X123.89 Y98.378 E.01284
G1 X124.178 Y98.216 E.01036
M204 S1000
;WIPE_START
G1 F8640
G1 X124.23 Y98.186 E-.01386
G1 X124.247 Y98.176 E-.00455
G1 X124.638 Y98.054 E-.09458
G1 X125.002 Y98.019 E-.08444
G1 X125.453 Y98.062 E-.10461
G1 X125.842 Y98.192 E-.0947
G1 X126.195 Y98.401 E-.09472
G1 X126.496 Y98.678 E-.09445
G1 X126.734 Y99.012 E-.0947
G1 X126.929 Y99.538 E-.12953
G1 X126.978 Y99.79 E-.05928
G1 X126.974 Y100.199 E-.09444
G1 X126.94 Y100.352 E-.03614
;WIPE_END
G1 Z.4 F720
G1 X119 Y108.305 F10800
G1 Z.2 F720
G1 E1 F2100
M204 S800
;TYPE:Perimeter
G1 F1200
G1 X118.941 Y108.31 E.00186
G1 X118.457 Y108.247 E.0153
G1 X117.996 Y108.084 E.01533
G1 X117.533 Y107.788 E.01723
G1 X117.225 Y107.494 E.01335
G1 X116.948 Y107.091 E.01533
G1 X116.761 Y106.64 E.01531
G1 X116.671 Y106.064 E.01828
G1 X116.684 Y105.672 E.0123
G1 X116.797 Y105.197 E.01531
G1 X117.007 Y104.756 E.01531
G1 X117.304 Y104.369 E.0153
G1 X117.58 Y104.121 E.01163
G1 X118.017 Y103.854 E.01606
G1 X118.492 Y103.693 E.01573
G1 X118.994 Y103.642 E.01582
G1 X119.522 Y103.697 E.01664
G1 X120.004 Y103.866 E.01601
G1 X120.42 Y104.121 E.0153
G1 X120.775 Y104.456 E.0153
G1 X121.052 Y104.859 E.01533
G1 X121.239 Y105.31 E.01531
G1 X121.329 Y105.79 E.01531
G1 X121.316 Y106.278 E.01531
G1 X121.203 Y106.753 E.01531
G1 X120.993 Y107.194 E.01531
G1 X120.696 Y107.581 E.0153
G1 X120.325 Y107.899 E.01532
G1 X119.896 Y108.132 E.01531
G1 X119.428 Y108.271 E.01531
G1 X119.06 Y108.301 E.01158
M204 S1000
G1 X119 Y107.933 F10800
M204 S800
;TYPE:External perimeter
G1 F1200
G1 X118.98 Y107.935 E.00063
G1 X118.573 Y107.888 E.01285
G1 X118.185 Y107.758 E.01283
G1 X117.786 Y107.508 E.01476
G1 X117.53 Y107.272 E.01092
G1 X117.293 Y106.938 E.01284
G1 X117.13 Y106.562 E.01285
G1 X117.048 Y106.064 E.01582
G1 X117.085 Y105.598 E.01466
G1 X117.142 Y105.351 E.00795
G1 X117.312 Y104.978 E.01285
G1 X117.556 Y104.649 E.01284
G1 X117.832 Y104.401 E.01163
G1 X118.221 Y104.176 E.01409
G1 X118.612 Y104.054 E.01284
G1 X118.975 Y104.019 E.01143
G1 X119.427 Y104.062 E.01424
G1 X119.815 Y104.192 E.01283
G1 X120.168 Y104.401 E.01286
G1 X120.47 Y104.678 E.01285
G1 X120.707 Y105.012 E.01284
G1 X120.87 Y105.388 E.01285
G1 X120.952 Y105.79 E.01286
G1 X120.947 Y106.199 E.01282
G1 X120.858 Y106.599 E.01285
G1 X120.688 Y106.972 E.01285
G1 X120.444 Y107.301 E.01284
G1 X120.136 Y107.572 E.01286
G1 X119.779 Y107.774 E.01286
G1 X119.388 Y107.896 E.01284
G1 X119.06 Y107.928 E.01033
M204 S1000
;WIPE_START
G1 F8640
G1 X119 Y107.933 E-.0139
G1 X118.98 Y107.935 E-.00464
G1 X118.573 Y107.888 E-.0946
G1 X118.185 Y107.758 E-.09449
G1 X117.786 Y107.508 E-.10872
G1 X117.53 Y107.272 E-.0804
G1 X117.293 Y106.938 E-.09456
G1 X117.13 Y106.562 E-.09463
G1 X117.048 Y106.064 E-.11654
G1 X117.085 Y105.598 E-.10794
G1 X117.142 Y105.351 E-.05853
G1 X117.312 Y104.978 E-.09465
G1 X117.406 Y104.851 E-.0364
;WIPE_END
G1 Z.4 F720
G1 X127.344 Y111.731 F10800
G1 Z.2 F720
G1 E1 F2100
M204 S800
;TYPE:Perimeter
G1 F1200
G1 X127.355 Y111.79 E.00188
G1 X127.343 Y112.278 E.01531
G1 X127.229 Y112.753 E.01532
G1 X127.019 Y113.194 E.01531
G1 X126.722 Y113.581 E.0153
G1 X126.351 Y113.899 E.01532
G1 X125.922 Y114.132 E.01531
G1 X125.454 Y114.271 E.01531
G1 X124.967 Y114.31 E.01532
G1 X124.483 Y114.247 E.0153
G1 X124.023 Y114.084 E.0153
G1 X123.606 Y113.829 E.01533
G1 X123.252 Y113.494 E.01528
G1 X122.975 Y113.091 E.01533
G1 X122.787 Y112.64 E.01532
G1 X122.698 Y112.16 E.01531
G1 X122.71 Y111.672 E.01531
G1 X122.824 Y111.197 E.01532
G1 X123.034 Y110.756 E.01531
G1 X123.331 Y110.369 E.0153
G1 X123.702 Y110.051 E.01532
G1 X124.131 Y109.818 E.01531
G1 X124.599 Y109.679 E.01531
G1 X125.033 Y109.643 E.01365
G1 X125.541 Y109.695 E.01601
G1 X126.03 Y109.866 E.01624
G1 X126.447 Y110.121 E.01533
G1 X126.801 Y110.456 E.01528
G1 X127.078 Y110.859 E.01533
G1 X127.266 Y111.31 E.01532
G1 X127.333 Y111.672 E.01154
M204 S1000
G1 X126.974 Y111.77 F10800
M204 S800
;TYPE:External perimeter
G1 F1200
G1 X126.978 Y111.79 E.00064
G1 X126.974 Y112.199 E.01282
G1 X126.885 Y112.599 E.01285
G1 X126.714 Y112.972 E.01287
G1 X126.47 Y113.301 E.01284
G1 X126.163 Y113.572 E.01284
G1 X125.806 Y113.774 E.01286
G1 X125.415 Y113.896 E.01284
G1 X125.007 Y113.935 E.01285
G1 X124.6 Y113.888 E.01285
G1 X124.211 Y113.758 E.01286
G1 X123.858 Y113.549 E.01286
G1 X123.557 Y113.272 E.01283
G1 X123.319 Y112.938 E.01286
G1 X123.156 Y112.562 E.01285
G1 X123.075 Y112.16 E.01286
G1 X123.079 Y111.751 E.01282
G1 X123.168 Y111.351 E.01285
G1 X123.339 Y110.978 E.01287
G1 X123.583 Y110.649 E.01284
G1 X123.89 Y110.378 E.01284
G1 X124.247 Y110.176 E.01286
G1 X124.638 Y110.054 E.01284
G1 X125.002 Y110.019 E.01147
G1 X125.453 Y110.062 E.0142
G1 X125.842 Y110.192 E.01286
G1 X126.195 Y110.401 E.01286
G1 X126.496 Y110.678 E.01283
G1 X126.734 Y111.012 E.01286
G1 X126.897 Y111.388 E.01285
G1 X126.962 Y111.711 E.01033
M204 S1000
;WIPE_START
G1 F8640
G1 X126.974 Y111.77 E-.0139
G1 X126.978 Y111.79 E-.00471
G1 X126.974 Y112.199 E-.09444
G1 X126.885 Y112.599 E-.09462
G1 X126.714 Y112.972 E-.09475
G1 X126.47 Y113.301 E-.09458
G1 X126.163 Y113.572 E-.09455
G1 X125.806 Y113.774 E-.09471
G1 X125.415 Y113.896 E-.09458
G1 X125.007 Y113.935 E-.09464
G1 X124.6 Y113.888 E-.0946
G1 X124.211 Y113.758 E-.0947
G1 X124.08 Y113.68 E-.03522
;WIPE_END
G1 Z.4 F720
G1 X109.03 Y108.534 F10800
G1 Z.2 F720
G1 E1 F2100
M204 S800
;TYPE:Perimeter
G1 F1200
G1 X109.501 Y108.677 E.01543
G1 X110.015 Y108.925 E.01789
G1 X110.47 Y109.243 E.01741
G1 X110.838 Y109.59 E.01586
G1 X111.152 Y109.991 E.01597
G1 X111.424 Y110.466 E.01716
G1 X111.633 Y111.031 E.01889
G1 X111.735 Y111.528 E.01591
G1 X111.762 Y112.039 E.01604
G1 X111.71 Y112.584 E.01717
G1 X111.572 Y113.123 E.01745
G1 X111.353 Y113.629 E.01729
G1 X111.055 Y114.098 E.01742
G1 X110.719 Y114.483 E.01602
G1 X110.3 Y114.84 E.01726
G1 X109.829 Y115.128 E.01731
G1 X109.235 Y115.364 E.02004
G1 X108.735 Y115.474 E.01605
G1 X108.227 Y115.513 E.01597
G1 X107.72 Y115.474 E.01594
G1 X107.22 Y115.364 E.01605
G1 X106.706 Y115.167 E.01726
G1 X106.227 Y114.891 E.01733
G1 X105.796 Y114.542 E.01739
G1 X105.424 Y114.128 E.01745
G1 X105.143 Y113.705 E.01592
G1 X104.929 Y113.244 E.01594
G1 X104.763 Y112.679 E.01846
G1 X104.697 Y112.165 E.01625
G1 X104.709 Y111.616 E.01722
G1 X104.809 Y111.072 E.01734
G1 X104.993 Y110.547 E.01744
G1 X105.232 Y110.096 E.016
G1 X105.558 Y109.655 E.0172
G1 X105.954 Y109.267 E.01738
G1 X106.369 Y108.967 E.01606
G1 X106.858 Y108.715 E.01725
G1 X107.382 Y108.541 E.01731
G1 X107.894 Y108.457 E.01627
G1 X108.441 Y108.446 E.01715
G1 X108.972 Y108.519 E.01681
M204 S1000
G1 X108.945 Y108.899 F10800
M204 S800
;TYPE:External perimeter
G1 F1200
G1 X109.423 Y109.05 E.01572
G1 X109.871 Y109.277 E.01575
G1 X110.271 Y109.567 E.01549
G1 X110.596 Y109.883 E.01421
G1 X110.997 Y110.474 E.02239
G1 X111.108 Y110.679 E.00731
G1 X111.277 Y111.157 E.0159
G1 X111.368 Y111.628 E.01504
G1 X111.384 Y112.08 E.01418
G1 X111.329 Y112.574 E.01558
G1 X111.198 Y113.053 E.01557
G1 X110.995 Y113.501 E.01542
G1 X110.722 Y113.914 E.01552
G1 X110.418 Y114.252 E.01425
G1 X110.035 Y114.567 E.01555
G1 X109.61 Y114.816 E.01544
G1 X109.149 Y114.997 E.01553
G1 X108.705 Y115.098 E.01428
G1 X108.213 Y115.135 E.01547
G1 X107.721 Y115.094 E.01548
G1 X107.279 Y114.988 E.01425
G1 X106.818 Y114.803 E.01557
G1 X106.395 Y114.55 E.01545
G1 X106.016 Y114.231 E.01553
G1 X105.692 Y113.858 E.01549
G1 X105.446 Y113.475 E.01427
G1 X105.264 Y113.064 E.01409
G1 X105.126 Y112.576 E.0159
G1 X105.07 Y112.094 E.01521
G1 X105.09 Y111.599 E.01553
G1 X105.187 Y111.116 E.01545
G1 X105.359 Y110.652 E.01552
G1 X105.578 Y110.253 E.01427
G1 X105.879 Y109.861 E.0155
G1 X106.236 Y109.521 E.01546
G1 X106.61 Y109.262 E.01426
G1 X107.068 Y109.037 E.016
G1 X107.525 Y108.894 E.01501
G1 X108.227 Y108.823 E.02212
G1 X108.886 Y108.89 E.02077
M204 S1000
;WIPE_START
G1 F8640
G1 X108.945 Y108.899 E-.01378
G1 X109.423 Y109.05 E-.11575
G1 X109.871 Y109.277 E-.11597
G1 X110.271 Y109.567 E-.11408
G1 X110.596 Y109.883 E-.10467
G1 X110.997 Y110.474 E-.16491
G1 X111.108 Y110.679 E-.05383
G1 X111.277 Y111.157 E-.11707
G1 X111.368 Y111.628 E-.11077
G1 X111.382 Y112.014 E-.08917
;WIPE_END
G1 Z.4 F720
G1 X109.552 Y96.7 F10800
G1 Z.2 F720
G1 E1 F2100
M204 S800
;TYPE:Perimeter
G1 F1200
G1 X110.015 Y96.925 E.01614
G1 X110.47 Y97.243 E.01741
G1 X110.838 Y97.59 E.01586
G1 X111.152 Y97.991 E.01597
G1 X111.424 Y98.466 E.01716
G1 X111.633 Y99.031 E.01889
G1 X111.735 Y99.528 E.01591
G1 X111.762 Y100.039 E.01604
G1 X111.71 Y100.584 E.01717
G1 X111.572 Y101.123 E.01745
G1 X111.353 Y101.629 E.01729
G1 X111.07 Y102.075 E.01656
G1 X110.719 Y102.483 E.01688
G1 X110.331 Y102.815 E.01601
G1 X109.829 Y103.128 E.01855
G1 X109.327 Y103.334 E.01701
G1 X108.819 Y103.461 E.01642
G1 X108.272 Y103.511 E.01722
G1 X107.756 Y103.477 E.01621
G1 X107.22 Y103.364 E.01718
G1 X106.706 Y103.167 E.01726
G1 X106.227 Y102.891 E.01733
G1 X105.796 Y102.542 E.01739
G1 X105.424 Y102.128 E.01745
G1 X105.143 Y101.705 E.01592
G1 X104.929 Y101.244 E.01594
G1 X104.763 Y100.679 E.01846
G1 X104.697 Y100.165 E.01625
G1 X104.709 Y99.616 E.01722
G1 X104.809 Y99.072 E.01734
G1 X104.993 Y98.547 E.01744
G1 X105.232 Y98.096 E.016
G1 X105.558 Y97.655 E.0172
G1 X105.954 Y97.267 E.01738
G1 X106.369 Y96.967 E.01606
G1 X106.858 Y96.715 E.01725
G1 X107.382 Y96.541 E.01731
G1 X107.93 Y96.452 E.01741
