; generated by PrusaSlicer 2.9.4 on 2026-03-19 at 17:29:26 UTC


;
;
; 

; external perimeters extrusion width = 0.45mm
; perimeters extrusion width = 0.45mm
; infill extrusion width = 0.45mm
; solid infill extrusion width = 0.45mm
; top infill extrusion width = 0.40mm
; first layer extrusion width = 0.42mm

; external perimeters extrusion width = 0.45mm
; perimeters extrusion width = 0.45mm
; infill extrusion width = 0.45mm
; solid infill extrusion width = 0.45mm
; top infill extrusion width = 0.40mm
; first layer extrusion width = 0.42mm

; external perimeters extrusion width = 0.45mm
; perimeters extrusion width = 0.45mm
; infill extrusion width = 0.45mm
; solid infill extrusion width = 0.45mm
; top infill extrusion width = 0.40mm
; first layer extrusion width = 0.42mm

; external perimeters extrusion width = 0.45mm
; perimeters extrusion width = 0.45mm
; infill extrusion width = 0.45mm
; solid infill extrusion width = 0.45mm
; top infill extrusion width = 0.40mm
; first layer extrusion width = 0.42mm

M73 P0 R16
M73 Q0 S16
M201 X1000 Y1000 Z200 E5000 ; sets maximum accelerations, mm/sec^2
M203 X200 Y200 Z12 E120 ; sets maximum feedrates, mm / sec
M204 S1250 T1250 ; sets acceleration (S) and retract acceleration (R), mm/sec^2
M205 X8.00 Y8.00 Z0.40 E4.50 ; sets the jerk limits, mm/sec
M205 S0 T0 ; sets the minimum extruding and travel feed rate, mm/sec

; printing object J1 Cover.stl id:3 copy 0
; stop printing object J1 Cover.stl id:3 copy 0
; printing object J3 Cover.stl id:1 copy 0
; stop printing object J3 Cover.stl id:1 copy 0
; printing object J4 Cover.stl id:0 copy 0
; stop printing object J4 Cover.stl id:0 copy 0
; printing object J2 Cover.stl id:2 copy 0
; stop printing object J2 Cover.stl id:2 copy 0

;TYPE:Custom
M862.3 P "MK3S" ; printer model check
M862.1 P0.4 ; nozzle diameter check
M115 U3.14.1 ; tell printer latest fw version
G90 ; use absolute coordinates
M83 ; extruder relative mode
M104 S240 ; set extruder temp
M140 S90 ; set bed temp
M190 S90 ; wait for bed temp
M109 S240 ; wait for extruder temp
G28 W ; home all without mesh bed level
G80 X76.934 Y89.159 W73.9969 H30.6819 ; mesh bed levelling

G1 Z0.2 F720
G1 Y-3 F1000 ; go outside print area
G92 E0
G1 X60 E9 F1000 ; intro line
G1 X100 E12.5 F1000 ; intro line

G92 E0
M221 S95

; Don't change E values below. Excessive value can damage the printer.
M907 E430 ; set extruder motor current
G21 ; set units to millimeters
G90 ; use absolute coordinates
M83 ; use relative distances for extrusion

M900 K0.08 ; Filament gcode LA 1.5
M900 K45 ; Filament gcode LA 1.0




M107
;LAYER_CHANGE
;Z:0.2
;HEIGHT:0.2
G1 E-1 F2100
G1 Z.4 F720
G1 X77.517 Y90.288 F10800
G1 Z.2 F720
G1 E1 F2100
M204 S800
;TYPE:Skirt/Brim
;WIDTH:0.42
G1 F1200
G1 X78.551 Y89.487 E.04101
G1 X79.311 Y89.35 E.02421
G1 X134.689 Y89.35 E1.73634
G1 X135.447 Y89.486 E.02415
M73 P1 R16
M73 Q1 S16
G1 X145.589 Y93.243 E.33911
G1 X146.624 Y94.043 E.04102
G1 X146.922 Y94.655 E.02134
G1 X150.646 Y106.837 E.39941
G1 X150.742 Y107.476 E.02026
G1 X150.742 Y116.734 E.29028
G1 X150.35 Y117.983 E.04104
G1 X149.317 Y118.785 E.041
G1 X148.668 Y118.919 E.02078
G1 X134.689 Y119.65 E.4389
G1 X79.311 Y119.65 E1.73634
G1 X78.064 Y119.258 E.04099
G1 X77.262 Y118.225 E.041
G1 X77.125 Y117.464 E.02424
G1 X77.125 Y91.536 E.81295
G1 X77.499 Y90.346 E.03911
M204 S1000
;WIPE_START
G1 F8640
G1 X77.517 Y90.288 E-.01402
G1 X78.551 Y89.487 E-.30201
G1 X79.311 Y89.35 E-.17831
G1 X81.501 Y89.35 E-.50566
;WIPE_END
G1 Z.4 F720
; printing object J2 Cover.stl id:2 copy 0
G1 X133.542 Y116.317 F10800
G1 Z.2 F720
G1 E1 F2100
M204 S800
;TYPE:Perimeter
;WIDTH:0.419999
G1 F1200
G1 X80.458 Y116.317 E1.66441
G1 X80.458 Y109.683 E.208
M73 P2 R16
M73 Q2 S16
G1 X133.542 Y109.683 E1.66441
G1 X133.542 Y116.257 E.20612
M73 P2 R15
M204 S1000
G1 X133.919 Y116.694 F10800
M204 S800
;TYPE:External perimeter
G1 F1200
G1 X80.081 Y116.694 E1.68805
G1 X80.081 Y109.306 E.23165
G1 X133.919 Y109.306 E1.68805
G1 X133.919 Y116.634 E.22976
M73 P3 R15
M204 S1000
;WIPE_START
G1 F8640
M73 Q3 S16
G1 X133.919 Y116.694 E-.01385
G1 X129.648 Y116.694 E-.98615
;WIPE_END
G1 Z.4 F720
G1 X133.391 Y110.604 F10800
G1 Z.2 F720
G1 E1 F2100
M204 S800
;TYPE:Solid infill
;WIDTH:0.423398
G1 F1200
G1 X132.791 Y110.004 E.02684
G1 X132.253 Y110.004 E.01702
G1 X133.221 Y110.972 E.04331
G1 X133.221 Y111.51 E.01702
G1 X131.715 Y110.004 E.06738
G1 X131.177 Y110.004 E.01702
G1 X133.221 Y112.048 E.09145
G1 X133.221 Y112.586 E.01702
G1 X130.639 Y110.004 E.11552
G1 X130.101 Y110.004 E.01702
G1 X133.221 Y113.124 E.13959
G1 X133.221 Y113.662 E.01702
G1 X129.563 Y110.004 E.16366
G1 X129.024 Y110.004 E.01705
G1 X133.221 Y114.201 E.18778
G1 X133.221 Y114.739 E.01702
G1 X128.486 Y110.004 E.21185
G1 X127.948 Y110.004 E.01702
G1 X133.221 Y115.277 E.23592
G1 X133.221 Y115.815 E.01702
G1 X127.41 Y110.004 E.25999
G1 X126.872 Y110.004 E.01702
G1 X132.864 Y115.996 E.26809
G1 X132.326 Y115.996 E.01702
G1 X126.334 Y110.004 E.26809
G1 X125.796 Y110.004 E.01702
G1 X131.788 Y115.996 E.26809
G1 X131.25 Y115.996 E.01702
G1 X125.258 Y110.004 E.26809
G1 X124.72 Y110.004 E.01702
G1 X130.712 Y115.996 E.26809
G1 X130.174 Y115.996 E.01702
G1 X124.182 Y110.004 E.26809
G1 X123.644 Y110.004 E.01702
G1 X129.636 Y115.996 E.26809
G1 X129.098 Y115.996 E.01702
G1 X123.106 Y110.004 E.26809
G1 X122.568 Y110.004 E.01702
G1 X128.56 Y115.996 E.26809
G1 X128.022 Y115.996 E.01702
G1 X122.029 Y110.004 E.26811
G1 X121.491 Y110.004 E.01702
G1 X127.484 Y115.996 E.26811
G1 X126.946 Y115.996 E.01702
G1 X120.953 Y110.004 E.26811
G1 X120.415 Y110.004 E.01702
G1 X126.407 Y115.996 E.26809
G1 X125.869 Y115.996 E.01702
M73 P4 R15
G1 X119.877 Y110.004 E.26809
G1 X119.339 Y110.004 E.01702
M73 Q4 S16
G1 X125.331 Y115.996 E.26809
G1 X124.793 Y115.996 E.01702
G1 X118.801 Y110.004 E.26809
G1 X118.263 Y110.004 E.01702
G1 X124.255 Y115.996 E.26809
G1 X123.717 Y115.996 E.01702
G1 X117.725 Y110.004 E.26809
G1 X117.187 Y110.004 E.01702
G1 X123.179 Y115.996 E.26809
G1 X122.641 Y115.996 E.01702
G1 X116.649 Y110.004 E.26809
G1 X116.111 Y110.004 E.01702
G1 X122.103 Y115.996 E.26809
G1 X121.565 Y115.996 E.01702
G1 X115.573 Y110.004 E.26809
G1 X115.034 Y110.004 E.01705
G1 X121.027 Y115.996 E.26811
G1 X120.489 Y115.996 E.01702
M73 Q4 S15
G1 X114.496 Y110.004 E.26811
G1 X113.958 Y110.004 E.01702
G1 X119.951 Y115.996 E.26811
G1 X119.412 Y115.996 E.01705
G1 X113.42 Y110.004 E.26809
G1 X112.882 Y110.004 E.01702
G1 X118.874 Y115.996 E.26809
G1 X118.336 Y115.996 E.01702
G1 X112.344 Y110.004 E.26809
G1 X111.806 Y110.004 E.01702
G1 X117.798 Y115.996 E.26809
G1 X117.26 Y115.996 E.01702
G1 X111.268 Y110.004 E.26809
G1 X110.73 Y110.004 E.01702
G1 X116.722 Y115.996 E.26809
G1 X116.184 Y115.996 E.01702
G1 X110.192 Y110.004 E.26809
G1 X109.654 Y110.004 E.01702
G1 X115.646 Y115.996 E.26809
G1 X115.108 Y115.996 E.01702
G1 X109.116 Y110.004 E.26809
G1 X108.578 Y110.004 E.01702
G1 X114.57 Y115.996 E.26809
G1 X114.032 Y115.996 E.01702
M73 P5 R15
G1 X108.039 Y110.004 E.26811
G1 X107.501 Y110.004 E.01702
M73 Q5 S15
G1 X113.494 Y115.996 E.26811
G1 X112.956 Y115.996 E.01702
G1 X106.963 Y110.004 E.26811
G1 X106.425 Y110.004 E.01702
G1 X112.417 Y115.996 E.26809
G1 X111.879 Y115.996 E.01702
G1 X105.887 Y110.004 E.26809
G1 X105.349 Y110.004 E.01702
G1 X111.341 Y115.996 E.26809
G1 X110.803 Y115.996 E.01702
G1 X104.811 Y110.004 E.26809
G1 X104.273 Y110.004 E.01702
G1 X110.265 Y115.996 E.26809
G1 X109.727 Y115.996 E.01702
G1 X103.735 Y110.004 E.26809
G1 X103.197 Y110.004 E.01702
G1 X109.189 Y115.996 E.26809
G1 X108.651 Y115.996 E.01702
G1 X102.659 Y110.004 E.26809
G1 X102.121 Y110.004 E.01702
G1 X108.113 Y115.996 E.26809
G1 X107.575 Y115.996 E.01702
G1 X101.583 Y110.004 E.26809
G1 X101.044 Y110.004 E.01705
G1 X107.037 Y115.996 E.26811
G1 X106.499 Y115.996 E.01702
G1 X100.506 Y110.004 E.26811
G1 X99.968 Y110.004 E.01702
G1 X105.961 Y115.996 E.26811
G1 X105.422 Y115.996 E.01705
G1 X99.43 Y110.004 E.26809
G1 X98.892 Y110.004 E.01702
G1 X104.884 Y115.996 E.26809
G1 X104.346 Y115.996 E.01702
G1 X98.354 Y110.004 E.26809
G1 X97.816 Y110.004 E.01702
G1 X103.808 Y115.996 E.26809
G1 X103.27 Y115.996 E.01702
G1 X97.278 Y110.004 E.26809
G1 X96.74 Y110.004 E.01702
M73 P6 R15
G1 X102.732 Y115.996 E.26809
G1 X102.194 Y115.996 E.01702
G1 X96.202 Y110.004 E.26809
G1 X95.664 Y110.004 E.01702
M73 Q6 S15
G1 X101.656 Y115.996 E.26809
G1 X101.118 Y115.996 E.01702
G1 X95.126 Y110.004 E.26809
G1 X94.588 Y110.004 E.01702
G1 X100.58 Y115.996 E.26809
G1 X100.042 Y115.996 E.01702
G1 X94.049 Y110.004 E.26811
G1 X93.511 Y110.004 E.01702
G1 X99.504 Y115.996 E.26811
G1 X98.965 Y115.996 E.01705
G1 X92.973 Y110.004 E.26809
G1 X92.435 Y110.004 E.01702
G1 X98.427 Y115.996 E.26809
G1 X97.889 Y115.996 E.01702
G1 X91.897 Y110.004 E.26809
G1 X91.359 Y110.004 E.01702
G1 X97.351 Y115.996 E.26809
G1 X96.813 Y115.996 E.01702
G1 X90.821 Y110.004 E.26809
G1 X90.283 Y110.004 E.01702
G1 X96.275 Y115.996 E.26809
G1 X95.737 Y115.996 E.01702
G1 X89.745 Y110.004 E.26809
G1 X89.207 Y110.004 E.01702
G1 X95.199 Y115.996 E.26809
G1 X94.661 Y115.996 E.01702
G1 X88.669 Y110.004 E.26809
G1 X88.131 Y110.004 E.01702
G1 X94.123 Y115.996 E.26809
G1 X93.585 Y115.996 E.01702
G1 X87.593 Y110.004 E.26809
G1 X87.054 Y110.004 E.01705
G1 X93.047 Y115.996 E.26811
G1 X92.509 Y115.996 E.01702
G1 X86.516 Y110.004 E.26811
G1 X85.978 Y110.004 E.01702
G1 X91.97 Y115.996 E.26809
G1 X91.432 Y115.996 E.01702
M73 P7 R15
G1 X85.44 Y110.004 E.26809
G1 X84.902 Y110.004 E.01702
G1 X90.894 Y115.996 E.26809
G1 X90.356 Y115.996 E.01702
M73 Q7 S15
G1 X84.364 Y110.004 E.26809
G1 X83.826 Y110.004 E.01702
G1 X89.818 Y115.996 E.26809
G1 X89.28 Y115.996 E.01702
G1 X83.288 Y110.004 E.26809
G1 X82.75 Y110.004 E.01702
G1 X88.742 Y115.996 E.26809
G1 X88.204 Y115.996 E.01702
G1 X82.212 Y110.004 E.26809
G1 X81.674 Y110.004 E.01702
G1 X87.666 Y115.996 E.26809
G1 X87.128 Y115.996 E.01702
G1 X81.136 Y110.004 E.26809
G1 X80.779 Y110.004 E.01129
G1 X80.779 Y110.185 E.00573
G1 X86.59 Y115.996 E.25999
G1 X86.052 Y115.996 E.01702
G1 X80.779 Y110.723 E.23592
G1 X80.779 Y111.261 E.01702
G1 X85.514 Y115.996 E.21185
G1 X84.975 Y115.996 E.01705
G1 X80.779 Y111.799 E.18776
G1 X80.779 Y112.338 E.01705
G1 X84.437 Y115.996 E.16366
G1 X83.899 Y115.996 E.01702
G1 X80.779 Y112.876 E.13959
G1 X80.779 Y113.414 E.01702
G1 X83.361 Y115.996 E.11552
G1 X82.823 Y115.996 E.01702
G1 X80.779 Y113.952 E.09145
G1 X80.779 Y114.49 E.01702
G1 X82.285 Y115.996 E.06738
G1 X81.747 Y115.996 E.01702
G1 X80.779 Y115.028 E.04331
G1 X80.779 Y115.566 E.01702
G1 X81.379 Y116.166 E.02684
M204 S1000
;WIPE_START
G1 F8640
G1 X80.779 Y115.566 E-.19593
G1 X80.779 Y115.028 E-.12423
G1 X81.747 Y115.996 E-.3161
G1 X82.285 Y115.996 E-.12423
G1 X81.551 Y115.262 E-.23951
;WIPE_END
G1 Z.4 F720
; stop printing object J2 Cover.stl id:2 copy 0
; printing object J1 Cover.stl id:3 copy 0
G1 X133.542 Y92.683 F10800
G1 Z.2 F720
G1 E1 F2100
M204 S800
;TYPE:Perimeter
;WIDTH:0.419999
G1 F1200
G1 X133.542 Y99.317 E.208
G1 X80.458 Y99.317 E1.66441
G1 X80.458 Y92.683 E.208
M73 P8 R15
M73 Q8 S15
G1 X133.482 Y92.683 E1.66253
M204 S1000
G1 X133.919 Y92.306 F10800
M73 P8 R14
M204 S800
;TYPE:External perimeter
G1 F1200
G1 X133.919 Y99.694 E.23165
G1 X80.081 Y99.694 E1.68805
G1 X80.081 Y92.306 E.23165
G1 X133.859 Y92.306 E1.68617
M204 S1000
;WIPE_START
G1 F8640
M73 P9 R14
G1 X133.919 Y92.306 E-.01385
G1 X133.919 Y96.577 E-.98615
;WIPE_END
G1 Z.4 F720
G1 X132.621 Y92.834 F10800
G1 Z.2 F720
G1 E1 F2100
M204 S800
;TYPE:Solid infill
;WIDTH:0.423398
G1 F1200
G1 X133.221 Y93.434 E.02684
G1 X133.221 Y93.972 E.01702
G1 X132.253 Y93.004 E.04331
G1 X131.715 Y93.004 E.01702
G1 X133.221 Y94.51 E.06738
G1 X133.221 Y95.048 E.01702
M73 Q9 S15
G1 X131.177 Y93.004 E.09145
G1 X130.639 Y93.004 E.01702
G1 X133.221 Y95.586 E.11552
G1 X133.221 Y96.124 E.01702
G1 X130.101 Y93.004 E.13959
G1 X129.563 Y93.004 E.01702
G1 X133.221 Y96.662 E.16366
G1 X133.221 Y97.201 E.01705
G1 X129.024 Y93.004 E.18778
G1 X128.486 Y93.004 E.01702
G1 X133.221 Y97.739 E.21185
G1 X133.221 Y98.277 E.01702
G1 X127.948 Y93.004 E.23592
G1 X127.41 Y93.004 E.01702
G1 X133.221 Y98.815 E.25999
G1 X133.221 Y98.996 E.00573
G1 X132.864 Y98.996 E.01129
G1 X126.872 Y93.004 E.26809
G1 X126.334 Y93.004 E.01702
G1 X132.326 Y98.996 E.26809
G1 X131.788 Y98.996 E.01702
G1 X125.796 Y93.004 E.26809
G1 X125.258 Y93.004 E.01702
G1 X131.25 Y98.996 E.26809
G1 X130.712 Y98.996 E.01702
G1 X124.72 Y93.004 E.26809
G1 X124.182 Y93.004 E.01702
G1 X130.174 Y98.996 E.26809
G1 X129.636 Y98.996 E.01702
G1 X123.644 Y93.004 E.26809
G1 X123.106 Y93.004 E.01702
G1 X129.098 Y98.996 E.26809
G1 X128.56 Y98.996 E.01702
G1 X122.568 Y93.004 E.26809
G1 X122.029 Y93.004 E.01705
G1 X128.022 Y98.996 E.26811
G1 X127.484 Y98.996 E.01702
G1 X121.491 Y93.004 E.26811
G1 X120.953 Y93.004 E.01702
G1 X126.946 Y98.996 E.26811
G1 X126.407 Y98.996 E.01705
G1 X120.415 Y93.004 E.26809
G1 X119.877 Y93.004 E.01702
M73 P10 R14
G1 X125.869 Y98.996 E.26809
G1 X125.331 Y98.996 E.01702
G1 X119.339 Y93.004 E.26809
G1 X118.801 Y93.004 E.01702
G1 X124.793 Y98.996 E.26809
G1 X124.255 Y98.996 E.01702
M73 Q10 S15
G1 X118.263 Y93.004 E.26809
G1 X117.725 Y93.004 E.01702
G1 X123.717 Y98.996 E.26809
G1 X123.179 Y98.996 E.01702
G1 X117.187 Y93.004 E.26809
G1 X116.649 Y93.004 E.01702
G1 X122.641 Y98.996 E.26809
G1 X122.103 Y98.996 E.01702
G1 X116.111 Y93.004 E.26809
G1 X115.573 Y93.004 E.01702
G1 X121.565 Y98.996 E.26809
G1 X121.027 Y98.996 E.01702
G1 X115.034 Y93.004 E.26811
G1 X114.496 Y93.004 E.01702
G1 X120.489 Y98.996 E.26811
G1 X119.951 Y98.996 E.01702
G1 X113.958 Y93.004 E.26811
G1 X113.42 Y93.004 E.01702
M73 Q10 S14
G1 X119.412 Y98.996 E.26809
G1 X118.874 Y98.996 E.01702
G1 X112.882 Y93.004 E.26809
G1 X112.344 Y93.004 E.01702
G1 X118.336 Y98.996 E.26809
G1 X117.798 Y98.996 E.01702
G1 X111.806 Y93.004 E.26809
G1 X111.268 Y93.004 E.01702
G1 X117.26 Y98.996 E.26809
G1 X116.722 Y98.996 E.01702
G1 X110.73 Y93.004 E.26809
G1 X110.192 Y93.004 E.01702
G1 X116.184 Y98.996 E.26809
G1 X115.646 Y98.996 E.01702
G1 X109.654 Y93.004 E.26809
G1 X109.116 Y93.004 E.01702
G1 X115.108 Y98.996 E.26809
G1 X114.57 Y98.996 E.01702
M73 P11 R14
G1 X108.578 Y93.004 E.26809
G1 X108.039 Y93.004 E.01705
G1 X114.032 Y98.996 E.26811
G1 X113.494 Y98.996 E.01702
G1 X107.501 Y93.004 E.26811
G1 X106.963 Y93.004 E.01702
G1 X112.956 Y98.996 E.26811
G1 X112.417 Y98.996 E.01705
M73 Q11 S14
G1 X106.425 Y93.004 E.26809
G1 X105.887 Y93.004 E.01702
G1 X111.879 Y98.996 E.26809
G1 X111.341 Y98.996 E.01702
G1 X105.349 Y93.004 E.26809
G1 X104.811 Y93.004 E.01702
G1 X110.803 Y98.996 E.26809
G1 X110.265 Y98.996 E.01702
G1 X104.273 Y93.004 E.26809
G1 X103.735 Y93.004 E.01702
G1 X109.727 Y98.996 E.26809
G1 X109.189 Y98.996 E.01702
G1 X103.197 Y93.004 E.26809
G1 X102.659 Y93.004 E.01702
G1 X108.651 Y98.996 E.26809
G1 X108.113 Y98.996 E.01702
G1 X102.121 Y93.004 E.26809
G1 X101.583 Y93.004 E.01702
G1 X107.575 Y98.996 E.26809
G1 X107.037 Y98.996 E.01702
G1 X101.044 Y93.004 E.26811
G1 X100.506 Y93.004 E.01702
G1 X106.499 Y98.996 E.26811
G1 X105.961 Y98.996 E.01702
G1 X99.968 Y93.004 E.26811
G1 X99.43 Y93.004 E.01702
G1 X105.422 Y98.996 E.26809
G1 X104.884 Y98.996 E.01702
G1 X98.892 Y93.004 E.26809
G1 X98.354 Y93.004 E.01702
G1 X104.346 Y98.996 E.26809
G1 X103.808 Y98.996 E.01702
G1 X97.816 Y93.004 E.26809
G1 X97.278 Y93.004 E.01702
M73 P12 R14
G1 X103.27 Y98.996 E.26809
G1 X102.732 Y98.996 E.01702
G1 X96.74 Y93.004 E.26809
G1 X96.202 Y93.004 E.01702
G1 X102.194 Y98.996 E.26809
G1 X101.656 Y98.996 E.01702
G1 X95.664 Y93.004 E.26809
G1 X95.126 Y93.004 E.01702
G1 X101.118 Y98.996 E.26809
G1 X100.58 Y98.996 E.01702
M73 Q12 S14
G1 X94.588 Y93.004 E.26809
G1 X94.049 Y93.004 E.01705
G1 X100.042 Y98.996 E.26811
G1 X99.504 Y98.996 E.01702
G1 X93.511 Y93.004 E.26811
G1 X92.973 Y93.004 E.01702
G1 X98.966 Y98.996 E.26811
G1 X98.427 Y98.996 E.01705
G1 X92.435 Y93.004 E.26809
G1 X91.897 Y93.004 E.01702
G1 X97.889 Y98.996 E.26809
G1 X97.351 Y98.996 E.01702
G1 X91.359 Y93.004 E.26809
G1 X90.821 Y93.004 E.01702
G1 X96.813 Y98.996 E.26809
G1 X96.275 Y98.996 E.01702
G1 X90.283 Y93.004 E.26809
G1 X89.745 Y93.004 E.01702
