; generated by PrusaSlicer 2.9.4 on 2026-03-20 at 00:24:37 UTC


;
;
; 

; external perimeters extrusion width = 0.45mm
; perimeters extrusion width = 0.45mm
; infill extrusion width = 0.45mm
; solid infill extrusion width = 0.45mm
; top infill extrusion width = 0.40mm
; first layer extrusion width = 0.50mm

; external perimeters extrusion width = 0.45mm
; perimeters extrusion width = 0.45mm
; infill extrusion width = 0.45mm
; solid infill extrusion width = 0.45mm
; top infill extrusion width = 0.40mm
; first layer extrusion width = 0.50mm

; external perimeters extrusion width = 0.45mm
; perimeters extrusion width = 0.45mm
; infill extrusion width = 0.45mm
; solid infill extrusion width = 0.45mm
; top infill extrusion width = 0.40mm
; first layer extrusion width = 0.50mm

; external perimeters extrusion width = 0.45mm
; perimeters extrusion width = 0.45mm
; infill extrusion width = 0.45mm
; solid infill extrusion width = 0.45mm
; top infill extrusion width = 0.40mm
; first layer extrusion width = 0.50mm

M73 P0 R16
M73 Q0 S17
M201 X1000 Y1000 Z200 E5000 ; sets maximum accelerations, mm/sec^2
M203 X200 Y200 Z12 E120 ; sets maximum feedrates, mm / sec
M204 S1250 T1250 ; sets acceleration (S) and retract acceleration (R), mm/sec^2
M205 X8.00 Y8.00 Z0.40 E4.50 ; sets the jerk limits, mm/sec
M205 S0 T0 ; sets the minimum extruding and travel feed rate, mm/sec

; printing object J1 Cover.stl id:3 copy 0
; stop printing object J1 Cover.stl id:3 copy 0
; printing object J2 Cover.stl id:2 copy 0
; stop printing object J2 Cover.stl id:2 copy 0
; printing object J4 Cover.stl id:0 copy 0
; stop printing object J4 Cover.stl id:0 copy 0
; printing object J3 Cover.stl id:1 copy 0
; stop printing object J3 Cover.stl id:1 copy 0

;TYPE:Custom
M862.3 P "MK3S" ; printer model check
M862.1 P0.4 ; nozzle diameter check
M115 U3.14.1 ; tell printer latest fw version
G90 ; use absolute coordinates
M83 ; extruder relative mode
M104 S240 ; set extruder temp
M140 S90 ; set bed temp
M190 S90 ; wait for bed temp
M109 S240 ; wait for extruder temp
G28 W ; home all without mesh bed level
G80 X76.854 Y89.079 W74.1569 H30.8419 ; mesh bed levelling

G1 Z0.2 F720
G1 Y-3 F1000 ; go outside print area
G92 E0
G1 X60 E9 F1000 ; intro line
G1 X100 E12.5 F1000 ; intro line

G92 E0
M221 S95

; Don't change E values below. Excessive value can damage the printer.
M907 E430 ; set extruder motor current
G21 ; set units to millimeters
G90 ; use absolute coordinates
M83 ; use relative distances for extrusion

M900 K0.08 ; Filament gcode LA 1.5
M900 K45 ; Filament gcode LA 1.0




M107
;LAYER_CHANGE
;Z:0.2
;HEIGHT:0.2
G1 E-1 F2100
G1 Z.4 F720
G1 X77.477 Y90.276 F10800
G1 Z.2 F720
G1 E1 F2100
M204 S800
;TYPE:Skirt/Brim
;WIDTH:0.5
G1 F900
G1 X78.514 Y89.458 E.0502
G1 X79.311 Y89.31 E.03081
G1 X134.689 Y89.31 E2.10471
G1 X135.461 Y89.449 E.02981
M73 P1 R16
M73 Q1 S17
G1 X145.603 Y93.205 E.41104
G1 X146.649 Y94.01 E.05016
G1 X146.96 Y94.643 E.0268
G1 X150.684 Y106.826 E.48418
G1 X150.782 Y107.476 E.02498
M73 Q1 S16
G1 X150.782 Y116.734 E.35186
G1 X150.39 Y117.995 E.05019
G1 X149.354 Y118.813 E.05017
G1 X148.67 Y118.959 E.02658
G1 X134.689 Y119.69 E.53209
G1 X79.311 Y119.69 E2.10471
G1 X78.051 Y119.298 E.05015
G1 X77.233 Y118.261 E.0502
G1 X77.085 Y117.464 E.03081
G1 X77.085 Y91.536 E.98543
G1 X77.459 Y90.333 E.04788
M204 S1000
;WIPE_START
G1 F8640
M73 P2 R16
G1 X77.477 Y90.276 E-.0138
G1 X78.514 Y89.458 E-.30497
G1 X79.311 Y89.31 E-.18718
M73 Q2 S16
G1 X81.451 Y89.31 E-.49405
;WIPE_END
G1 Z.4 F720
; printing object J2 Cover.stl id:2 copy 0
G1 X107 Y116.346 F10800
G1 Z.2 F720
G1 E1 F2100
M204 S800
;TYPE:Perimeter
;WIDTH:0.499999
G1 F900
G1 X80.429 Y116.346 E1.00986
G1 X80.429 Y109.654 E.25434
G1 X133.571 Y109.654 E2.01973
G1 X133.571 Y116.346 E.25434
G1 X107.06 Y116.346 E1.00758
M204 S1000
G1 X107 Y116.803 F10800
M204 S800
;TYPE:External perimeter
G1 F900
G1 X79.972 Y116.803 E1.02723
G1 X79.972 Y109.197 E.28908
M73 P3 R16
M73 Q3 S16
G1 X134.028 Y109.197 E2.05447
G1 X134.028 Y116.803 E.28908
G1 X107.06 Y116.803 E1.02495
M204 S1000
;WIPE_START
G1 F8640
G1 X107 Y116.803 E-.01385
G1 X102.729 Y116.803 E-.98615
;WIPE_END
G1 Z.4 F720
G1 X132.458 Y109.836 F10800
G1 Z.2 F720
G1 E1 F2100
M204 S800
;TYPE:Solid infill
;WIDTH:0.502892
G1 F900
G1 X133.183 Y110.561 E.03921
G1 X133.183 Y111.211 E.02486
G1 X132.014 Y110.042 E.06323
G1 X131.363 Y110.042 E.0249
G1 X133.183 Y111.862 E.09844
G1 X133.183 Y112.512 E.02486
G1 X130.713 Y110.042 E.1336
G1 X130.062 Y110.042 E.0249
G1 X133.183 Y113.163 E.16881
G1 X133.183 Y113.813 E.02486
G1 X129.412 Y110.042 E.20397
G1 X128.761 Y110.042 E.0249
G1 X133.183 Y114.464 E.23918
G1 X133.183 Y115.114 E.02486
G1 X128.111 Y110.042 E.27434
G1 X127.46 Y110.042 E.0249
G1 X133.183 Y115.765 E.30955
G1 X133.183 Y115.958 E.00738
M73 P4 R16
M73 Q4 S16
G1 X132.725 Y115.958 E.01752
G1 X126.81 Y110.042 E.31996
G1 X126.159 Y110.042 E.0249
G1 X132.075 Y115.958 E.31999
G1 X131.424 Y115.958 E.0249
G1 X125.509 Y110.042 E.31996
G1 X124.858 Y110.042 E.0249
G1 X130.774 Y115.958 E.31999
G1 X130.123 Y115.958 E.0249
G1 X124.208 Y110.042 E.31996
G1 X123.557 Y110.042 E.0249
G1 X129.473 Y115.958 E.31999
G1 X128.822 Y115.958 E.0249
G1 X122.907 Y110.042 E.31996
G1 X122.256 Y110.042 E.0249
G1 X128.172 Y115.958 E.31999
G1 X127.521 Y115.958 E.0249
G1 X121.606 Y110.042 E.31996
G1 X120.955 Y110.042 E.0249
G1 X126.871 Y115.958 E.31999
G1 X126.22 Y115.958 E.0249
G1 X120.305 Y110.042 E.31996
G1 X119.654 Y110.042 E.0249
G1 X125.57 Y115.958 E.31999
G1 X124.919 Y115.958 E.0249
G1 X119.004 Y110.042 E.31996
G1 X118.353 Y110.042 E.0249
G1 X124.269 Y115.958 E.31999
G1 X123.618 Y115.958 E.0249
G1 X117.703 Y110.042 E.31996
G1 X117.052 Y110.042 E.0249
G1 X122.968 Y115.958 E.31999
G1 X122.317 Y115.958 E.0249
G1 X116.402 Y110.042 E.31996
G1 X115.751 Y110.042 E.0249
M73 P5 R16
G1 X121.667 Y115.958 E.31999
M73 Q5 S16
G1 X121.016 Y115.958 E.0249
G1 X115.101 Y110.042 E.31996
G1 X114.45 Y110.042 E.0249
G1 X120.366 Y115.958 E.31999
G1 X119.715 Y115.958 E.0249
G1 X113.8 Y110.042 E.31996
G1 X113.149 Y110.042 E.0249
G1 X119.065 Y115.958 E.31999
G1 X118.414 Y115.958 E.0249
M73 P5 R15
G1 X112.499 Y110.042 E.31996
G1 X111.848 Y110.042 E.0249
G1 X117.764 Y115.958 E.31999
G1 X117.113 Y115.958 E.0249
G1 X111.198 Y110.042 E.31996
G1 X110.547 Y110.042 E.0249
G1 X116.463 Y115.958 E.31999
G1 X115.812 Y115.958 E.0249
G1 X109.897 Y110.042 E.31996
G1 X109.246 Y110.042 E.0249
G1 X115.162 Y115.958 E.31999
G1 X114.511 Y115.958 E.0249
G1 X108.596 Y110.042 E.31996
G1 X107.945 Y110.042 E.0249
G1 X113.861 Y115.958 E.31999
G1 X113.21 Y115.958 E.0249
G1 X107.295 Y110.042 E.31996
G1 X106.644 Y110.042 E.0249
G1 X112.56 Y115.958 E.31999
G1 X111.909 Y115.958 E.0249
G1 X105.994 Y110.042 E.31996
G1 X105.343 Y110.042 E.0249
M73 P6 R15
G1 X111.259 Y115.958 E.31999
G1 X110.608 Y115.958 E.0249
G1 X104.693 Y110.042 E.31996
M73 Q6 S16
G1 X104.042 Y110.042 E.0249
G1 X109.958 Y115.958 E.31999
G1 X109.307 Y115.958 E.0249
G1 X103.392 Y110.042 E.31996
G1 X102.741 Y110.042 E.0249
G1 X108.657 Y115.958 E.31999
G1 X108.006 Y115.958 E.0249
G1 X102.091 Y110.042 E.31996
G1 X101.44 Y110.042 E.0249
G1 X107.356 Y115.958 E.31999
G1 X106.705 Y115.958 E.0249
G1 X100.79 Y110.042 E.31996
G1 X100.139 Y110.042 E.0249
G1 X106.055 Y115.958 E.31999
G1 X105.404 Y115.958 E.0249
G1 X99.489 Y110.042 E.31996
G1 X98.838 Y110.042 E.0249
G1 X104.754 Y115.958 E.31999
G1 X104.103 Y115.958 E.0249
G1 X98.188 Y110.042 E.31996
G1 X97.537 Y110.042 E.0249
G1 X103.453 Y115.958 E.31999
G1 X102.802 Y115.958 E.0249
G1 X96.887 Y110.042 E.31996
G1 X96.236 Y110.042 E.0249
G1 X102.152 Y115.958 E.31999
G1 X101.501 Y115.958 E.0249
G1 X95.586 Y110.042 E.31996
G1 X94.935 Y110.042 E.0249
G1 X100.851 Y115.958 E.31999
G1 X100.2 Y115.958 E.0249
M73 P7 R15
G1 X94.285 Y110.042 E.31996
G1 X93.634 Y110.042 E.0249
G1 X99.55 Y115.958 E.31999
M73 Q7 S16
G1 X98.899 Y115.958 E.0249
M73 Q7 S15
G1 X92.984 Y110.042 E.31996
G1 X92.333 Y110.042 E.0249
G1 X98.249 Y115.958 E.31999
G1 X97.598 Y115.958 E.0249
G1 X91.683 Y110.042 E.31996
G1 X91.032 Y110.042 E.0249
G1 X96.948 Y115.958 E.31999
G1 X96.297 Y115.958 E.0249
G1 X90.382 Y110.042 E.31996
G1 X89.731 Y110.042 E.0249
G1 X95.647 Y115.958 E.31999
G1 X94.996 Y115.958 E.0249
G1 X89.081 Y110.042 E.31996
G1 X88.43 Y110.042 E.0249
G1 X94.346 Y115.958 E.31999
G1 X93.695 Y115.958 E.0249
G1 X87.78 Y110.042 E.31996
G1 X87.129 Y110.042 E.0249
G1 X93.045 Y115.958 E.31999
G1 X92.394 Y115.958 E.0249
G1 X86.479 Y110.042 E.31996
G1 X85.828 Y110.042 E.0249
G1 X91.744 Y115.958 E.31999
G1 X91.093 Y115.958 E.0249
G1 X85.178 Y110.042 E.31996
G1 X84.527 Y110.042 E.0249
G1 X90.443 Y115.958 E.31999
G1 X89.792 Y115.958 E.0249
G1 X83.877 Y110.042 E.31996
G1 X83.226 Y110.042 E.0249
M73 P8 R15
G1 X89.142 Y115.958 E.31999
G1 X88.491 Y115.958 E.0249
G1 X82.576 Y110.042 E.31996
G1 X81.925 Y110.042 E.0249
M73 Q8 S15
G1 X87.841 Y115.958 E.31999
G1 X87.19 Y115.958 E.0249
G1 X81.275 Y110.042 E.31996
G1 X80.817 Y110.042 E.01752
G1 X80.817 Y110.235 E.00738
G1 X86.54 Y115.958 E.30955
G1 X85.889 Y115.958 E.0249
G1 X80.817 Y110.886 E.27434
G1 X80.817 Y111.536 E.02486
G1 X85.239 Y115.958 E.23918
G1 X84.588 Y115.958 E.0249
G1 X80.817 Y112.187 E.20397
G1 X80.817 Y112.837 E.02486
G1 X83.938 Y115.958 E.16881
G1 X83.287 Y115.958 E.0249
G1 X80.817 Y113.488 E.1336
G1 X80.817 Y114.138 E.02486
G1 X82.637 Y115.958 E.09844
G1 X81.986 Y115.958 E.0249
G1 X80.817 Y114.789 E.06323
G1 X80.817 Y115.439 E.02486
G1 X81.542 Y116.163 E.03919
M204 S1000
;WIPE_START
G1 F8640
G1 X80.817 Y115.439 E-.23658
G1 X80.817 Y114.789 E-.15009
G1 X81.986 Y115.958 E-.38173
G1 X82.637 Y115.958 E-.15032
G1 X82.388 Y115.709 E-.08128
;WIPE_END
G1 Z.4 F720
; stop printing object J2 Cover.stl id:2 copy 0
; printing object J1 Cover.stl id:3 copy 0
G1 X107 Y99.346 F10800
G1 Z.2 F720
G1 E1 F2100
M204 S800
;TYPE:Perimeter
;WIDTH:0.499999
G1 F900
G1 X80.429 Y99.346 E1.00986
G1 X80.429 Y92.654 E.25434
G1 X133.571 Y92.654 E2.01973
G1 X133.571 Y99.346 E.25434
M73 P9 R15
M73 Q9 S15
G1 X107.06 Y99.346 E1.00758
M204 S1000
G1 X107 Y99.803 F10800
M204 S800
;TYPE:External perimeter
G1 F900
G1 X79.972 Y99.803 E1.02723
G1 X79.972 Y92.197 E.28908
G1 X134.028 Y92.197 E2.05447
G1 X134.028 Y99.803 E.28908
M73 P10 R15
G1 X107.06 Y99.803 E1.02495
M204 S1000
;WIPE_START
G1 F8640
M73 Q10 S15
G1 X107 Y99.803 E-.01385
G1 X102.729 Y99.803 E-.98615
;WIPE_END
G1 Z.4 F720
G1 X133.389 Y93.767 F10800
G1 Z.2 F720
G1 E1 F2100
M204 S800
;TYPE:Solid infill
;WIDTH:0.502892
G1 F900
G1 X132.664 Y93.042 E.03921
G1 X132.014 Y93.042 E.02486
G1 X133.183 Y94.211 E.06323
G1 X133.183 Y94.862 E.0249
G1 X131.363 Y93.042 E.09844
G1 X130.713 Y93.042 E.02486
G1 X133.183 Y95.512 E.1336
G1 X133.183 Y96.163 E.0249
G1 X130.062 Y93.042 E.16881
G1 X129.412 Y93.042 E.02486
G1 X133.183 Y96.813 E.20397
G1 X133.183 Y97.464 E.0249
G1 X128.761 Y93.042 E.23918
G1 X128.111 Y93.042 E.02486
G1 X133.183 Y98.114 E.27434
G1 X133.183 Y98.765 E.0249
G1 X127.46 Y93.042 E.30955
G1 X126.81 Y93.042 E.02486
G1 X132.725 Y98.958 E.31996
G1 X132.075 Y98.958 E.02486
G1 X126.159 Y93.042 E.31999
G1 X125.509 Y93.042 E.02486
G1 X131.424 Y98.958 E.31996
G1 X130.774 Y98.958 E.02486
G1 X124.858 Y93.042 E.31999
G1 X124.208 Y93.042 E.02486
G1 X130.123 Y98.958 E.31996
G1 X129.473 Y98.958 E.02486
G1 X123.557 Y93.042 E.31999
G1 X122.907 Y93.042 E.02486
G1 X128.822 Y98.958 E.31996
G1 X128.172 Y98.958 E.02486
M73 P11 R15
G1 X122.256 Y93.042 E.31999
G1 X121.606 Y93.042 E.02486
G1 X127.521 Y98.958 E.31996
G1 X126.871 Y98.958 E.02486
M73 Q11 S15
G1 X120.955 Y93.042 E.31999
G1 X120.305 Y93.042 E.02486
M73 P11 R14
G1 X126.22 Y98.958 E.31996
G1 X125.57 Y98.958 E.02486
G1 X119.654 Y93.042 E.31999
G1 X119.004 Y93.042 E.02486
G1 X124.919 Y98.958 E.31996
G1 X124.269 Y98.958 E.02486
G1 X118.353 Y93.042 E.31999
G1 X117.703 Y93.042 E.02486
G1 X123.618 Y98.958 E.31996
G1 X122.968 Y98.958 E.02486
G1 X117.052 Y93.042 E.31999
G1 X116.402 Y93.042 E.02486
G1 X122.317 Y98.958 E.31996
G1 X121.667 Y98.958 E.02486
G1 X115.751 Y93.042 E.31999
G1 X115.101 Y93.042 E.02486
G1 X121.016 Y98.958 E.31996
G1 X120.366 Y98.958 E.02486
G1 X114.45 Y93.042 E.31999
G1 X113.8 Y93.042 E.02486
G1 X119.715 Y98.958 E.31996
G1 X119.065 Y98.958 E.02486
G1 X113.149 Y93.042 E.31999
G1 X112.499 Y93.042 E.02486
G1 X118.414 Y98.958 E.31996
G1 X117.764 Y98.958 E.02486
M73 P12 R14
G1 X111.848 Y93.042 E.31999
G1 X111.198 Y93.042 E.02486
G1 X117.113 Y98.958 E.31996
G1 X116.463 Y98.958 E.02486
G1 X110.547 Y93.042 E.31999
G1 X109.897 Y93.042 E.02486
M73 Q12 S15
G1 X115.812 Y98.958 E.31996
G1 X115.162 Y98.958 E.02486
G1 X109.246 Y93.042 E.31999
G1 X108.596 Y93.042 E.02486
G1 X114.511 Y98.958 E.31996
G1 X113.861 Y98.958 E.02486
G1 X107.945 Y93.042 E.31999
G1 X107.295 Y93.042 E.02486
G1 X113.21 Y98.958 E.31996
G1 X112.56 Y98.958 E.02486
G1 X106.644 Y93.042 E.31999
G1 X105.994 Y93.042 E.02486
G1 X111.909 Y98.958 E.31996
G1 X111.259 Y98.958 E.02486
G1 X105.343 Y93.042 E.31999
G1 X104.693 Y93.042 E.02486
G1 X110.608 Y98.958 E.31996
G1 X109.958 Y98.958 E.02486
G1 X104.042 Y93.042 E.31999
G1 X103.392 Y93.042 E.02486
G1 X109.307 Y98.958 E.31996
G1 X108.657 Y98.958 E.02486
G1 X102.741 Y93.042 E.31999
G1 X102.091 Y93.042 E.02486
G1 X108.006 Y98.958 E.31996
G1 X107.356 Y98.958 E.02486
G1 X101.44 Y93.042 E.31999
G1 X100.79 Y93.042 E.02486
M73 P13 R14
G1 X106.705 Y98.958 E.31996
G1 X106.055 Y98.958 E.02486
M73 Q12 S14
G1 X100.139 Y93.042 E.31999
G1 X99.489 Y93.042 E.02486
G1 X105.404 Y98.958 E.31996
G1 X104.754 Y98.958 E.02486
M73 Q13 S14
G1 X98.838 Y93.042 E.31999
G1 X98.188 Y93.042 E.02486
G1 X104.103 Y98.958 E.31996
G1 X103.453 Y98.958 E.02486
G1 X97.537 Y93.042 E.31999
G1 X96.887 Y93.042 E.02486
G1 X102.802 Y98.958 E.31996
G1 X102.152 Y98.958 E.02486
G1 X96.236 Y93.042 E.31999
G1 X95.586 Y93.042 E.02486
G1 X101.501 Y98.958 E.31996
G1 X100.851 Y98.958 E.02486
G1 X94.935 Y93.042 E.31999
G1 X94.285 Y93.042 E.02486
G1 X100.2 Y98.958 E.31996
G1 X99.55 Y98.958 E.02486
G1 X93.634 Y93.042 E.31999
G1 X92.984 Y93.042 E.02486
G1 X98.899 Y98.958 E.31996
G1 X98.249 Y98.958 E.02486
G1 X92.333 Y93.042 E.31999
G1 X91.683 Y93.042 E.02486
G1 X97.598 Y98.958 E.31996
G1 X96.948 Y98.958 E.02486
G1 X91.032 Y93.042 E.31999
G1 X90.382 Y93.042 E.02486
G1 X96.297 Y98.958 E.31996
G1 X95.647 Y98.958 E.02486
M73 P14 R14
G1 X89.731 Y93.042 E.31999
G1 X89.081 Y93.042 E.02486
G1 X94.996 Y98.958 E.31996
G1 X94.346 Y98.958 E.02486
G1 X88.43 Y93.042 E.31999
G1 X87.78 Y93.042 E.02486
M73 Q14 S14
G1 X93.695 Y98.958 E.31996
G1 X93.045 Y98.958 E.02486
G1 X87.129 Y93.042 E.31999
G1 X86.479 Y93.042 E.02486
G1 X92.394 Y98.958 E.31996
G1 X91.744 Y98.958 E.02486
G1 X85.828 Y93.042 E.31999
G1 X85.178 Y93.042 E.02486
G1 X91.093 Y98.958 E.31996
G1 X90.443 Y98.958 E.02486
G1 X84.527 Y93.042 E.31999
G1 X83.877 Y93.042 E.02486
G1 X89.792 Y98.958 E.31996
G1 X89.142 Y98.958 E.02486
G1 X83.226 Y93.042 E.31999
G1 X82.576 Y93.042 E.02486
G1 X88.491 Y98.958 E.31996
G1 X87.841 Y98.958 E.02486
G1 X81.925 Y93.042 E.31999
G1 X81.275 Y93.042 E.02486
G1 X87.19 Y98.958 E.31996
G1 X86.54 Y98.958 E.02486
G1 X80.817 Y93.235 E.30955
G1 X80.817 Y93.886 E.0249
G1 X85.889 Y98.958 E.27434
G1 X85.239 Y98.958 E.02486
G1 X80.817 Y94.536 E.23918
G1 X80.817 Y95.187 E.0249
M73 P15 R14
G1 X84.588 Y98.958 E.20397
G1 X83.938 Y98.958 E.02486
G1 X80.817 Y95.837 E.16881
G1 X80.817 Y96.488 E.0249
G1 X83.287 Y98.958 E.1336
G1 X82.637 Y98.958 E.02486
G1 X80.817 Y97.138 E.09844
G1 X80.817 Y97.789 E.0249
G1 X81.986 Y98.958 E.06323
G1 X81.336 Y98.958 E.02486
G1 X80.611 Y98.233 E.03921
M204 S1000
;WIPE_START
G1 F8640
G1 X81.336 Y98.958 E-.23675
G1 X81.986 Y98.958 E-.15009
G1 X80.817 Y97.789 E-.38173
G1 X80.817 Y97.138 E-.15032
G1 X81.065 Y97.386 E-.08111
;WIPE_END
G1 Z.4 F720
; stop printing object J1 Cover.stl id:3 copy 0
; printing object J3 Cover.stl id:1 copy 0
G1 X142.196 Y97.912 F10800
G1 Z.2 F720
M73 Q15 S14
G1 E1 F2100
M204 S800
;TYPE:Perimeter
;WIDTH:0.499999
G1 F900
G1 X140.672 Y97.912 E.05792
G1 X140.672 Y96.404 E.05731
G1 X143.72 Y96.404 E.11584
G1 X143.72 Y97.912 E.05731
G1 X142.256 Y97.912 E.05564
M204 S1000
G1 X142.196 Y98.369 F10800
M204 S800
