; generated by PrusaSlicer 2.9.4 on 2026-03-20 at 00:25:48 UTC


;
;
; 

; external perimeters extrusion width = 0.45mm
; perimeters extrusion width = 0.45mm
; infill extrusion width = 0.45mm
; solid infill extrusion width = 0.45mm
; top infill extrusion width = 0.40mm
; first layer extrusion width = 0.50mm

M73 P0 R20
M73 Q0 S20
M201 X1000 Y1000 Z200 E5000 ; sets maximum accelerations, mm/sec^2
M203 X200 Y200 Z12 E120 ; sets maximum feedrates, mm / sec
M204 S1250 T1250 ; sets acceleration (S) and retract acceleration (R), mm/sec^2
M205 X8.00 Y8.00 Z0.40 E4.50 ; sets the jerk limits, mm/sec
M205 S0 T0 ; sets the minimum extruding and travel feed rate, mm/sec

; printing object USB Restraint Cap.stl id:0 copy 0
; stop printing object USB Restraint Cap.stl id:0 copy 0

;TYPE:Custom
M862.3 P "MK3S" ; printer model check
M862.1 P0.4 ; nozzle diameter check
M115 U3.14.1 ; tell printer latest fw version
G90 ; use absolute coordinates
M83 ; extruder relative mode
M104 S240 ; set extruder temp
M140 S90 ; set bed temp
M190 S90 ; wait for bed temp
M109 S240 ; wait for extruder temp
G28 W ; home all without mesh bed level
G80 X110.961 Y90.3609 W28.0781 H29.2781 ; mesh bed levelling

G1 Z0.2 F720
G1 Y-3 F1000 ; go outside print area
G92 E0
G1 X60 E9 F1000 ; intro line
G1 X100 E12.5 F1000 ; intro line

G92 E0
M221 S95

; Don't change E values below. Excessive value can damage the printer.
M907 E430 ; set extruder motor current
G21 ; set units to millimeters
G90 ; use absolute coordinates
M83 ; use relative distances for extrusion

M900 K0.08 ; Filament gcode LA 1.5
M900 K45 ; Filament gcode LA 1.0




M107
;LAYER_CHANGE
;Z:0.2
;HEIGHT:0.2
G1 E-1 F2100
G1 Z.4 F720
G1 X112.239 Y93.142 F10800
G1 Z.2 F720
G1 E1 F2100
M204 S800
;TYPE:Skirt/Brim
;WIDTH:0.5
G1 F900
G1 X113.043 Y92.204 E.04695
G1 X114.025 Y91.455 E.04694
G1 X115.141 Y90.926 E.04694
G1 X116.343 Y90.64 E.04696
G1 X133.041 Y90.593 E.63463
G1 X133.991 Y90.693 E.03631
G1 X134.859 Y90.926 E.03416
G1 X135.732 Y91.314 E.03631
G1 X136.748 Y92.016 E.04694
G1 X137.384 Y92.652 E.03418
G1 X137.945 Y93.425 E.0363
G1 X138.353 Y94.226 E.03416
G1 X138.707 Y95.409 E.04693
G1 X138.811 Y96.5 E.04165
G1 X138.807 Y113.641 E.65147
G1 X138.561 Y115.192 E.05968
G1 X138.239 Y116.031 E.03416
G1 X137.761 Y116.858 E.0363
G1 X136.957 Y117.796 E.04695
G1 X135.732 Y118.686 E.05755
G1 X134.592 Y119.161 E.04694
G1 X133.378 Y119.389 E.04695
G1 X116.959 Y119.407 E.62403
G1 X116.009 Y119.307 E.03631
M73 Q1 S20
G1 X115.408 Y119.161 E.02351
G1 X114.569 Y118.839 E.03416
G1 X113.742 Y118.361 E.0363
G1 X112.804 Y117.557 E.04695
G1 X112.055 Y116.575 E.04694
M73 P1 R20
G1 X111.439 Y115.192 E.05754
G1 X111.211 Y113.978 E.04695
G1 X111.193 Y96.359 E.66963
G1 X111.293 Y95.409 E.03631
G1 X111.439 Y94.808 E.02351
G1 X111.761 Y93.969 E.03416
G1 X112.209 Y93.194 E.03402
M204 S1000
G1 X112.604 Y93.422 F10800
M204 S800
G1 F900
G1 X112.622 Y93.391 E.00136
G1 X113.366 Y92.528 E.04331
G1 X114.274 Y91.838 E.04334
G1 X115.305 Y91.352 E.04332
G1 X116.414 Y91.092 E.04329
G1 X133.017 Y91.05 E.63102
G1 X133.919 Y91.144 E.03447
G1 X134.695 Y91.352 E.03053
G1 X135.524 Y91.722 E.0345
G1 X136.46 Y92.372 E.04331
G1 X137.028 Y92.94 E.03053
G1 X137.562 Y93.674 E.0345
G1 X138.048 Y94.705 E.04332
G1 X138.256 Y95.481 E.03053
G1 X138.353 Y96.5 E.0389
G1 X138.35 Y113.617 E.65055
G1 X138.12 Y115.073 E.05602
G1 X137.832 Y115.823 E.03053
G1 X137.378 Y116.609 E.0345
G1 X136.634 Y117.472 E.04331
G1 X135.524 Y118.278 E.05214
G1 X134.473 Y118.72 E.04333
G1 X133.354 Y118.933 E.04329
G1 X116.983 Y118.95 E.6222
G1 X115.527 Y118.72 E.05602
G1 X114.777 Y118.432 E.03053
G1 X113.991 Y117.978 E.0345
G1 X113.128 Y117.234 E.04331
G1 X112.438 Y116.326 E.04334
G1 X111.88 Y115.073 E.05213
G1 X111.667 Y113.954 E.04329
G1 X111.65 Y96.383 E.66781
G1 X111.88 Y94.927 E.05602
G1 X112.168 Y94.177 E.03053
G1 X112.574 Y93.474 E.03085
M204 S1000
;WIPE_START
G1 F8640
G1 X112.604 Y93.422 E-.01386
G1 X112.622 Y93.391 E-.00828
G1 X113.366 Y92.528 E-.2631
G1 X114.274 Y91.838 E-.26333
G1 X115.305 Y91.352 E-.26318
G1 X116.099 Y91.166 E-.18825
;WIPE_END
G1 Z.4 F720
; printing object USB Restraint Cap.stl id:0 copy 0
G1 X125.023 Y108.477 F10800
G1 Z.2 F720
G1 E1 F2100
M204 S800
;TYPE:Perimeter
;WIDTH:0.499999
G1 F900
G1 X124.556 Y108.475 E.01775
G1 X123.712 Y108.258 E.03312
G1 X122.965 Y107.851 E.03233
G1 X122.324 Y107.26 E.03314
G1 X121.858 Y106.549 E.03231
G1 X121.573 Y105.725 E.03314
G1 X121.499 Y104.877 E.03235
G1 X121.638 Y104.017 E.03311
G1 X121.974 Y103.235 E.03235
G1 X122.487 Y102.561 E.03219
G1 X123.166 Y102.016 E.03309
G1 X123.964 Y101.654 E.0333
G1 X124.801 Y101.503 E.03232
G1 X125.407 Y101.521 E.02304
G1 X126.095 Y101.673 E.02678
G1 X126.864 Y102.034 E.03229
G1 X127.402 Y102.47 E.02632
G1 X127.652 Y102.712 E.01322
G1 X128.046 Y103.269 E.02593
G1 X128.372 Y104.052 E.03224
G1 X128.502 Y104.914 E.03313
G1 X128.419 Y105.761 E.03235
G1 X128.126 Y106.581 E.03309
G1 X127.652 Y107.288 E.03235
G1 X127.005 Y107.872 E.03313
G1 X126.254 Y108.271 E.03232
G1 X125.407 Y108.479 E.03315
G1 X125.083 Y108.477 E.01231
M204 S1000
G1 X125.01 Y108.027 F10800
M204 S800
;TYPE:External perimeter
G1 F900
G1 X124.57 Y108.018 E.01673
G1 X123.837 Y107.818 E.02888
G1 X123.193 Y107.455 E.0281
G1 X122.642 Y106.932 E.02887
G1 X122.246 Y106.308 E.02809
G1 X122.008 Y105.586 E.02889
G1 X121.955 Y104.849 E.02808
G1 X122.087 Y104.1 E.02891
G1 X122.389 Y103.426 E.02807
G1 X122.844 Y102.846 E.02802
G1 X123.444 Y102.379 E.0289
G1 X124.142 Y102.075 E.02894
G1 X124.871 Y101.954 E.02809
G1 X125.309 Y101.967 E.01665
G1 X125.997 Y102.119 E.02678
G1 X126.66 Y102.443 E.02805
G1 X127.104 Y102.816 E.02204
G1 X127.279 Y102.976 E.00901
G1 X127.672 Y103.533 E.02591
G1 X127.946 Y104.218 E.02804
G1 X128.048 Y104.971 E.02888
G1 X127.965 Y105.705 E.02807
G1 X127.699 Y106.417 E.02889
G1 X127.279 Y107.025 E.02809
G1 X126.707 Y107.526 E.0289
G1 X126.049 Y107.862 E.02808
G1 X125.309 Y108.033 E.02887
G1 X125.07 Y108.028 E.00909
M204 S1000
;WIPE_START
G1 F8640
G1 X125.01 Y108.027 E-.01386
G1 X124.57 Y108.018 E-.10162
G1 X123.837 Y107.818 E-.17544
G1 X123.193 Y107.455 E-.1707
G1 X122.642 Y106.932 E-.17541
G1 X122.246 Y106.308 E-.17065
G1 X122.008 Y105.586 E-.17554
G1 X122.003 Y105.514 E-.01678
;WIPE_END
G1 Z.4 F720
G1 X125 Y115.357 F10800
G1 Z.2 F720
M73 Q2 S20
G1 E1 F2100
M204 S800
;TYPE:Perimeter
G1 F900
G1 X117.242 Y115.357 E.29485
G1 X116.715 Y115.313 E.0201
M73 P2 R20
G1 X116.346 Y115.193 E.01475
G1 X116.011 Y114.999 E.01471
G1 X115.723 Y114.74 E.01472
G1 X115.495 Y114.427 E.01472
G1 X115.337 Y114.073 E.01473
G1 X115.243 Y113.48 E.02282
G1 X115.243 Y96.642 E.63995
G1 X115.287 Y96.115 E.0201
M73 P2 R19
G1 X115.407 Y95.746 E.01475
G1 X115.601 Y95.411 E.01471
G1 X115.86 Y95.123 E.01472
G1 X116.173 Y94.895 E.01472
G1 X116.527 Y94.737 E.01473
G1 X117.12 Y94.643 E.02282
G1 X132.962 Y94.646 E.6021
G1 X133.464 Y94.745 E.01945
G1 X133.822 Y94.904 E.01489
G1 X134.133 Y95.13 E.01461
G1 X134.391 Y95.417 E.01467
G1 X134.584 Y95.75 E.01463
G1 X134.703 Y96.117 E.01466
G1 X134.757 Y96.569 E.0173
G1 X134.757 Y113.358 E.63809
G1 X134.713 Y113.885 E.0201
G1 X134.593 Y114.254 E.01475
G1 X134.399 Y114.589 E.01471
G1 X134.14 Y114.877 E.01472
G1 X133.827 Y115.105 E.01472
G1 X133.473 Y115.263 E.01473
G1 X132.88 Y115.357 E.02282
G1 X125.06 Y115.357 E.29721
M204 S1000
G1 X125 Y115.814 F10800
M73 Q2 S19
M204 S800
;TYPE:External perimeter
G1 F900
G1 X117.242 Y115.814 E.29485
G1 X116.619 Y115.762 E.02376
G1 X116.159 Y115.613 E.01838
G1 X115.74 Y115.371 E.01839
G1 X115.381 Y115.048 E.01835
G1 X115.097 Y114.657 E.01837
G1 X114.9 Y114.215 E.01839
G1 X114.85 Y113.978 E.00921
G1 X114.786 Y113.492 E.01863
G1 X114.786 Y96.642 E.64041
G1 X114.838 Y96.019 E.02376
G1 X114.987 Y95.559 E.01838
G1 X115.229 Y95.14 E.01839
G1 X115.552 Y94.781 E.01835
G1 X115.943 Y94.497 E.01837
G1 X116.385 Y94.3 E.01839
G1 X116.622 Y94.25 E.00921
G1 X117.108 Y94.186 E.01863
G1 X132.807 Y94.188 E.59666
G1 X133.381 Y94.237 E.02189
G1 X133.841 Y94.387 E.01839
G1 X134.26 Y94.629 E.01839
G1 X134.619 Y94.952 E.01835
G1 X134.903 Y95.343 E.01837
G1 X135.1 Y95.785 E.01839
G1 X135.151 Y96.028 E.00944
G1 X135.214 Y96.569 E.0207
G1 X135.214 Y113.358 E.63809
G1 X135.162 Y113.981 E.02376
G1 X135.013 Y114.441 E.01838
G1 X134.771 Y114.86 E.01839
G1 X134.448 Y115.219 E.01835
G1 X134.057 Y115.503 E.01837
G1 X133.615 Y115.7 E.01839
G1 X133.378 Y115.75 E.00921
G1 X132.892 Y115.814 E.01863
G1 X125.06 Y115.814 E.29767
M204 S1000
;WIPE_START
G1 F8640
G1 X125 Y115.814 E-.01385
G1 X120.729 Y115.814 E-.98615
;WIPE_END
G1 Z.4 F720
G1 X134.574 Y96.756 F10800
G1 Z.2 F720
G1 E1 F2100
M204 S800
;TYPE:Solid infill
;WIDTH:0.501085
G1 F900
G1 X132.852 Y95.034 E.09278
G1 X132.204 Y95.034 E.02469
G1 X134.369 Y97.198 E.11662
G1 X134.369 Y97.846 E.02469
G1 X131.556 Y95.034 E.15153
G1 X130.908 Y95.034 E.02469
G1 X134.369 Y98.494 E.18644
G1 X134.369 Y99.142 E.02469
M73 Q3 S19
G1 X130.26 Y95.034 E.22135
G1 X129.612 Y95.034 E.02469
M73 P3 R19
G1 X134.369 Y99.79 E.25626
G1 X134.369 Y100.438 E.02469
G1 X128.964 Y95.033 E.2912
G1 X128.316 Y95.033 E.02469
G1 X134.369 Y101.086 E.32612
G1 X134.369 Y101.734 E.02469
G1 X127.668 Y95.033 E.36103
G1 X127.02 Y95.033 E.02469
G1 X134.369 Y102.382 E.39594
G1 X134.369 Y103.03 E.02469
G1 X126.372 Y95.033 E.43085
G1 X125.724 Y95.033 E.02469
G1 X134.369 Y103.678 E.46576
G1 X134.369 Y104.326 E.02469
G1 X125.076 Y95.033 E.50068
G1 X124.428 Y95.033 E.02469
G1 X134.369 Y104.974 E.53559
G1 X134.369 Y105.622 E.02469
G1 X123.78 Y95.032 E.57053
G1 X123.132 Y95.032 E.02469
G1 X134.369 Y106.27 E.60544
G1 X134.369 Y106.917 E.02465
G1 X122.483 Y95.032 E.64035
G1 X121.835 Y95.032 E.02469
G1 X134.369 Y107.565 E.67526
G1 X134.369 Y108.213 E.02469
G1 X121.187 Y95.032 E.71018
G1 X120.539 Y95.032 E.02469
M73 P4 R19
M73 Q4 S19
G1 X134.369 Y108.861 E.74509
G1 X134.369 Y109.509 E.02469
G1 X128.711 Y103.851 E.30483
G1 X128.483 Y103.266 E.02392
G1 X128.369 Y103.053 E.0092
G1 X127.964 Y102.48 E.02673
G1 X127.8 Y102.3 E.00928
G1 X127.251 Y101.827 E.02761
G1 X127.047 Y101.691 E.00934
G1 X126.418 Y101.377 E.02678
G1 X126.146 Y101.286 E.01093
G1 X119.891 Y95.032 E.33697
G1 X119.243 Y95.032 E.02469
G1 X125.333 Y101.121 E.32808
G1 X124.69 Y101.127 E.0245
G1 X118.595 Y95.031 E.32841
G1 X117.947 Y95.031 E.02469
G1 X124.13 Y101.214 E.33312
G1 X123.82 Y101.293 E.01219
G1 X123.638 Y101.37 E.00753
G1 X117.299 Y95.031 E.34152
G1 X116.974 Y95.04 E.01239
G1 X116.714 Y95.095 E.01012
G1 X123.183 Y101.563 E.3485
G1 X122.938 Y101.701 E.01071
G1 X122.788 Y101.816 E.0072
G1 X116.274 Y95.302 E.35095
G1 X116.121 Y95.413 E.0072
G1 X115.939 Y95.615 E.01036
G1 X122.422 Y102.098 E.34928
G1 X122.322 Y102.174 E.00479
G1 X122.1 Y102.424 E.01274
G1 X115.719 Y96.043 E.34379
G1 X115.669 Y96.196 E.00613
G1 X115.631 Y96.603 E.01557
G1 X121.812 Y102.784 E.33301
G1 X121.625 Y103.064 E.01283
G1 X121.568 Y103.188 E.0052
G1 X115.631 Y97.251 E.31987
G1 X115.631 Y97.899 E.02469
G1 X121.364 Y103.632 E.30888
G1 X121.257 Y103.938 E.01235
G1 X121.224 Y104.139 E.00776
G1 X115.631 Y98.547 E.30131
G1 X115.631 Y99.195 E.02469
G1 X121.131 Y104.694 E.29629
G1 X121.109 Y104.826 E.0051
G1 X121.14 Y105.352 E.02007
G1 X115.426 Y99.637 E.30788
M204 S1000
;WIPE_START
G1 F8640
G1 X118.488 Y102.7 E-1
;WIPE_END
G1 Z.4 F720
M73 Q5 S19
G1 X134.574 Y110.363 F10800
G1 Z.2 F720
M73 P5 R19
G1 E1 F2100
M204 S800
G1 F900
G1 X128.86 Y104.648 E.30788
G1 X128.888 Y104.875 E.00871
G1 X128.889 Y105.121 E.00937
G1 X128.866 Y105.303 E.00699
G1 X134.369 Y110.805 E.29646
G1 X134.369 Y111.453 E.02469
G1 X128.793 Y105.878 E.30039
G1 X128.627 Y106.359 E.01939
G1 X134.369 Y112.101 E.30936
G1 X134.369 Y112.749 E.02469
G1 X128.438 Y106.818 E.31954
G1 X128.182 Y107.211 E.01787
G1 X134.369 Y113.397 E.33331
G1 X134.331 Y113.804 E.01557
G1 X134.281 Y113.957 E.00613
G1 X127.907 Y107.583 E.34341
G1 X127.8 Y107.7 E.00604
G1 X127.572 Y107.896 E.01145
G1 X134.061 Y114.385 E.34961
G1 X133.879 Y114.587 E.01036
G1 X133.726 Y114.698 E.0072
G1 X127.221 Y108.193 E.35047
G1 X127.047 Y108.309 E.00797
G1 X126.808 Y108.428 E.01017
G1 X133.285 Y114.905 E.34896
G1 X133.025 Y114.961 E.01013
G1 X132.701 Y114.969 E.01235
G1 X126.372 Y108.639 E.34101
G1 X126.189 Y108.704 E.0074
G1 X125.861 Y108.776 E.01279
G1 X132.053 Y114.969 E.33363
G1 X131.405 Y114.969 E.02469
G1 X125.316 Y108.879 E.32808
G1 X124.654 Y108.866 E.02522
G1 X130.757 Y114.969 E.32881
G1 X130.109 Y114.969 E.02469
G1 X123.837 Y108.696 E.33794
G1 X123.597 Y108.629 E.00949
G1 X123.37 Y108.533 E.00939
G1 X122.659 Y108.114 E.03144
G1 X122.047 Y107.533 E.03215
G1 X121.893 Y107.342 E.00935
G1 X121.523 Y106.745 E.02676
G1 X121.421 Y106.524 E.00927
G1 X121.306 Y106.166 E.01432
G1 X115.631 Y100.491 E.30575
G1 X115.631 Y101.139 E.02469
G1 X129.461 Y114.969 E.74511
G1 X128.813 Y114.969 E.02469
G1 X115.631 Y101.787 E.7102
G1 X115.631 Y102.435 E.02469
M73 P6 R19
M73 Q6 S19
G1 X128.165 Y114.969 E.67529
G1 X127.517 Y114.969 E.02469
G1 X115.631 Y103.083 E.64038
G1 X115.631 Y103.731 E.02469
G1 X126.869 Y114.969 E.60547
G1 X126.221 Y114.969 E.02469
G1 X115.631 Y104.379 E.57055
G1 X115.631 Y105.026 E.02465
G1 X125.574 Y114.969 E.5357
G1 X124.926 Y114.969 E.02469
G1 X115.631 Y105.674 E.50078
G1 X115.631 Y106.322 E.02469
G1 X124.278 Y114.969 E.46587
G1 X123.63 Y114.969 E.02469
G1 X115.631 Y106.97 E.43096
G1 X115.631 Y107.618 E.02469
G1 X122.982 Y114.969 E.39605
G1 X122.334 Y114.969 E.02469
G1 X115.631 Y108.266 E.36114
G1 X115.631 Y108.914 E.02469
G1 X121.686 Y114.969 E.32622
G1 X121.038 Y114.969 E.02469
G1 X115.631 Y109.562 E.29131
G1 X115.631 Y110.21 E.02469
G1 X120.39 Y114.969 E.2564
G1 X119.742 Y114.969 E.02469
G1 X115.631 Y110.858 E.22149
G1 X115.631 Y111.506 E.02469
M73 P7 R19
M73 Q7 S19
G1 X119.094 Y114.969 E.18657
G1 X118.446 Y114.969 E.02469
M73 P7 R18
G1 X115.631 Y112.154 E.15166
G1 X115.631 Y112.802 E.02469
G1 X117.798 Y114.969 E.11675
G1 X117.149 Y114.968 E.02472
G1 X115.426 Y113.244 E.09286
M204 S1000
;LAYER_CHANGE
;Z:0.35
;HEIGHT:0.15
;BEFORE_LAYER_CHANGE
G92 E0.0
;0.35


;WIPE_START
G1 F8640
G1 X117.149 Y114.968 E-.5628
G1 X117.798 Y114.969 E-.14986
G1 X116.918 Y114.089 E-.28734
;WIPE_END
G1 Z.35 F720
;AFTER_LAYER_CHANGE
;0.35
M104 S230 ; set temperature
M140 S85 ; set bed temperature
; stop printing object USB Restraint Cap.stl id:0 copy 0
G1 Z.55
G1 X111.21 Y113.248 F10800
G1 Z.35 F720
G1 E1 F2100
;TYPE:Skirt/Brim
;WIDTH:0.5
G1 F3000
G1 X111.193 Y96.359 E.49272
G1 X111.293 Y95.409 E.02787
G1 X111.439 Y94.808 E.01804
G1 X111.761 Y93.969 E.02622
G1 X112.239 Y93.142 E.02787
G1 X113.043 Y92.204 E.03604
G1 X114.025 Y91.455 E.03603
G1 X115.141 Y90.926 E.03603
G1 X116.343 Y90.64 E.03605
G1 X133.041 Y90.593 E.48715
G1 X133.991 Y90.693 E.02787
G1 X134.859 Y90.926 E.02622
G1 X135.732 Y91.314 E.02787
G1 X136.748 Y92.016 E.03603
G1 X137.384 Y92.652 E.02624
G1 X137.945 Y93.425 E.02786
G1 X138.353 Y94.226 E.02623
G1 X138.707 Y95.409 E.03602
G1 X138.811 Y96.5 E.03197
G1 X138.807 Y113.641 E.50007
G1 X138.561 Y115.192 E.04581
G1 X138.239 Y116.031 E.02622
G1 X137.761 Y116.858 E.02787
G1 X136.957 Y117.796 E.03604
G1 X135.732 Y118.686 E.04417
G1 X134.592 Y119.161 E.03603
G1 X133.378 Y119.389 E.03604
G1 X116.959 Y119.407 E.47901
G1 X116.009 Y119.307 E.02787
M73 Q7 S18
G1 X115.408 Y119.161 E.01804
G1 X114.569 Y118.839 E.02622
G1 X113.742 Y118.361 E.02787
G1 X112.804 Y117.557 E.03604
G1 X112.055 Y116.575 E.03603
G1 X111.439 Y115.192 E.04417
G1 X111.211 Y113.978 E.03604
G1 X111.21 Y113.308 E.01955
G1 X111.667 Y113.308 F10800
G1 F3000
G1 X111.65 Y96.383 E.49377
G1 X111.88 Y94.927 E.043
G1 X112.168 Y94.177 E.02344
G1 X112.622 Y93.391 E.02648
G1 X113.366 Y92.528 E.03324
G1 X114.274 Y91.838 E.03327
G1 X115.305 Y91.352 E.03325
G1 X116.414 Y91.092 E.03323
G1 X133.017 Y91.05 E.48438
G1 X133.919 Y91.144 E.02646
G1 X134.695 Y91.352 E.02344
G1 X135.524 Y91.722 E.02648
G1 X136.46 Y92.372 E.03325
G1 X137.028 Y92.94 E.02343
G1 X137.562 Y93.674 E.02648
G1 X138.048 Y94.705 E.03325
G1 X138.256 Y95.481 E.02344
G1 X138.353 Y96.5 E.02986
G1 X138.35 Y113.617 E.49937
G1 X138.12 Y115.073 E.043
G1 X137.832 Y115.823 E.02344
G1 X137.378 Y116.609 E.02648
G1 X136.634 Y117.472 E.03324
